; generated by PrusaSlicer 2.3.3+win64 on 2022-03-10 at 12:19:18 UTC


;
;

;
;
; 

; external perimeters extrusion width = 0.45mm
; perimeters extrusion width = 0.45mm
; infill extrusion width = 0.45mm
; solid infill extrusion width = 0.45mm
; top infill extrusion width = 0.40mm
; first layer extrusion width = 0.42mm

M73 P0 R51
M201 X1250 Y1250 Z400 E5000 ; sets maximum accelerations, mm/sec^2
M203 X180 Y180 Z12 E80 ; sets maximum feedrates, mm/sec
M204 P1250 R1250 T1250 ; sets acceleration (P, T) and retract acceleration (R), mm/sec^2
M205 X8.00 Y8.00 Z2.00 E10.00 ; sets the jerk limits, mm/sec
M205 S0 T0 ; sets the minimum extruding and travel feed rate, mm/sec
M107
;TYPE:Custom
G90 ; use absolute coordinates
M83 ; extruder relative mode
M104 S170 ; set extruder temp for bed leveling
M140 S85 ; set bed temp
M109 R170 ; wait for bed leveling temp
M190 S85 ; wait for bed temp
G28 ; home all without mesh bed level
G29 ; mesh bed leveling 
M104 S230 ; set extruder temp
G92 E0.0
G1 Y-2.0 X179 F2400
G1 Z3 F720
M109 S230 ; wait for extruder temp

; intro line
G1 X170 F1000
G1 Z0.2 F720
G1 X110.0 E8.0 F900
G1 X40.0 E10.0 F700
G92 E0.0

M221 S95 ; set flow
G21 ; set units to millimeters
G90 ; use absolute coordinates
M83 ; use relative distances for extrusion
M900 K0.2 ; Filament gcode
;LAYER_CHANGE
;Z:0.2
;HEIGHT:0.2
;BEFORE_LAYER_CHANGE
G92 E0.0
;0.2


G1 E-3.20000 F2400.000
G1 Z0.200 F9000.000
;AFTER_LAYER_CHANGE
;0.2
G1 Z0.400
G1 X61.492 Y63.273
G1 Z0.200
G1 E3.20000 F1500.000
M204 S800
;TYPE:Skirt
;WIDTH:0.42
G1 F1200.000
G1 X80.119 Y45.171 E0.81441
G1 X81.053 Y44.501 E0.03605
G1 X82.282 Y43.947 E0.04226
G1 X83.274 Y43.681 E0.03221
G1 X84.590 Y43.558 E0.04143
G1 X104.881 Y45.395 E0.63880
G1 X117.456 Y47.285 E0.39870
G1 X118.243 Y47.468 E0.02534
G1 X135.540 Y52.396 E0.56392
G1 X136.941 Y52.888 E0.04657
G1 X137.760 Y53.266 E0.02827
G1 X138.983 Y53.975 E0.04434
G1 X139.793 Y54.565 E0.03141
G1 X140.610 Y55.293 E0.03433
G1 X141.379 Y56.154 E0.03619
G1 X142.107 Y57.234 E0.04081
G1 X142.625 Y58.341 E0.03833
G1 X143.054 Y59.904 E0.05084
G1 X143.163 Y61.201 E0.04078
G1 X143.069 Y62.378 E0.03703
G1 X142.791 Y63.514 E0.03668
G1 X142.366 Y64.544 E0.03493
G1 X107.527 Y131.712 E2.37244
G1 X106.377 Y133.316 E0.06189
G1 X105.020 Y134.625 E0.05912
G1 X103.205 Y135.751 E0.06697
G1 X102.331 Y136.090 E0.02940
G1 X101.435 Y136.315 E0.02897
G1 X99.969 Y136.439 E0.04612
G1 X97.966 Y136.161 E0.06341
G1 X61.807 Y125.674 E1.18047
G1 X60.906 Y125.323 E0.03029
G1 X60.102 Y124.852 E0.02922
G1 X59.046 Y123.903 E0.04453
G1 X38.976 Y98.559 E1.01364
G1 X38.010 Y96.892 E0.06038
G1 X37.453 Y95.394 E0.05012
G1 X37.197 Y94.366 E0.03322
G1 X36.854 Y91.664 E0.08538
G1 X36.870 Y90.103 E0.04895
G1 X36.976 Y89.200 E0.02850
G1 X37.329 Y87.806 E0.04509
G1 X37.656 Y87.011 E0.02696
G1 X38.288 Y85.947 E0.03879
G1 X38.787 Y85.339 E0.02468
G1 X61.449 Y63.315 E0.99082
M204 S1250
; printing object Neat Bojo-Snicket (4).stl id:0 copy 0
M73 P1 R51
G1 E-2.24000 F2400.000
;WIPE_START
G1 F7200.000
G1 X63.514 Y61.308 E-0.91200
;WIPE_END
G1 E-0.04800 F2400.000
G1 Z0.400 F9000.000
G1 X87.112 Y63.230
G1 Z0.200
G1 E3.20000 F1500.000
M204 S800
;TYPE:Perimeter
G1 F1200.000
G1 X136.311 Y63.230 E1.54259
G1 X136.736 Y64.129 E0.03116
G1 X135.807 Y65.277 E0.04632
G1 X134.795 Y66.581 E0.05174
G1 X133.540 Y68.291 E0.06652
G1 X132.898 Y69.222 E0.03546
G1 X132.280 Y70.168 E0.03542
G1 X131.939 Y70.733 E0.02068
G1 X131.689 Y71.177 E0.01600
G1 X130.914 Y72.684 E0.05313
G1 X130.236 Y73.834 E0.04184
G1 X129.143 Y75.509 E0.06271
G1 X128.382 Y76.556 E0.04060
G1 X127.961 Y77.076 E0.02096
G1 X127.509 Y77.591 E0.02148
G1 X126.659 Y78.468 E0.03830
G1 X126.175 Y78.924 E0.02085
G1 X125.584 Y79.432 E0.02445
G1 X124.883 Y79.974 E0.02775
G1 X124.072 Y80.526 E0.03077
G1 X123.149 Y81.068 E0.03356
G1 X122.116 Y81.576 E0.03610
G1 X120.977 Y82.027 E0.03841
G1 X120.127 Y82.299 E0.02798
G1 X119.314 Y82.504 E0.02630
G1 X118.532 Y82.650 E0.02493
G1 X117.783 Y82.747 E0.02368
G1 X117.061 Y82.807 E0.02272
G1 X116.362 Y82.836 E0.02194
G1 X115.032 Y82.849 E0.04168
G1 X113.486 Y82.836 E0.04850
G1 X112.747 Y82.805 E0.02319
G1 X112.022 Y82.743 E0.02282
G1 X111.304 Y82.638 E0.02272
G1 X110.586 Y82.482 E0.02305
G1 X109.864 Y82.262 E0.02366
G1 X109.129 Y81.967 E0.02482
G1 X108.804 Y81.798 E0.01149
G1 X108.114 Y81.369 E0.02547
G1 X107.247 Y80.762 E0.03320
G1 X105.458 Y79.446 E0.06962
G1 X103.114 Y77.655 E0.09250
G1 X102.579 Y77.320 E0.01979
G1 X101.821 Y76.938 E0.02661
G1 X100.942 Y76.544 E0.03021
G1 X100.518 Y76.395 E0.01410
G1 X100.087 Y76.282 E0.01396
G1 X99.648 Y76.216 E0.01392
G1 X99.193 Y76.200 E0.01426
G1 X98.722 Y76.243 E0.01484
G1 X98.156 Y76.382 E0.01828
G1 X97.649 Y76.586 E0.01715
G1 X97.197 Y76.837 E0.01619
G1 X96.802 Y77.115 E0.01515
G1 X96.468 Y77.399 E0.01375
G1 X96.196 Y77.664 E0.01190
G1 X95.862 Y78.032 E0.01560
G1 X95.411 Y78.701 E0.02528
G1 X95.106 Y79.374 E0.02317
G1 X94.913 Y80.058 E0.02227
G1 X94.811 Y80.740 E0.02164
G1 X94.782 Y81.407 E0.02093
G1 X94.801 Y82.041 E0.01988
G1 X94.997 Y84.365 E0.07312
G1 X95.066 Y84.935 E0.01801
G1 X95.167 Y85.464 E0.01687
G1 X95.309 Y85.935 E0.01544
G1 X95.498 Y86.339 E0.01399
G1 X95.739 Y86.675 E0.01297
G1 X96.063 Y86.965 E0.01363
G1 X96.312 Y87.116 E0.00911
G1 X96.620 Y87.240 E0.01043
G1 X97.012 Y87.339 E0.01267
G1 X97.505 Y87.415 E0.01562
G1 X98.105 Y87.468 E0.01889
G1 X98.819 Y87.504 E0.02243
G1 X100.618 Y87.555 E0.05641
G1 X102.418 Y87.571 E0.05646
G1 X103.332 Y87.624 E0.02870
G1 X103.763 Y87.701 E0.01372
G1 X104.174 Y87.843 E0.01364
G1 X104.862 Y88.261 E0.02524
G1 X104.834 Y89.435 E0.03682
G1 X104.861 Y90.274 E0.02630
G1 X104.949 Y91.398 E0.03537
G1 X104.990 Y91.681 E0.00896
G1 X105.058 Y91.976 E0.00948
G1 X105.176 Y92.351 E0.01233
G1 X105.350 Y92.772 E0.01429
G1 X105.592 Y93.213 E0.01577
G1 X105.908 Y93.651 E0.01693
G1 X106.315 Y94.069 E0.01829
G1 X106.759 Y94.414 E0.01764
G1 X107.119 Y94.618 E0.01297
G1 X107.410 Y94.729 E0.00976
G1 X108.348 Y94.934 E0.03011
G1 X108.777 Y95.163 E0.01525
G1 X109.129 Y95.553 E0.01648
G1 X109.447 Y96.206 E0.02277
G1 X109.662 Y96.991 E0.02554
G1 X109.810 Y97.895 E0.02871
G1 X109.908 Y98.912 E0.03205
G1 X109.963 Y100.026 E0.03496
G1 X109.981 Y101.215 E0.03727
G1 X109.968 Y102.455 E0.03888
G1 X109.926 Y103.732 E0.04007
G1 X109.836 Y104.895 E0.03659
G1 X109.677 Y105.960 E0.03376
G1 X109.462 Y106.936 E0.03133
G1 X109.203 Y107.837 E0.02939
G1 X108.911 Y108.683 E0.02807
G1 X107.963 Y111.045 E0.07979
G1 X107.413 Y112.346 E0.04427
G1 X106.866 Y113.450 E0.03863
G1 X106.338 Y114.380 E0.03354
G1 X105.834 Y115.164 E0.02921
G1 X105.016 Y116.325 E0.04455
G1 X105.824 Y115.825 E0.02980
G1 X106.689 Y115.371 E0.03063
G1 X107.157 Y115.185 E0.01579
G1 X107.708 Y115.069 E0.01765
G1 X108.429 Y115.269 E0.02347
G1 X108.709 Y115.866 E0.02068
G1 X108.709 Y116.296 E0.01348
G1 X108.629 Y116.645 E0.01120
G1 X108.505 Y116.975 E0.01108
G1 X108.342 Y117.307 E0.01157
G1 X108.144 Y117.639 E0.01213
G1 X107.911 Y117.971 E0.01272
G1 X107.586 Y118.362 E0.01593
G1 X106.893 Y118.805 E0.02579
G1 X87.903 Y118.805 E0.59543
G1 X87.800 Y118.117 E0.02180
G1 X87.752 Y117.983 E0.00446
G1 X87.630 Y117.763 E0.00789
G1 X87.406 Y117.463 E0.01175
G1 X87.125 Y117.169 E0.01274
G1 X86.823 Y116.930 E0.01208
G1 X86.507 Y116.745 E0.01148
G1 X86.193 Y116.618 E0.01062
G1 X85.893 Y116.550 E0.00964
G1 X85.622 Y116.537 E0.00850
G1 X85.387 Y116.575 E0.00749
G1 X85.204 Y116.650 E0.00619
G1 X85.111 Y116.726 E0.00377
G1 X85.071 Y116.802 E0.00270
G1 X85.034 Y116.993 E0.00610
G1 X85.007 Y117.720 E0.02281
G1 X84.932 Y118.218 E0.01579
G1 X84.654 Y118.780 E0.01964
G1 X84.083 Y119.180 E0.02190
G1 X83.496 Y119.284 E0.01867
G1 X82.953 Y119.205 E0.01719
G1 X82.458 Y119.015 E0.01664
G1 X81.996 Y118.747 E0.01674
G1 X81.561 Y118.415 E0.01714
G1 X81.160 Y118.026 E0.01752
G1 X80.801 Y117.588 E0.01776
G1 X80.562 Y117.197 E0.01438
G1 X80.278 Y117.910 E0.02408
G1 X79.965 Y118.493 E0.02074
G1 X79.567 Y119.091 E0.02252
G1 X79.041 Y119.691 E0.02503
G1 X78.483 Y120.192 E0.02353
G1 X77.919 Y120.601 E0.02183
G1 X77.379 Y120.927 E0.01978
G1 X76.885 Y121.179 E0.01739
G1 X75.914 Y121.580 E0.03295
G1 X75.165 Y121.800 E0.02446
G1 X74.451 Y121.917 E0.02268
G1 X73.748 Y121.935 E0.02204
G1 X73.028 Y121.877 E0.02268
G1 X70.300 Y121.444 E0.08660
G1 X69.003 Y121.263 E0.04103
G1 X67.693 Y121.129 E0.04131
G1 X66.582 Y121.053 E0.03490
G1 X65.660 Y121.018 E0.02893
G1 X63.842 Y120.995 E0.05703
G1 X63.361 Y120.932 E0.01520
G1 X62.697 Y120.541 E0.02416
G1 X62.704 Y119.664 E0.02751
G1 X62.842 Y118.790 E0.02773
G1 X63.075 Y117.653 E0.03640
G1 X63.387 Y116.338 E0.04237
G1 X63.755 Y114.961 E0.04469
G1 X64.161 Y113.639 E0.04338
G1 X64.593 Y112.479 E0.03879
G1 X65.028 Y111.621 E0.03017
G1 X65.763 Y110.491 E0.04227
G1 X66.276 Y109.758 E0.02804
G1 X66.902 Y108.955 E0.03193
G1 X67.650 Y108.121 E0.03515
G1 X68.529 Y107.292 E0.03787
G1 X69.547 Y106.508 E0.04029
G1 X70.697 Y105.818 E0.04204
G1 X71.725 Y105.315 E0.03588
G1 X74.044 Y104.325 E0.07907
G1 X74.550 Y104.063 E0.01786
G1 X74.925 Y103.794 E0.01447
G1 X75.204 Y103.491 E0.01292
G1 X75.435 Y103.079 E0.01482
G1 X75.597 Y102.563 E0.01696
G1 X75.678 Y102.039 E0.01662
G1 X75.722 Y100.946 E0.03430
G1 X75.792 Y100.347 E0.01890
G1 X75.941 Y99.632 E0.02291
G1 X76.157 Y98.832 E0.02598
G1 X76.437 Y97.958 E0.02875
G1 X76.780 Y97.033 E0.03095
G1 X77.182 Y96.077 E0.03252
G1 X77.640 Y95.111 E0.03351
G1 X78.148 Y94.166 E0.03365
G1 X79.250 Y92.281 E0.06846
G1 X79.738 Y91.501 E0.02885
G1 X80.208 Y90.808 E0.02627
G1 X80.685 Y90.190 E0.02446
G1 X81.184 Y89.639 E0.02330
G1 X81.723 Y89.147 E0.02289
G1 X82.335 Y88.693 E0.02392
G1 X82.975 Y88.368 E0.02250
G1 X83.792 Y88.076 E0.02720
G1 X86.740 Y87.224 E0.09619
G1 X87.718 Y86.911 E0.03223
G1 X88.591 Y86.575 E0.02932
G1 X89.003 Y86.367 E0.01446
G1 X88.954 Y86.225 E0.00471
G1 X88.752 Y85.803 E0.01466
G1 X87.868 Y84.243 E0.05622
G1 X87.609 Y83.731 E0.01799
G1 X87.236 Y82.830 E0.03058
G1 X86.919 Y81.931 E0.02989
G1 X86.648 Y80.965 E0.03145
G1 X86.413 Y79.880 E0.03480
G1 X86.207 Y78.620 E0.04004
G1 X86.015 Y77.123 E0.04732
G1 X85.829 Y75.327 E0.05662
G1 X85.635 Y73.162 E0.06816
G1 X85.506 Y71.229 E0.06073
G1 X85.457 Y69.562 E0.05231
G1 X85.476 Y68.148 E0.04434
G1 X85.552 Y66.971 E0.03696
G1 X85.674 Y66.013 E0.03028
G1 X85.832 Y65.253 E0.02435
G1 X86.026 Y64.658 E0.01961
G1 X86.261 Y64.221 E0.01557
G1 X87.073 Y63.276 E0.03907
M204 S1250
G1 X87.285 Y63.608 F9000.000
M204 S800
;TYPE:External perimeter
G1 F1200.000
G1 X117.741 Y63.608 E0.95492
M73 P1 R50
G1 X117.810 Y63.645 E0.00245
G1 X117.823 Y63.608 E0.00124
G1 X136.072 Y63.608 E0.57219
G1 X136.294 Y64.076 E0.01625
G1 X135.511 Y65.043 E0.03901
G1 X134.494 Y66.354 E0.05202
G1 X133.233 Y68.073 E0.06685
G1 X132.584 Y69.012 E0.03579
G1 X131.960 Y69.968 E0.03578
G1 X131.613 Y70.543 E0.02107
G1 X131.357 Y70.999 E0.01640
G1 X130.583 Y72.502 E0.05302
G1 X129.915 Y73.635 E0.04123
G1 X128.833 Y75.295 E0.06214
G1 X128.082 Y76.326 E0.03999
G1 X127.673 Y76.833 E0.02043
G1 X127.232 Y77.335 E0.02095
G1 X126.394 Y78.199 E0.03774
G1 X125.922 Y78.643 E0.02031
G1 X125.345 Y79.140 E0.02388
G1 X124.662 Y79.668 E0.02708
G1 X123.870 Y80.207 E0.03002
G1 X122.971 Y80.736 E0.03272
G1 X121.963 Y81.231 E0.03519
G1 X120.850 Y81.672 E0.03754
G1 X120.024 Y81.936 E0.02721
G1 X119.233 Y82.135 E0.02557
G1 X118.473 Y82.278 E0.02424
G1 X117.743 Y82.372 E0.02308
G1 X117.037 Y82.431 E0.02221
G1 X116.352 Y82.459 E0.02151
G1 X115.032 Y82.472 E0.04139
G1 X113.495 Y82.459 E0.04820
G1 X112.771 Y82.429 E0.02273
G1 X112.065 Y82.368 E0.02221
G1 X111.372 Y82.267 E0.02196
G1 X110.681 Y82.117 E0.02216
G1 X109.990 Y81.906 E0.02267
G1 X109.287 Y81.624 E0.02374
G1 X108.991 Y81.470 E0.01045
G1 X108.322 Y81.054 E0.02469
G1 X107.467 Y80.456 E0.03274
G1 X105.684 Y79.145 E0.06937
G1 X103.329 Y77.345 E0.09294
G1 X102.765 Y76.991 E0.02089
G1 X101.983 Y76.597 E0.02743
G1 X101.082 Y76.193 E0.03097
G1 X100.628 Y76.034 E0.01508
G1 X100.163 Y75.913 E0.01507
G1 X99.683 Y75.839 E0.01523
G1 X99.183 Y75.822 E0.01569
G1 X98.660 Y75.870 E0.01646
G1 X98.040 Y76.022 E0.02001
G1 X97.486 Y76.245 E0.01874
G1 X96.996 Y76.517 E0.01756
G1 X96.571 Y76.817 E0.01631
G1 X96.214 Y77.120 E0.01469
G1 X95.924 Y77.402 E0.01267
G1 X95.564 Y77.799 E0.01681
G1 X95.080 Y78.516 E0.02713
G1 X94.750 Y79.244 E0.02507
G1 X94.544 Y79.979 E0.02391
G1 X94.436 Y80.704 E0.02300
G1 X94.404 Y81.404 E0.02198
G1 X94.424 Y82.063 E0.02065
G1 X94.622 Y84.403 E0.07365
G1 X94.693 Y84.993 E0.01863
G1 X94.801 Y85.554 E0.01789
G1 X94.956 Y86.070 E0.01690
G1 X95.171 Y86.531 E0.01594
G1 X95.457 Y86.929 E0.01537
G1 X95.838 Y87.270 E0.01603
G1 X96.143 Y87.454 E0.01118
G1 X96.503 Y87.599 E0.01218
G1 X96.937 Y87.709 E0.01402
G1 X97.459 Y87.789 E0.01657
G1 X98.078 Y87.844 E0.01949
G1 X98.804 Y87.881 E0.02279
G1 X100.611 Y87.932 E0.05665
G1 X102.405 Y87.948 E0.05628
G1 X103.287 Y87.999 E0.02770
G1 X103.667 Y88.068 E0.01211
G1 X104.013 Y88.186 E0.01146
G1 X104.480 Y88.470 E0.01713
G1 X104.457 Y89.437 E0.03032
G1 X104.484 Y90.294 E0.02690
G1 X104.574 Y91.440 E0.03603
G1 X104.619 Y91.751 E0.00985
G1 X104.694 Y92.075 E0.01043
G1 X104.821 Y92.480 E0.01330
G1 X105.009 Y92.935 E0.01546
G1 X105.272 Y93.415 E0.01716
G1 X105.619 Y93.894 E0.01853
G1 X106.063 Y94.350 E0.01997
G1 X106.549 Y94.729 E0.01932
G1 X106.958 Y94.960 E0.01473
G1 X107.302 Y95.091 E0.01153
G1 X108.216 Y95.291 E0.02935
G1 X108.541 Y95.464 E0.01154
G1 X108.813 Y95.766 E0.01273
G1 X109.092 Y96.339 E0.02000
G1 X109.293 Y97.072 E0.02382
G1 X109.436 Y97.944 E0.02769
G1 X109.532 Y98.940 E0.03138
G1 X109.586 Y100.038 E0.03449
G1 X109.604 Y101.216 E0.03692
G1 X109.591 Y102.446 E0.03860
G1 X109.549 Y103.711 E0.03968
G1 X109.461 Y104.853 E0.03590
G1 X109.305 Y105.892 E0.03294
G1 X109.097 Y106.843 E0.03054
G1 X108.843 Y107.723 E0.02871
G1 X108.558 Y108.552 E0.02748
G1 X107.614 Y110.901 E0.07939
G1 X107.070 Y112.188 E0.04381
G1 X106.533 Y113.273 E0.03794
G1 X106.015 Y114.185 E0.03288
G1 X105.521 Y114.954 E0.02868
G1 X105.061 Y115.616 E0.02525
G1 X104.441 Y116.481 E0.03338
G1 X104.239 Y116.724 E0.00989
G1 X104.017 Y117.183 E0.01599
G1 X104.336 Y117.071 E0.01060
G1 X104.484 Y117.055 E0.00466
G1 X105.064 Y116.739 E0.02071
G1 X106.011 Y116.153 E0.03493
G1 X106.847 Y115.715 E0.02959
G1 X107.267 Y115.548 E0.01417
G1 X107.696 Y115.457 E0.01376
G1 X108.161 Y115.586 E0.01514
G1 X108.332 Y115.950 E0.01261
G1 X108.332 Y116.254 E0.00952
G1 X108.268 Y116.536 E0.00907
G1 X108.159 Y116.826 E0.00970
G1 X108.011 Y117.126 E0.01052
G1 X107.827 Y117.434 E0.01122
G1 X107.611 Y117.742 E0.01180
G1 X107.334 Y118.076 E0.01361
G1 X106.783 Y118.427 E0.02049
G1 X88.228 Y118.427 E0.58179
G1 X88.167 Y118.025 E0.01275
G1 X88.097 Y117.827 E0.00660
G1 X87.947 Y117.558 E0.00966
G1 X87.694 Y117.219 E0.01326
G1 X87.379 Y116.889 E0.01429
G1 X87.036 Y116.618 E0.01373
G1 X86.674 Y116.405 E0.01317
G1 X86.306 Y116.257 E0.01243
G1 X85.944 Y116.174 E0.01165
G1 X85.601 Y116.159 E0.01077
G1 X85.284 Y116.210 E0.01005
G1 X85.009 Y116.322 E0.00932
G1 X84.812 Y116.483 E0.00799
G1 X84.711 Y116.677 E0.00684
G1 X84.658 Y116.950 E0.00873
G1 X84.631 Y117.685 E0.02306
G1 X84.568 Y118.104 E0.01328
G1 X84.359 Y118.526 E0.01477
G1 X83.935 Y118.824 E0.01625
G1 X83.490 Y118.902 E0.01415
G1 X83.049 Y118.838 E0.01398
G1 X82.621 Y118.674 E0.01438
G1 X82.206 Y118.433 E0.01504
G1 X81.808 Y118.129 E0.01570
G1 X81.438 Y117.771 E0.01615
G1 X81.109 Y117.369 E0.01627
G1 X80.838 Y116.926 E0.01627
G1 X80.762 Y116.682 E0.00803
G1 X80.625 Y116.489 E0.00742
G1 X80.569 Y116.304 E0.00605
G1 X80.324 Y116.750 E0.01594
G1 X80.059 Y117.472 E0.02412
G1 X79.939 Y117.745 E0.00934
G1 X79.641 Y118.299 E0.01973
G1 X79.267 Y118.861 E0.02117
G1 X78.772 Y119.425 E0.02353
G1 X78.245 Y119.899 E0.02221
G1 X77.711 Y120.287 E0.02071
G1 X77.195 Y120.597 E0.01886
G1 X76.723 Y120.839 E0.01665
G1 X76.316 Y121.019 E0.01394
G1 X75.792 Y121.223 E0.01764
G1 X75.081 Y121.432 E0.02322
G1 X74.416 Y121.541 E0.02115
G1 X73.759 Y121.558 E0.02060
G1 X73.072 Y121.502 E0.02159
G1 X70.355 Y121.071 E0.08626
G1 X69.049 Y120.889 E0.04136
G1 X67.725 Y120.753 E0.04172
G1 X66.602 Y120.676 E0.03528
G1 X65.670 Y120.641 E0.02926
G1 X63.869 Y120.618 E0.05648
G1 X63.486 Y120.568 E0.01210
