; generated by PrusaSlicer 2.3.3+win64 on 2022-03-10 at 12:01:20 UTC


;
;

;
;
; 

; external perimeters extrusion width = 0.45mm
; perimeters extrusion width = 0.45mm
; infill extrusion width = 0.45mm
; solid infill extrusion width = 0.45mm
; top infill extrusion width = 0.40mm
; first layer extrusion width = 0.42mm

M73 P0 R45
M201 X1250 Y1250 Z400 E5000 ; sets maximum accelerations, mm/sec^2
M203 X180 Y180 Z12 E80 ; sets maximum feedrates, mm/sec
M204 P1250 R1250 T1250 ; sets acceleration (P, T) and retract acceleration (R), mm/sec^2
M205 X8.00 Y8.00 Z2.00 E10.00 ; sets the jerk limits, mm/sec
M205 S0 T0 ; sets the minimum extruding and travel feed rate, mm/sec
M107
;TYPE:Custom
G90 ; use absolute coordinates
M83 ; extruder relative mode
M104 S170 ; set extruder temp for bed leveling
M140 S85 ; set bed temp
M109 R170 ; wait for bed leveling temp
M190 S85 ; wait for bed temp
G28 ; home all without mesh bed level
G29 ; mesh bed leveling 
M104 S230 ; set extruder temp
G92 E0.0
G1 Y-2.0 X179 F2400
G1 Z3 F720
M109 S230 ; wait for extruder temp

; intro line
G1 X170 F1000
G1 Z0.2 F720
G1 X110.0 E8.0 F900
G1 X40.0 E10.0 F700
G92 E0.0

M221 S95 ; set flow
G21 ; set units to millimeters
G90 ; use absolute coordinates
M83 ; use relative distances for extrusion
M900 K0.2 ; Filament gcode
;LAYER_CHANGE
;Z:0.2
;HEIGHT:0.2
;BEFORE_LAYER_CHANGE
G92 E0.0
;0.2


G1 E-3.20000 F2400.000
G1 Z0.200 F9000.000
;AFTER_LAYER_CHANGE
;0.2
G1 Z0.400
G1 X61.492 Y63.273
G1 Z0.200
G1 E3.20000 F1500.000
M204 S800
;TYPE:Skirt
;WIDTH:0.42
G1 F1200.000
G1 X80.119 Y45.171 E0.81441
G1 X81.053 Y44.501 E0.03605
G1 X82.282 Y43.947 E0.04226
G1 X83.274 Y43.681 E0.03221
G1 X84.590 Y43.558 E0.04143
G1 X104.881 Y45.395 E0.63880
G1 X117.456 Y47.285 E0.39870
G1 X118.243 Y47.468 E0.02534
G1 X135.540 Y52.396 E0.56392
G1 X136.941 Y52.888 E0.04657
G1 X137.760 Y53.266 E0.02827
G1 X138.983 Y53.975 E0.04434
G1 X139.793 Y54.565 E0.03141
G1 X140.610 Y55.293 E0.03433
G1 X141.379 Y56.154 E0.03619
G1 X142.107 Y57.234 E0.04081
G1 X142.625 Y58.341 E0.03833
G1 X143.054 Y59.904 E0.05084
G1 X143.163 Y61.201 E0.04078
G1 X143.069 Y62.378 E0.03703
G1 X142.791 Y63.514 E0.03668
G1 X142.366 Y64.544 E0.03493
G1 X107.527 Y131.712 E2.37244
G1 X106.377 Y133.316 E0.06189
G1 X105.020 Y134.625 E0.05912
G1 X103.205 Y135.751 E0.06697
G1 X102.331 Y136.090 E0.02940
G1 X101.435 Y136.315 E0.02897
G1 X99.969 Y136.439 E0.04612
G1 X97.966 Y136.161 E0.06341
G1 X61.807 Y125.674 E1.18047
M73 P1 R45
G1 X60.906 Y125.323 E0.03029
G1 X60.102 Y124.852 E0.02922
G1 X59.048 Y123.906 E0.04441
G1 X38.976 Y98.559 E1.01376
G1 X38.010 Y96.892 E0.06038
G1 X37.453 Y95.394 E0.05012
G1 X37.197 Y94.366 E0.03322
G1 X36.854 Y91.664 E0.08538
G1 X36.870 Y90.103 E0.04895
G1 X36.976 Y89.200 E0.02850
G1 X37.329 Y87.806 E0.04509
G1 X37.656 Y87.011 E0.02696
G1 X38.288 Y85.947 E0.03879
G1 X38.787 Y85.339 E0.02468
G1 X61.449 Y63.315 E0.99082
M204 S1250
; printing object dyo stamps.stl id:0 copy 0
G1 E-2.24000 F2400.000
;WIPE_START
G1 F7200.000
G1 X63.514 Y61.308 E-0.91200
;WIPE_END
G1 E-0.04800 F2400.000
G1 Z0.400 F9000.000
G1 X83.751 Y48.911
G1 Z0.200
G1 E3.20000 F1500.000
M204 S800
;TYPE:Perimeter
G1 F1200.000
G1 X84.400 Y48.734 E0.02111
G1 X85.087 Y48.752 E0.02153
G1 X85.761 Y48.871 E0.02147
G1 X87.346 Y49.212 E0.05083
G1 X88.282 Y49.377 E0.02979
G1 X89.317 Y49.502 E0.03271
G1 X91.404 Y49.608 E0.06552
G1 X92.276 Y49.720 E0.02757
G1 X93.093 Y49.872 E0.02606
G1 X95.542 Y50.411 E0.07861
G1 X96.472 Y50.567 E0.02959
G1 X97.532 Y50.690 E0.03344
G1 X98.968 Y50.775 E0.04512
G1 X100.272 Y50.772 E0.04089
G1 X101.441 Y50.714 E0.03669
G1 X103.361 Y50.561 E0.06038
M73 P1 R44
G1 X104.129 Y50.532 E0.02411
G1 X104.849 Y50.611 E0.02271
G1 X105.438 Y50.941 E0.02116
G1 X105.762 Y51.375 E0.01698
G1 X105.975 Y51.738 E0.01323
G1 X106.149 Y52.123 E0.01322
G1 X106.283 Y52.523 E0.01323
G1 X106.377 Y52.936 E0.01329
G1 X106.427 Y53.357 E0.01331
G1 X106.434 Y53.785 E0.01339
G1 X106.390 Y54.215 E0.01357
G1 X106.206 Y55.007 E0.02549
G1 X105.927 Y55.696 E0.02332
G1 X105.571 Y56.280 E0.02142
G1 X105.157 Y56.760 E0.01988
G1 X104.706 Y57.139 E0.01847
G1 X104.514 Y57.257 E0.00706
G1 X104.725 Y57.396 E0.00793
G1 X105.267 Y57.840 E0.02195
G1 X105.945 Y58.582 E0.03153
G1 X106.466 Y59.240 E0.02630
G1 X106.499 Y59.263 E0.00125
G1 X107.936 Y59.385 E0.04522
G1 X108.633 Y59.465 E0.02199
G1 X109.430 Y59.590 E0.02531
G1 X110.322 Y59.771 E0.02854
G1 X111.302 Y60.025 E0.03173
G1 X112.366 Y60.363 E0.03500
G1 X113.582 Y60.835 E0.04090
G1 X114.672 Y61.350 E0.03779
G1 X115.632 Y61.874 E0.03430
G1 X117.644 Y63.122 E0.07425
G1 X117.885 Y62.694 E0.01540
G1 X118.286 Y62.130 E0.02171
G1 X118.852 Y61.514 E0.02622
G1 X119.169 Y61.289 E0.01219
G1 X118.960 Y61.269 E0.00659
G1 X118.493 Y61.154 E0.01508
G1 X118.042 Y60.988 E0.01505
G1 X117.567 Y60.768 E0.01643
G1 X116.774 Y60.218 E0.03025
G1 X116.137 Y59.540 E0.02916
G1 X115.655 Y58.810 E0.02743
G1 X115.305 Y58.078 E0.02543
G1 X115.062 Y57.390 E0.02289
G1 X114.904 Y56.786 E0.01957
G1 X114.815 Y56.305 E0.01533
G1 X114.689 Y55.252 E0.03327
G1 X114.657 Y54.805 E0.01405
G1 X114.655 Y54.338 E0.01464
G1 X114.705 Y53.851 E0.01535
G1 X114.848 Y53.352 E0.01627
G1 X115.139 Y52.866 E0.01776
G1 X115.662 Y52.456 E0.02083
G1 X116.244 Y52.368 E0.01848
G1 X116.805 Y52.465 E0.01784
G1 X117.400 Y52.653 E0.01956
G1 X118.872 Y53.249 E0.04978
G1 X121.996 Y54.626 E0.10705
G1 X122.776 Y54.916 E0.02610
G1 X123.732 Y55.193 E0.03122
G1 X124.823 Y55.463 E0.03524
G1 X129.405 Y56.468 E0.14708
G1 X130.835 Y56.839 E0.04630
G1 X133.327 Y57.253 E0.07921
G1 X134.062 Y57.428 E0.02371
G1 X134.821 Y57.669 E0.02497
G1 X135.591 Y57.998 E0.02625
G1 X135.976 Y58.208 E0.01373
G1 X136.361 Y58.455 E0.01434
G1 X136.745 Y58.746 E0.01512
G1 X137.116 Y59.082 E0.01568
G1 X137.460 Y59.466 E0.01618
G1 X137.761 Y59.904 E0.01666
G1 X137.998 Y60.398 E0.01718
G1 X138.142 Y60.934 E0.01741
G1 X138.181 Y61.387 E0.01424
G1 X138.133 Y61.832 E0.01405
G1 X138.000 Y62.265 E0.01418
G1 X137.796 Y62.682 E0.01456
G1 X137.531 Y63.099 E0.01548
G1 X137.204 Y63.544 E0.01732
G1 X135.807 Y65.277 E0.06980
G1 X134.795 Y66.581 E0.05175
G1 X133.540 Y68.291 E0.06652
G1 X132.898 Y69.222 E0.03546
G1 X132.280 Y70.168 E0.03542
G1 X131.939 Y70.733 E0.02068
G1 X131.689 Y71.177 E0.01600
G1 X130.914 Y72.684 E0.05313
G1 X130.236 Y73.834 E0.04184
G1 X129.143 Y75.509 E0.06271
G1 X128.382 Y76.556 E0.04060
G1 X127.961 Y77.076 E0.02096
G1 X127.510 Y77.589 E0.02142
G1 X127.022 Y78.099 E0.02213
G1 X126.178 Y78.920 E0.03692
G1 X125.584 Y79.432 E0.02461
G1 X124.883 Y79.974 E0.02775
G1 X124.072 Y80.526 E0.03077
G1 X123.149 Y81.068 E0.03356
G1 X122.116 Y81.576 E0.03610
G1 X120.977 Y82.027 E0.03841
G1 X120.127 Y82.299 E0.02798
G1 X119.314 Y82.504 E0.02630
G1 X118.532 Y82.650 E0.02493
G1 X117.783 Y82.747 E0.02368
G1 X117.061 Y82.807 E0.02272
G1 X116.362 Y82.836 E0.02194
G1 X115.032 Y82.849 E0.04168
G1 X113.486 Y82.836 E0.04850
G1 X112.747 Y82.805 E0.02319
G1 X112.022 Y82.743 E0.02282
G1 X111.304 Y82.638 E0.02272
G1 X110.586 Y82.482 E0.02305
G1 X109.864 Y82.262 E0.02366
G1 X109.129 Y81.967 E0.02482
G1 X108.804 Y81.798 E0.01149
G1 X108.114 Y81.369 E0.02547
G1 X107.247 Y80.762 E0.03320
G1 X105.458 Y79.446 E0.06962
G1 X103.114 Y77.655 E0.09250
G1 X102.579 Y77.320 E0.01979
G1 X101.821 Y76.938 E0.02661
G1 X100.942 Y76.544 E0.03021
G1 X100.518 Y76.395 E0.01410
G1 X100.087 Y76.282 E0.01396
G1 X99.648 Y76.216 E0.01392
G1 X99.193 Y76.200 E0.01426
G1 X98.722 Y76.243 E0.01484
G1 X98.156 Y76.382 E0.01828
G1 X97.649 Y76.586 E0.01715
G1 X97.197 Y76.837 E0.01619
G1 X96.802 Y77.115 E0.01515
G1 X96.468 Y77.399 E0.01375
G1 X96.196 Y77.664 E0.01190
G1 X95.862 Y78.032 E0.01560
G1 X95.411 Y78.701 E0.02528
G1 X95.106 Y79.374 E0.02317
G1 X94.913 Y80.058 E0.02227
G1 X94.811 Y80.740 E0.02164
G1 X94.782 Y81.407 E0.02093
G1 X94.801 Y82.041 E0.01988
G1 X94.997 Y84.365 E0.07312
G1 X95.066 Y84.935 E0.01801
G1 X95.167 Y85.464 E0.01687
G1 X95.309 Y85.935 E0.01544
G1 X95.498 Y86.339 E0.01399
G1 X95.739 Y86.675 E0.01297
G1 X96.063 Y86.965 E0.01363
G1 X96.312 Y87.116 E0.00911
G1 X96.620 Y87.240 E0.01043
G1 X97.012 Y87.339 E0.01267
G1 X97.505 Y87.415 E0.01562
G1 X98.105 Y87.468 E0.01889
G1 X98.819 Y87.504 E0.02243
G1 X100.618 Y87.555 E0.05641
G1 X102.418 Y87.571 E0.05646
G1 X103.332 Y87.624 E0.02870
G1 X103.763 Y87.701 E0.01372
G1 X104.174 Y87.843 E0.01364
G1 X104.867 Y88.264 E0.02541
G1 X104.834 Y89.130 E0.02719
G1 X104.842 Y89.815 E0.02147
G1 X104.896 Y90.808 E0.03117
G1 X104.956 Y91.475 E0.02101
G1 X105.060 Y91.983 E0.01625
G1 X105.176 Y92.351 E0.01209
G1 X105.350 Y92.772 E0.01429
G1 X105.592 Y93.213 E0.01577
G1 X105.908 Y93.651 E0.01693
G1 X106.315 Y94.069 E0.01829
G1 X106.759 Y94.414 E0.01764
G1 X107.119 Y94.618 E0.01297
G1 X107.410 Y94.729 E0.00976
G1 X108.348 Y94.934 E0.03011
G1 X108.777 Y95.163 E0.01525
G1 X109.129 Y95.553 E0.01648
G1 X109.447 Y96.206 E0.02277
G1 X109.662 Y96.991 E0.02554
G1 X109.810 Y97.895 E0.02871
G1 X109.908 Y98.912 E0.03205
G1 X109.963 Y100.026 E0.03496
G1 X109.981 Y101.215 E0.03727
G1 X109.968 Y102.455 E0.03888
G1 X109.926 Y103.732 E0.04007
G1 X109.836 Y104.895 E0.03659
G1 X109.677 Y105.960 E0.03376
G1 X109.462 Y106.936 E0.03133
G1 X109.203 Y107.837 E0.02939
G1 X108.911 Y108.683 E0.02807
G1 X107.963 Y111.045 E0.07979
G1 X107.413 Y112.346 E0.04427
G1 X106.866 Y113.450 E0.03863
G1 X106.338 Y114.380 E0.03354
G1 X105.834 Y115.164 E0.02921
G1 X105.019 Y116.321 E0.04439
G1 X105.453 Y116.046 E0.01613
G1 X106.244 Y115.592 E0.02857
G1 X106.696 Y115.369 E0.01582
G1 X107.157 Y115.185 E0.01557
G1 X107.708 Y115.069 E0.01765
G1 X108.429 Y115.269 E0.02347
G1 X108.709 Y115.866 E0.02068
G1 X108.709 Y116.296 E0.01348
G1 X108.629 Y116.645 E0.01120
G1 X108.505 Y116.975 E0.01108
G1 X108.342 Y117.307 E0.01157
G1 X108.144 Y117.639 E0.01213
G1 X107.911 Y117.971 E0.01272
G1 X107.586 Y118.362 E0.01593
G1 X107.020 Y118.723 E0.02104
G1 X106.471 Y118.936 E0.01847
G1 X105.963 Y119.061 E0.01642
G1 X105.159 Y119.209 E0.02561
G1 X105.221 Y119.199 E0.00196
G1 X105.156 Y120.695 E0.04696
G1 X105.016 Y122.239 E0.04862
G1 X104.053 Y122.577 E0.03199
G1 X103.320 Y121.785 E0.03384
G1 X102.680 Y122.557 E0.03146
G1 X103.112 Y122.736 E0.01466
G1 X103.751 Y122.920 E0.02085
G1 X104.908 Y123.087 E0.03663
G1 X104.724 Y124.332 E0.03946
G1 X104.345 Y126.050 E0.05515
G1 X103.832 Y127.638 E0.05232
G1 X103.162 Y129.047 E0.04895
G1 X102.297 Y130.228 E0.04589
G1 X101.160 Y131.124 E0.04538
G1 X100.040 Y131.374 E0.03598
G1 X98.861 Y131.142 E0.03769
G1 X97.703 Y130.593 E0.04017
G1 X96.557 Y129.806 E0.04358
G1 X95.440 Y128.838 E0.04637
G1 X94.380 Y127.737 E0.04791
G1 X93.417 Y126.554 E0.04783
G1 X92.454 Y125.135 E0.05377
G1 X92.553 Y123.991 E0.03599
G1 X92.574 Y122.938 E0.03301
G1 X92.542 Y122.447 E0.01544
G1 X92.477 Y122.087 E0.01147
G1 X92.391 Y121.878 E0.00710
G1 X92.310 Y121.757 E0.00454
G1 X92.083 Y121.483 E0.01116
G1 X91.995 Y121.411 E0.00354
G1 X91.718 Y121.272 E0.00973
G1 X91.491 Y121.209 E0.00739
G1 X91.174 Y121.154 E0.01010
G1 X90.265 Y121.043 E0.02871
G1 X89.909 Y120.947 E0.01157
G1 X89.542 Y120.790 E0.01250
G1 X89.173 Y120.536 E0.01406
G1 X88.840 Y120.138 E0.01626
G1 X88.214 Y119.477 E0.02855
G1 X87.873 Y119.036 E0.01748
G1 X87.602 Y118.404 E0.02155
G1 X87.800 Y118.117 E0.01093
G1 X87.752 Y117.983 E0.00446
G1 X87.630 Y117.763 E0.00789
G1 X87.406 Y117.463 E0.01175
G1 X87.125 Y117.169 E0.01274
G1 X86.823 Y116.930 E0.01208
G1 X86.507 Y116.745 E0.01148
G1 X86.193 Y116.618 E0.01062
G1 X85.893 Y116.550 E0.00964
G1 X85.622 Y116.537 E0.00850
G1 X85.387 Y116.575 E0.00749
G1 X85.204 Y116.650 E0.00619
G1 X85.111 Y116.726 E0.00377
G1 X85.071 Y116.802 E0.00270
G1 X85.034 Y116.993 E0.00610
G1 X85.007 Y117.720 E0.02281
G1 X84.932 Y118.218 E0.01579
G1 X84.654 Y118.780 E0.01964
G1 X84.083 Y119.180 E0.02190
G1 X83.496 Y119.284 E0.01867
G1 X82.953 Y119.205 E0.01719
G1 X82.458 Y119.015 E0.01664
G1 X81.996 Y118.747 E0.01674
G1 X81.561 Y118.415 E0.01714
G1 X81.160 Y118.026 E0.01752
G1 X80.801 Y117.588 E0.01776
G1 X80.562 Y117.197 E0.01438
G1 X80.278 Y117.910 E0.02408
G1 X79.965 Y118.493 E0.02074
G1 X79.567 Y119.091 E0.02252
G1 X79.041 Y119.691 E0.02503
G1 X78.483 Y120.192 E0.02353
G1 X77.919 Y120.601 E0.02183
G1 X77.379 Y120.927 E0.01978
G1 X76.885 Y121.179 E0.01739
G1 X75.914 Y121.580 E0.03295
G1 X75.165 Y121.800 E0.02446
G1 X74.451 Y121.917 E0.02268
G1 X73.748 Y121.935 E0.02204
G1 X73.028 Y121.877 E0.02268
G1 X70.300 Y121.444 E0.08660
G1 X69.003 Y121.263 E0.04103
G1 X67.693 Y121.129 E0.04131
G1 X66.582 Y121.053 E0.03490
G1 X65.660 Y121.018 E0.02893
G1 X63.842 Y120.995 E0.05703
G1 X63.361 Y120.932 E0.01520
G1 X62.697 Y120.541 E0.02416
G1 X62.704 Y119.664 E0.02751
G1 X62.842 Y118.790 E0.02773
G1 X63.075 Y117.653 E0.03640
G1 X63.387 Y116.338 E0.04237
G1 X63.755 Y114.961 E0.04469
G1 X64.161 Y113.639 E0.04338
G1 X64.593 Y112.479 E0.03879
G1 X65.028 Y111.621 E0.03017
G1 X65.763 Y110.491 E0.04227
G1 X66.276 Y109.758 E0.02804
G1 X66.902 Y108.955 E0.03193
G1 X67.650 Y108.121 E0.03515
G1 X68.529 Y107.292 E0.03787
G1 X69.547 Y106.508 E0.04029
G1 X70.697 Y105.818 E0.04204
G1 X71.725 Y105.315 E0.03588
G1 X74.044 Y104.325 E0.07907
G1 X74.550 Y104.063 E0.01786
G1 X74.925 Y103.794 E0.01447
G1 X75.204 Y103.491 E0.01292
G1 X75.435 Y103.079 E0.01482
G1 X75.597 Y102.563 E0.01696
G1 X75.678 Y102.039 E0.01662
G1 X75.722 Y100.946 E0.03430
G1 X75.792 Y100.347 E0.01890
G1 X75.941 Y99.632 E0.02291
G1 X76.157 Y98.832 E0.02598
G1 X76.437 Y97.958 E0.02875
G1 X76.780 Y97.033 E0.03095
G1 X77.182 Y96.077 E0.03252
G1 X77.640 Y95.111 E0.03351
G1 X78.148 Y94.166 E0.03365
G1 X79.250 Y92.281 E0.06846
G1 X79.738 Y91.501 E0.02885
G1 X80.208 Y90.808 E0.02627
G1 X80.685 Y90.190 E0.02446
G1 X81.184 Y89.639 E0.02330
G1 X81.723 Y89.147 E0.02289
G1 X82.335 Y88.693 E0.02392
G1 X82.975 Y88.368 E0.02250
G1 X83.792 Y88.076 E0.02720
G1 X86.740 Y87.224 E0.09619
G1 X87.718 Y86.911 E0.03223
G1 X88.591 Y86.575 E0.02932
G1 X89.003 Y86.367 E0.01446
G1 X88.954 Y86.225 E0.00471
G1 X88.752 Y85.803 E0.01466
G1 X87.868 Y84.243 E0.05622
G1 X87.609 Y83.731 E0.01799
G1 X87.236 Y82.830 E0.03058
G1 X86.919 Y81.931 E0.02989
G1 X86.648 Y80.965 E0.03145
G1 X86.413 Y79.880 E0.03480
G1 X86.207 Y78.620 E0.04004
G1 X86.015 Y77.123 E0.04732
G1 X85.829 Y75.327 E0.05662
G1 X85.635 Y73.162 E0.06816
G1 X85.506 Y71.229 E0.06073
G1 X85.457 Y69.562 E0.05231
G1 X85.476 Y68.148 E0.04434
G1 X85.552 Y66.971 E0.03696
G1 X85.674 Y66.013 E0.03028
G1 X85.832 Y65.253 E0.02435
G1 X86.026 Y64.658 E0.01961
G1 X86.262 Y64.221 E0.01558
G1 X87.002 Y63.337 E0.03616
G1 X87.154 Y63.047 E0.01028
G1 X87.183 Y62.824 E0.00705
G1 X87.133 Y62.635 E0.00611
G1 X87.019 Y62.464 E0.00647
G1 X86.774 Y62.239 E0.01043
G1 X85.269 Y61.192 E0.05748
G1 X84.616 Y60.671 E0.02618
G1 X83.954 Y60.036 E0.02878
G1 X83.306 Y59.338 E0.02987
G1 X82.765 Y58.646 E0.02754
G1 X82.505 Y58.224 E0.01554
G1 X82.292 Y57.764 E0.01590
G1 X82.149 Y57.260 E0.01643
G1 X82.068 Y56.237 E0.03217
G1 X82.081 Y55.092 E0.03590
G1 X82.174 Y53.869 E0.03845
G1 X82.336 Y52.642 E0.03883
G1 X82.556 Y51.480 E0.03708
G1 X82.836 Y50.450 E0.03346
G1 X83.195 Y49.582 E0.02946
G1 X83.712 Y48.957 E0.02544
M204 S1250
G1 E-2.24000 F2400.000
;WIPE_START
G1 F7200.000
G1 X84.400 Y48.734 E-0.22899
G1 X85.087 Y48.752 E-0.21747
G1 X85.761 Y48.871 E-0.21681
G1 X86.529 Y49.036 E-0.24873
;WIPE_END
G1 E-0.04800 F2400.000
G1 Z0.400 F9000.000
G1 X104.821 Y119.707
G1 Z0.200
G1 E3.20000 F1500.000
M204 S800
;TYPE:External perimeter
G1 F1200.000
G1 X104.779 Y120.670 E0.03022
G1 X104.662 Y121.964 E0.04073
G1 X104.162 Y122.139 E0.01663
G1 X103.415 Y121.332 E0.03449
G1 X102.676 Y120.424 E0.03670
G1 X103.436 Y120.130 E0.02553
G1 X104.764 Y119.724 E0.04355
M204 S1250
G1 X105.220 Y119.676 F9000.000
G1 X104.632 Y119.193
M204 S800
G1 F1200.000
G1 X103.855 Y119.386 E0.02508
G1 X103.357 Y119.548 E0.01644
G1 X102.904 Y119.732 E0.01533
G1 X102.536 Y119.929 E0.01308
G1 X102.293 Y120.120 E0.00968
G1 X102.177 Y120.285 E0.00634
G1 X102.161 Y120.341 E0.00181
G1 X102.161 Y120.544 E0.00636
G1 X102.184 Y120.633 E0.00288
G1 X102.309 Y120.897 E0.00919
G1 X102.401 Y121.039 E0.00528
G1 X102.910 Y121.689 E0.02589
G1 X102.424 Y122.275 E0.02386
G1 X101.588 Y121.778 E0.03050
