; generated by PrusaSlicer 2.3.3+win64 on 2022-03-15 at 15:33:00 UTC


;
;

;
;
; 

; external perimeters extrusion width = 0.45mm
; perimeters extrusion width = 0.45mm
; infill extrusion width = 0.45mm
; solid infill extrusion width = 0.45mm
; top infill extrusion width = 0.40mm
; first layer extrusion width = 0.42mm

M73 P0 R72
M201 X1250 Y1250 Z400 E5000 ; sets maximum accelerations, mm/sec^2
M203 X180 Y180 Z12 E80 ; sets maximum feedrates, mm/sec
M204 P1250 R1250 T1250 ; sets acceleration (P, T) and retract acceleration (R), mm/sec^2
M205 X8.00 Y8.00 Z2.00 E10.00 ; sets the jerk limits, mm/sec
M205 S0 T0 ; sets the minimum extruding and travel feed rate, mm/sec
M107
;TYPE:Custom
G90 ; use absolute coordinates
M83 ; extruder relative mode
M104 S170 ; set extruder temp for bed leveling
M140 S85 ; set bed temp
M109 R170 ; wait for bed leveling temp
M190 S85 ; wait for bed temp
G28 ; home all without mesh bed level
G29 ; mesh bed leveling 
M104 S230 ; set extruder temp
G92 E0.0
G1 Y-2.0 X179 F2400
G1 Z3 F720
M109 S230 ; wait for extruder temp

; intro line
G1 X170 F1000
G1 Z0.2 F720
G1 X110.0 E8.0 F900
G1 X40.0 E10.0 F700
G92 E0.0

M221 S95 ; set flow
G21 ; set units to millimeters
G90 ; use absolute coordinates
M83 ; use relative distances for extrusion
M900 K0.2 ; Filament gcode
;LAYER_CHANGE
;Z:0.2
;HEIGHT:0.2
;BEFORE_LAYER_CHANGE
G92 E0.0
;0.2


G1 E-3.20000 F2400.000
G1 Z0.200 F9000.000
;AFTER_LAYER_CHANGE
;0.2
G1 Z0.400
G1 X42.334 Y63.052
G1 Z0.200
G1 E3.20000 F1500.000
M204 S800
;TYPE:Skirt
;WIDTH:0.42
G1 F1200.000
G1 X44.049 Y62.389 E0.05767
G1 X44.911 Y62.216 E0.02755
G1 X47.460 Y61.959 E0.08033
G1 X49.466 Y61.854 E0.06299
G1 X90.380 Y61.462 E1.28289
G1 X122.302 Y62.195 E1.00115
G1 X123.389 Y62.304 E0.03423
G1 X124.843 Y62.641 E0.04682
G1 X125.693 Y63.010 E0.02904
G1 X126.310 Y63.403 E0.02295
G1 X126.989 Y63.977 E0.02786
G1 X127.621 Y64.690 E0.02988
G1 X134.632 Y74.661 E0.38217
G1 X135.747 Y76.646 E0.07140
G1 X136.662 Y79.018 E0.07973
G1 X137.008 Y80.343 E0.04291
G1 X137.235 Y81.657 E0.04182
G1 X137.363 Y83.153 E0.04709
G1 X137.335 Y84.768 E0.05065
G1 X137.157 Y86.195 E0.04507
G1 X136.793 Y87.740 E0.04978
G1 X136.290 Y89.140 E0.04665
G1 X135.629 Y90.483 E0.04693
G1 X134.858 Y91.692 E0.04495
G1 X133.884 Y92.904 E0.04875
G1 X132.848 Y93.935 E0.04583
G1 X131.364 Y94.992 E0.05714
G1 X125.294 Y98.172 E0.21484
G1 X124.227 Y98.516 E0.03515
G1 X123.110 Y98.700 E0.03549
G1 X119.278 Y98.816 E0.12022
G1 X58.449 Y98.462 E1.90728
G1 X56.340 Y98.341 E0.06625
G1 X54.204 Y97.974 E0.06796
G1 X52.076 Y97.364 E0.06939
G1 X49.887 Y96.481 E0.07401
G1 X48.132 Y95.532 E0.06256
G1 X46.364 Y94.246 E0.06855
M73 P0 R71
G1 X44.753 Y92.708 E0.06983
G1 X43.257 Y90.816 E0.07563
G1 X42.105 Y88.836 E0.07183
G1 X41.249 Y86.696 E0.07226
G1 X40.659 Y84.140 E0.08225
G1 X39.313 Y71.595 E0.39558
G1 X39.211 Y69.856 E0.05463
G1 X39.264 Y68.530 E0.04160
G1 X39.463 Y67.264 E0.04018
G1 X39.989 Y65.686 E0.05216
G1 X40.953 Y64.193 E0.05570
G1 X42.288 Y63.090 E0.05429
M204 S1250
; printing object Mighty Leelo-Vihelmo (1).stl_3 id:2 copy 0
G1 E-2.24000 F2400.000
;WIPE_START
G1 F7200.000
G1 X44.049 Y62.389 E-0.60045
G1 X44.911 Y62.216 E-0.27828
G1 X45.015 Y62.206 E-0.03326
;WIPE_END
G1 E-0.04800 F2400.000
G1 Z0.400 F9000.000
G1 X109.309 Y78.754
G1 Z0.200
G1 E3.20000 F1500.000
M204 S800
;TYPE:Perimeter
G1 F1200.000
G1 X112.159 Y78.766 E0.08937
G1 X112.693 Y78.832 E0.01686
G1 X113.484 Y79.067 E0.02589
G1 X113.554 Y78.958 E0.00406
G1 X114.318 Y78.808 E0.02442
G1 X114.835 Y78.764 E0.01626
G1 X116.760 Y78.766 E0.06037
G1 X117.305 Y78.832 E0.01719
G1 X118.000 Y79.032 E0.02269
G1 X118.736 Y78.831 E0.02392
G1 X119.300 Y78.767 E0.01780
G1 X121.819 Y78.766 E0.07898
G1 X122.384 Y78.831 E0.01783
G1 X123.099 Y79.026 E0.02325
G1 X123.801 Y78.831 E0.02284
G1 X124.355 Y78.767 E0.01748
G1 X125.859 Y78.762 E0.04716
G1 X126.382 Y78.797 E0.01644
G1 X127.209 Y78.923 E0.02623
G1 X127.289 Y79.066 E0.00516
G1 X128.114 Y78.831 E0.02687
G1 X128.660 Y78.767 E0.01725
G1 X131.092 Y78.755 E0.07624
G1 X131.414 Y79.506 E0.02562
G1 X131.711 Y80.365 E0.02848
G1 X131.951 Y81.292 E0.03003
G1 X132.129 Y82.334 E0.03314
G1 X129.707 Y82.319 E0.07595
G1 X129.146 Y82.254 E0.01771
G1 X128.399 Y82.048 E0.02429
G1 X127.690 Y82.253 E0.02315
G1 X127.147 Y82.319 E0.01713
G1 X124.301 Y82.318 E0.08925
G1 X123.760 Y82.253 E0.01707
G1 X123.085 Y82.058 E0.02202
G1 X122.369 Y82.254 E0.02327
G1 X121.806 Y82.319 E0.01778
G1 X119.296 Y82.318 E0.07870
G1 X118.734 Y82.254 E0.01775
G1 X118.006 Y82.055 E0.02367
G1 X117.273 Y82.254 E0.02381
G1 X116.706 Y82.319 E0.01788
G1 X113.692 Y82.318 E0.09452
G1 X113.127 Y82.254 E0.01783
G1 X112.381 Y82.051 E0.02423
G1 X111.698 Y82.253 E0.02233
G1 X111.163 Y82.319 E0.01690
G1 X108.443 Y82.333 E0.08528
G1 X108.601 Y80.792 E0.04857
G1 X109.289 Y78.810 E0.06578
M204 S1250
G1 E-2.24000 F2400.000
;WIPE_START
G1 F7200.000
G1 X112.159 Y78.766 E-0.90896
G1 X112.168 Y78.768 E-0.00304
;WIPE_END
G1 E-0.04800 F2400.000
G1 Z0.400 F9000.000
G1 X118.147 Y79.382
G1 Z0.200
G1 E3.20000 F1500.000
M204 S800
;TYPE:External perimeter
G1 F1200.000
G1 X118.807 Y79.202 E0.02144
G1 X119.323 Y79.143 E0.01629
G1 X120.315 Y79.132 E0.03109
G1 X121.796 Y79.143 E0.04645
G1 X122.313 Y79.202 E0.01630
G1 X122.974 Y79.383 E0.02148
G1 X122.954 Y81.703 E0.07276
G1 X122.298 Y81.883 E0.02134
G1 X121.783 Y81.942 E0.01624
G1 X120.307 Y81.953 E0.04627
G1 X119.320 Y81.942 E0.03097
G1 X118.805 Y81.883 E0.01623
G1 X118.147 Y81.703 E0.02138
G1 X118.147 Y79.442 E0.07088
M204 S1250
G1 X118.043 Y78.996 F9000.000
G1 X117.862 Y79.442
M204 S800
G1 F1200.000
G1 X117.862 Y81.703 E0.07089
G1 X117.202 Y81.883 E0.02148
G1 X116.684 Y81.942 E0.01634
G1 X114.708 Y81.953 E0.06194
G1 X113.715 Y81.942 E0.03115
G1 X113.198 Y81.883 E0.01632
G1 X112.506 Y81.694 E0.02249
G1 X112.560 Y81.395 E0.00956
G1 X113.018 Y80.350 E0.03575
G1 X113.504 Y79.739 E0.02448
G1 X113.785 Y79.296 E0.01644
G1 X114.370 Y79.182 E0.01870
G1 X114.854 Y79.140 E0.01521
G1 X116.736 Y79.143 E0.05903
G1 X117.230 Y79.202 E0.01557
G1 X117.860 Y79.384 E0.02058
M204 S1250
G1 X118.261 Y79.477 F9000.000
G1 E-2.24000 F2400.000
;WIPE_START
G1 F7200.000
G1 X117.862 Y81.703 E-0.73441
G1 X117.321 Y81.850 E-0.17759
;WIPE_END
G1 E-0.04800 F2400.000
G1 Z0.400 F9000.000
G1 X113.371 Y79.427
G1 Z0.200
G1 E3.20000 F1500.000
M204 S800
G1 F1200.000
G1 X112.910 Y80.047 E0.02423
G1 X112.639 Y80.507 E0.01674
G1 X112.420 Y80.994 E0.01674
G1 X112.198 Y81.712 E0.02357
G1 X111.621 Y81.882 E0.01887
G1 X111.139 Y81.942 E0.01523
G1 X108.861 Y81.954 E0.07142
G1 X108.971 Y80.874 E0.03402
G1 X109.576 Y79.132 E0.05783
G1 X112.135 Y79.143 E0.08022
G1 X112.615 Y79.203 E0.01518
G1 X113.314 Y79.410 E0.02283
M204 S1250
G1 X113.722 Y79.619 F9000.000
G1 E-2.24000 F2400.000
;WIPE_START
G1 F7200.000
G1 X112.910 Y80.047 E-0.23886
G1 X112.639 Y80.507 E-0.16908
G1 X112.420 Y80.994 E-0.16905
G1 X112.198 Y81.712 E-0.23805
G1 X111.904 Y81.799 E-0.09697
;WIPE_END
G1 E-0.04800 F2400.000
G1 Z0.400 F9000.000
G1 X123.224 Y79.497
G1 Z0.200
G1 E3.20000 F1500.000
M204 S800
G1 F1200.000
G1 X123.225 Y79.383 E0.00360
G1 X123.874 Y79.202 E0.02112
G1 X124.381 Y79.144 E0.01600
G1 X125.845 Y79.139 E0.04592
G1 X126.341 Y79.173 E0.01559
G1 X126.970 Y79.268 E0.01995
G1 X127.217 Y79.709 E0.01585
G1 X127.711 Y80.289 E0.02388
G1 X128.211 Y81.352 E0.03683
G1 X128.277 Y81.691 E0.01084
G1 X127.614 Y81.883 E0.02164
G1 X127.123 Y81.942 E0.01549
G1 X125.262 Y81.953 E0.05836
G1 X124.325 Y81.942 E0.02938
G1 X123.835 Y81.883 E0.01548
G1 X123.204 Y81.700 E0.02060
G1 X123.223 Y79.557 E0.06718
M204 S1250
G1 X123.120 Y79.448 F9000.000
G1 E-2.24000 F2400.000
;WIPE_START
G1 F7200.000
G1 X123.225 Y79.383 E-0.05536
G1 X123.874 Y79.202 E-0.21329
G1 X124.381 Y79.144 E-0.16159
G1 X125.845 Y79.139 E-0.46373
G1 X125.902 Y79.143 E-0.01802
;WIPE_END
G1 E-0.04800 F2400.000
G1 Z0.400 F9000.000
G1 X127.402 Y79.426
G1 Z0.200
G1 E3.20000 F1500.000
M204 S800
G1 F1200.000
G1 X128.188 Y79.202 E0.02562
G1 X128.685 Y79.143 E0.01568
G1 X130.843 Y79.132 E0.06768
G1 X131.062 Y79.643 E0.01740
G1 X131.349 Y80.474 E0.02758
G1 X131.582 Y81.371 E0.02907
G1 X131.681 Y81.954 E0.01853
G1 X129.730 Y81.942 E0.06120
G1 X129.218 Y81.883 E0.01615
G1 X128.608 Y81.715 E0.01983
G1 X128.363 Y80.944 E0.02537
G1 X128.130 Y80.452 E0.01706
G1 X127.842 Y79.986 E0.01717
G1 X127.439 Y79.473 E0.02043
M204 S1250
G1 X127.250 Y79.056 F9000.000
G1 E-2.24000 F2400.000
;WIPE_START
G1 F7200.000
G1 X128.188 Y79.202 E-0.25214
G1 X128.685 Y79.143 E-0.15834
G1 X130.268 Y79.135 E-0.50152
;WIPE_END
G1 E-0.04800 F2400.000
G1 Z0.400 F9000.000
G1 X108.456 Y83.752
G1 Z0.200
G1 E3.20000 F1500.000
M204 S800
;TYPE:Perimeter
G1 F1200.000
G1 X111.194 Y83.766 E0.08585
G1 X111.733 Y83.832 E0.01703
G1 X112.427 Y84.034 E0.02265
G1 X113.167 Y83.831 E0.02406
G1 X113.728 Y83.767 E0.01771
G1 X116.716 Y83.766 E0.09368
G1 X117.278 Y83.831 E0.01776
G1 X118.005 Y84.031 E0.02364
G1 X118.730 Y83.831 E0.02357
G1 X119.290 Y83.767 E0.01767
G1 X121.786 Y83.766 E0.07826
G1 X122.347 Y83.831 E0.01771
G1 X123.060 Y84.027 E0.02317
G1 X123.731 Y83.832 E0.02193
G1 X124.270 Y83.767 E0.01701
G1 X127.101 Y83.766 E0.08878
G1 X127.641 Y83.832 E0.01706
G1 X128.354 Y84.039 E0.02326
G1 X129.034 Y83.833 E0.02229
G1 X129.557 Y83.767 E0.01652
G1 X132.239 Y83.755 E0.08409
G1 X132.084 Y85.142 E0.04373
G1 X131.890 Y86.041 E0.02886
G1 X131.461 Y87.331 E0.04263
G1 X128.608 Y87.319 E0.08944
G1 X128.076 Y87.253 E0.01683
G1 X127.274 Y87.015 E0.02621
G1 X127.183 Y87.151 E0.00514
G1 X126.387 Y87.283 E0.02529
G1 X125.850 Y87.322 E0.01689
G1 X124.315 Y87.318 E0.04812
G1 X123.753 Y87.254 E0.01774
G1 X123.037 Y87.059 E0.02328
G1 X122.333 Y87.254 E0.02290
G1 X121.773 Y87.319 E0.01766
G1 X119.286 Y87.318 E0.07798
G1 X118.728 Y87.254 E0.01763
G1 X118.002 Y87.053 E0.02362
G1 X117.302 Y87.254 E0.02283
G1 X116.760 Y87.318 E0.01711
G1 X114.826 Y87.322 E0.06063
G1 X114.308 Y87.281 E0.01629
G1 X113.534 Y87.141 E0.02467
G1 X113.454 Y87.017 E0.00462
G1 X112.652 Y87.253 E0.02619
G1 X112.116 Y87.319 E0.01695
G1 X109.214 Y87.332 E0.09099
G1 X108.596 Y85.161 E0.07075
G1 X108.462 Y83.812 E0.04252
M204 S1250
G1 E-2.24000 F2400.000
;WIPE_START
G1 F7200.000
G1 X111.194 Y83.766 E-0.86526
G1 X111.341 Y83.784 E-0.04674
;WIPE_END
G1 E-0.04800 F2400.000
G1 Z0.400 F9000.000
G1 X118.147 Y84.383
G1 Z0.200
G1 E3.20000 F1500.000
M204 S800
;TYPE:External perimeter
G1 F1200.000
G1 X118.802 Y84.202 E0.02129
G1 X119.314 Y84.143 E0.01615
G1 X120.296 Y84.132 E0.03080
G1 X121.763 Y84.143 E0.04601
G1 X122.275 Y84.202 E0.01616
G1 X122.931 Y84.383 E0.02133
G1 X122.912 Y86.703 E0.07274
G1 X122.261 Y86.883 E0.02119
G1 X121.750 Y86.942 E0.01611
G1 X120.289 Y86.953 E0.04583
G1 X119.310 Y86.942 E0.03068
G1 X118.800 Y86.883 E0.01609
G1 X118.147 Y86.702 E0.02123
G1 X118.147 Y84.443 E0.07085
M204 S1250
G1 X118.043 Y83.996 F9000.000
G1 E-2.24000 F2400.000
;WIPE_START
G1 F7200.000
G1 X118.802 Y84.202 E-0.22084
G1 X119.314 Y84.143 E-0.16309
G1 X120.296 Y84.132 E-0.31105
G1 X120.981 Y84.138 E-0.21703
;WIPE_END
G1 E-0.04800 F2400.000
G1 Z0.400 F9000.000
G1 X123.180 Y84.485
G1 Z0.200
G1 E3.20000 F1500.000
M204 S800
G1 F1200.000
G1 X123.181 Y84.385 E0.00314
G1 X123.807 Y84.202 E0.02043
G1 X124.295 Y84.143 E0.01540
G1 X127.077 Y84.143 E0.08725
G1 X127.566 Y84.202 E0.01542
G1 X128.268 Y84.407 E0.02293
G1 X127.754 Y85.624 E0.04142
M73 P1 R71
G1 X126.961 Y86.805 E0.04463
G1 X126.342 Y86.908 E0.01965
G1 X125.835 Y86.945 E0.01595
G1 X124.341 Y86.941 E0.04686
G1 X123.824 Y86.883 E0.01629
G1 X123.162 Y86.703 E0.02153
G1 X123.180 Y84.545 E0.06766
M204 S1250
G1 X123.090 Y84.442 F9000.000
G1 E-2.24000 F2400.000
;WIPE_START
G1 F7200.000
G1 X123.181 Y84.385 E-0.05071
G1 X123.807 Y84.202 E-0.20636
G1 X124.295 Y84.143 E-0.15554
G1 X125.872 Y84.143 E-0.49939
;WIPE_END
G1 E-0.04800 F2400.000
G1 Z0.400 F9000.000
G1 X127.407 Y86.660
G1 Z0.200
G1 E3.20000 F1500.000
M204 S800
G1 F1200.000
G1 X127.825 Y86.067 E0.02279
G1 X128.118 Y85.541 E0.01887
G1 X128.360 Y84.977 E0.01923
G1 X128.549 Y84.374 E0.01983
G1 X129.113 Y84.203 E0.01847
G1 X129.583 Y84.143 E0.01485
G1 X131.817 Y84.132 E0.07006
G1 X131.712 Y85.081 E0.02991
G1 X131.526 Y85.942 E0.02762
G1 X131.189 Y86.953 E0.03342
G1 X128.632 Y86.942 E0.08017
G1 X128.153 Y86.882 E0.01514
G1 X127.464 Y86.678 E0.02254
M204 S1250
G1 X127.053 Y86.474 F9000.000
G1 E-2.24000 F2400.000
;WIPE_START
G1 F7200.000
G1 X127.825 Y86.067 E-0.22477
G1 X128.118 Y85.541 E-0.19055
G1 X128.360 Y84.977 E-0.19422
G1 X128.549 Y84.374 E-0.20030
G1 X128.858 Y84.280 E-0.10216
;WIPE_END
G1 E-0.04800 F2400.000
G1 Z0.400 F9000.000
G1 X117.862 Y86.678
G1 Z0.200
G1 E3.20000 F1500.000
M204 S800
G1 F1200.000
G1 X117.862 Y86.701 E0.00073
G1 X117.227 Y86.883 E0.02072
G1 X116.733 Y86.941 E0.01559
G1 X114.842 Y86.945 E0.05931
G1 X114.357 Y86.907 E0.01526
G1 X113.762 Y86.799 E0.01895
G1 X112.986 Y85.596 E0.04488
G1 X112.511 Y84.402 E0.04029
G1 X113.239 Y84.202 E0.02367
G1 X113.752 Y84.143 E0.01618
G1 X114.736 Y84.132 E0.03087
G1 X116.693 Y84.143 E0.06136
G1 X117.207 Y84.202 E0.01620
G1 X117.862 Y84.382 E0.02133
G1 X117.862 Y86.618 E0.07008
M204 S1250
G1 X117.884 Y86.687 F9000.000
G1 E-2.24000 F2400.000
;WIPE_START
G1 F7200.000
G1 X117.862 Y86.701 E-0.02637
G1 X117.227 Y86.883 E-0.20929
G1 X116.733 Y86.941 E-0.15748
G1 X115.095 Y86.945 E-0.51886
;WIPE_END
G1 E-0.04800 F2400.000
G1 Z0.400 F9000.000
G1 X113.321 Y86.663
G1 Z0.200
G1 E3.20000 F1500.000
M204 S800
G1 F1200.000
G1 X112.576 Y86.882 E0.02434
G1 X112.092 Y86.942 E0.01528
G1 X109.498 Y86.953 E0.08133
G1 X108.968 Y85.090 E0.06072
G1 X108.873 Y84.131 E0.03022
G1 X111.170 Y84.143 E0.07204
G1 X111.657 Y84.202 E0.01538
G1 X112.242 Y84.373 E0.01909
G1 X112.423 Y84.988 E0.02011
G1 X112.648 Y85.545 E0.01883
G1 X112.920 Y86.064 E0.01837
G1 X113.287 Y86.613 E0.02071
M204 S1250
G1 X113.466 Y87.036 F9000.000
G1 E-2.24000 F2400.000
;WIPE_START
G1 F7200.000
G1 X112.576 Y86.882 E-0.24088
G1 X112.092 Y86.942 E-0.15429
G1 X110.460 Y86.949 E-0.51683
;WIPE_END
G1 E-0.04800 F2400.000
G1 Z0.400 F9000.000
G1 X111.314 Y88.755
G1 Z0.200
G1 E3.20000 F1500.000
M204 S800
;TYPE:Perimeter
G1 F1200.000
G1 X129.190 Y88.755 E0.56048
G1 X129.546 Y89.951 E0.03910
G1 X128.472 Y90.652 E0.04022
G1 X127.447 Y91.042 E0.03440
G1 X126.374 Y91.297 E0.03457
G1 X125.319 Y91.452 E0.03342
G1 X124.354 Y91.535 E0.03036
G1 X123.651 Y91.554 E0.02206
G1 X123.671 Y92.222 E0.02095
G1 X123.640 Y93.344 E0.03520
G1 X122.745 Y93.510 E0.02852
G1 X122.121 Y93.560 E0.01962
G1 X120.396 Y93.630 E0.05413
G1 X119.473 Y93.640 E0.02896
G1 X118.649 Y93.620 E0.02583
G1 X117.938 Y93.551 E0.02242
G1 X117.169 Y93.202 E0.02648
G1 X117.252 Y91.823 E0.04331
G1 X117.209 Y91.830 E0.00137
G1 X117.215 Y91.693 E0.00429
G1 X115.927 Y91.705 E0.04039
G1 X114.540 Y91.541 E0.04380
G1 X113.028 Y91.114 E0.04924
G1 X111.519 Y90.315 E0.05353
G1 X110.920 Y89.747 E0.02589
G1 X111.292 Y88.811 E0.03160
M204 S1250
G1 X111.570 Y89.132 F9000.000
M204 S800
;TYPE:External perimeter
G1 F1200.000
G1 X128.909 Y89.132 E0.54365
G1 X129.104 Y89.789 E0.02147
G1 X128.300 Y90.314 E0.03013
G1 X127.335 Y90.681 E0.03235
G1 X126.303 Y90.927 E0.03328
G1 X125.276 Y91.077 E0.03254
G1 X124.333 Y91.158 E0.02967
G1 X123.263 Y91.187 E0.03356
G1 X123.294 Y92.222 E0.03245
G1 X123.271 Y93.029 E0.02530
G1 X122.696 Y93.135 E0.01835
G1 X122.098 Y93.184 E0.01878
G1 X120.387 Y93.253 E0.05371
G1 X119.476 Y93.263 E0.02858
G1 X118.672 Y93.243 E0.02521
G1 X118.036 Y93.182 E0.02002
G1 X117.561 Y92.966 E0.01638
G1 X117.657 Y91.380 E0.04981
G1 X117.606 Y91.388 E0.00163
G1 X117.610 Y91.279 E0.00342
G1 X117.057 Y91.329 E0.01741
G1 X115.949 Y91.327 E0.03474
G1 X114.613 Y91.170 E0.04218
G1 X113.169 Y90.762 E0.04705
G1 X111.741 Y90.006 E0.05067
G1 X111.364 Y89.649 E0.01626
G1 X111.548 Y89.188 E0.01556
M204 S1250
G1 X111.544 Y88.733 F9000.000
G1 E-2.24000 F2400.000
;WIPE_START
G1 F7200.000
G1 X114.428 Y89.179 E-0.91200
;WIPE_END
G1 E-0.04800 F2400.000
G1 Z0.400 F9000.000
G1 X111.664 Y77.330
G1 Z0.200
G1 E3.20000 F1500.000
M204 S800
;TYPE:Perimeter
G1 F1200.000
G1 X111.289 Y76.290 E0.03466
G1 X112.414 Y75.356 E0.04584
G1 X114.830 Y74.263 E0.08314
G1 X117.142 Y73.808 E0.07388
