; generated by PrusaSlicer 2.3.3+win64 on 2022-03-29 at 06:33:28 UTC


;
;

;
;
; 

; external perimeters extrusion width = 0.45mm
; perimeters extrusion width = 0.45mm
; infill extrusion width = 0.45mm
; solid infill extrusion width = 0.45mm
; top infill extrusion width = 0.40mm
; first layer extrusion width = 0.42mm

M73 P0 R49
M201 X1250 Y1250 Z400 E5000 ; sets maximum accelerations, mm/sec^2
M203 X180 Y180 Z12 E80 ; sets maximum feedrates, mm/sec
M204 P1250 R1250 T1250 ; sets acceleration (P, T) and retract acceleration (R), mm/sec^2
M205 X8.00 Y8.00 Z2.00 E10.00 ; sets the jerk limits, mm/sec
M205 S0 T0 ; sets the minimum extruding and travel feed rate, mm/sec
M107
;TYPE:Custom
G90 ; use absolute coordinates
M83 ; extruder relative mode
M104 S170 ; set extruder temp for bed leveling
M140 S85 ; set bed temp
M109 R170 ; wait for bed leveling temp
M190 S85 ; wait for bed temp
G28 ; home all without mesh bed level
G29 ; mesh bed leveling 
M104 S230 ; set extruder temp
G92 E0.0
G1 Y-2.0 X179 F2400
G1 Z3 F720
M109 S230 ; wait for extruder temp

; intro line
G1 X170 F1000
G1 Z0.2 F720
G1 X110.0 E8.0 F900
G1 X40.0 E10.0 F700
G92 E0.0

M221 S95 ; set flow
G21 ; set units to millimeters
G90 ; use absolute coordinates
M83 ; use relative distances for extrusion
M900 K0.2 ; Filament gcode
;LAYER_CHANGE
;Z:0.2
;HEIGHT:0.2
;BEFORE_LAYER_CHANGE
G92 E0.0
;0.2


G1 E-3.20000 F2400.000
G1 Z0.200 F9000.000
;AFTER_LAYER_CHANGE
;0.2
G1 Z0.400
G1 X77.734 Y73.212
G1 Z0.200
G1 E3.20000 F1500.000
M204 S800
;TYPE:Skirt
;WIDTH:0.42
G1 F1200.000
G1 X78.419 Y72.582 E0.02919
G1 X79.175 Y72.048 E0.02901
G1 X79.924 Y71.643 E0.02670
G1 X81.240 Y71.176 E0.04377
G1 X82.152 Y71.005 E0.02910
G1 X82.950 Y70.955 E0.02506
G1 X129.844 Y70.301 E1.47049
G1 X133.247 Y70.369 E0.10670
G1 X135.755 Y70.630 E0.07907
G1 X137.042 Y70.910 E0.04129
G1 X138.358 Y71.336 E0.04335
G1 X139.596 Y71.885 E0.04247
G1 X140.727 Y72.536 E0.04092
G1 X141.851 Y73.363 E0.04375
G1 X142.829 Y74.274 E0.04193
G1 X143.709 Y75.308 E0.04256
G1 X144.401 Y76.336 E0.03885
G1 X145.149 Y77.789 E0.05124
G1 X145.606 Y79.027 E0.04139
G1 X145.945 Y80.363 E0.04320
G1 X146.157 Y81.795 E0.04540
G1 X146.222 Y83.199 E0.04407
G1 X146.151 Y84.609 E0.04426
G1 X145.949 Y85.960 E0.04284
G1 X142.411 Y99.326 E0.43350
G1 X141.957 Y100.391 E0.03632
G1 X141.460 Y101.286 E0.03209
G1 X140.691 Y102.386 E0.04207
G1 X140.017 Y103.164 E0.03228
G1 X139.200 Y103.946 E0.03546
G1 X138.310 Y104.648 E0.03554
G1 X137.340 Y105.273 E0.03620
G1 X136.198 Y105.859 E0.04022
G1 X134.168 Y106.551 E0.06724
G1 X132.046 Y106.981 E0.06789
G1 X128.999 Y107.297 E0.09607
G1 X99.423 Y109.151 E0.92913
G1 X82.575 Y109.079 E0.52826
G1 X81.053 Y108.899 E0.04806
G1 X80.093 Y108.615 E0.03140
G1 X79.181 Y108.198 E0.03143
G1 X77.933 Y107.343 E0.04743
G1 X77.236 Y106.664 E0.03052
G1 X76.718 Y106.009 E0.02617
G1 X74.286 Y102.460 E0.13489
G1 X73.652 Y100.958 E0.05111
G1 X73.401 Y99.714 E0.03981
G1 X73.352 Y98.930 E0.02463
G1 X73.566 Y80.658 E0.57293
G1 X73.650 Y79.833 E0.02601
G1 X74.063 Y78.336 E0.04867
G1 X74.606 Y77.237 E0.03845
G1 X75.027 Y76.611 E0.02365
G1 X77.697 Y73.259 E0.13437
M204 S1250
; printing object k.stl id:1 copy 0
G1 E-2.24000 F2400.000
;WIPE_START
G1 F7200.000
G1 X78.419 Y72.582 E-0.31357
G1 X79.175 Y72.048 E-0.29302
G1 X79.924 Y71.643 E-0.26966
G1 X80.031 Y71.605 E-0.03575
;WIPE_END
G1 E-0.04800 F2400.000
G1 Z0.400 F9000.000
G1 X88.509 Y87.233
G1 Z0.200
G1 E3.20000 F1500.000
M204 S800
;TYPE:Perimeter
G1 F1200.000
G1 X100.949 Y87.233 E0.39004
G1 X100.949 Y95.808 E0.26884
G1 X85.011 Y95.808 E0.49973
M73 P0 R48
G1 X84.665 Y94.593 E0.03960
G1 X91.115 Y90.602 E0.23780
G1 X88.129 Y88.380 E0.11670
M73 P1 R48
G1 X88.490 Y87.290 E0.03598
M204 S1250
G1 X88.781 Y87.611 F9000.000
M204 S800
;TYPE:External perimeter
G1 F1200.000
G1 X100.572 Y87.611 E0.36968
G1 X100.572 Y95.430 E0.24519
G1 X85.295 Y95.430 E0.47897
G1 X85.106 Y94.764 E0.02174
G1 X91.351 Y90.899 E0.23027
G1 X91.486 Y90.766 E0.00595
G1 X91.524 Y90.622 E0.00466
G1 X91.516 Y90.543 E0.00248
G1 X91.443 Y90.395 E0.00519
G1 X91.358 Y90.313 E0.00369
G1 X88.573 Y88.240 E0.10889
G1 X88.762 Y87.667 E0.01890
M204 S1250
G1 X88.681 Y87.223 F9000.000
G1 E-2.24000 F2400.000
;WIPE_START
G1 F7200.000
G1 X91.642 Y87.654 E-0.91200
;WIPE_END
G1 E-0.04800 F2400.000
G1 Z0.400 F9000.000
G1 X94.329 Y96.233
G1 Z0.200
G1 E3.20000 F1500.000
M204 S800
;TYPE:Perimeter
G1 F1200.000
G1 X100.949 Y96.233 E0.20756
G1 X100.949 Y101.860 E0.17640
G1 X100.920 Y102.136 E0.00873
G1 X100.825 Y102.427 E0.00960
G1 X100.679 Y102.691 E0.00944
G1 X100.486 Y102.916 E0.00931
G1 X100.260 Y103.097 E0.00905
G1 X100.001 Y103.235 E0.00921
G1 X99.720 Y103.320 E0.00921
G1 X99.462 Y103.347 E0.00813
G1 X95.852 Y103.347 E0.11319
G1 X95.576 Y103.318 E0.00868
G1 X95.281 Y103.224 E0.00971
G1 X95.017 Y103.075 E0.00951
G1 X94.795 Y102.884 E0.00919
G1 X94.615 Y102.659 E0.00901
G1 X94.478 Y102.403 E0.00913
G1 X94.390 Y102.117 E0.00938
G1 X94.365 Y101.860 E0.00810
G1 X94.329 Y96.293 E0.17453
M204 S1250
G1 X94.708 Y96.611 F9000.000
M204 S800
;TYPE:External perimeter
G1 F1200.000
G1 X100.572 Y96.611 E0.18384
G1 X100.572 Y101.840 E0.16396
G1 X100.549 Y102.057 E0.00686
G1 X100.477 Y102.276 E0.00723
G1 X100.368 Y102.475 E0.00710
G1 X100.222 Y102.644 E0.00699
G1 X100.052 Y102.780 E0.00685
G1 X99.856 Y102.884 E0.00694
G1 X99.645 Y102.948 E0.00693
G1 X99.442 Y102.970 E0.00639
G1 X95.871 Y102.970 E0.11196
G1 X95.654 Y102.947 E0.00685
G1 X95.433 Y102.876 E0.00728
G1 X95.235 Y102.765 E0.00713
G1 X95.067 Y102.620 E0.00693
G1 X94.931 Y102.451 E0.00683
G1 X94.827 Y102.257 E0.00689
G1 X94.761 Y102.042 E0.00704
G1 X94.742 Y101.840 E0.00637
G1 X94.709 Y96.670 E0.16209
M204 S1250
G1 X94.707 Y96.211 F9000.000
G1 E-2.24000 F2400.000
;WIPE_START
G1 F7200.000
G1 X97.588 Y96.641 E-0.91200
;WIPE_END
G1 E-0.04800 F2400.000
G1 Z0.400 F9000.000
G1 X92.489 Y97.306
G1 Z0.200
G1 E3.20000 F1500.000
M204 S800
;TYPE:Perimeter
G1 F1200.000
G1 X92.529 Y97.445 E0.00456
G1 X83.499 Y103.076 E0.33368
G1 X83.255 Y103.191 E0.00846
G1 X82.973 Y103.264 E0.00912
G1 X82.684 Y103.283 E0.00907
G1 X82.401 Y103.248 E0.00897
G1 X82.134 Y103.163 E0.00876
G1 X81.887 Y103.034 E0.00874
G1 X81.666 Y102.864 E0.00877
G1 X81.483 Y102.666 E0.00845
G1 X79.419 Y99.696 E0.11340
G1 X79.281 Y99.449 E0.00887
G1 X79.190 Y99.145 E0.00995
G1 X79.162 Y98.842 E0.00954
G1 X79.192 Y98.539 E0.00954
G1 X79.283 Y98.245 E0.00964
G1 X79.430 Y97.978 E0.00956
G1 X79.633 Y97.737 E0.00986
G1 X79.852 Y97.571 E0.00864
G1 X82.013 Y96.233 E0.07968
G1 X92.183 Y96.233 E0.31885
G1 X92.473 Y97.248 E0.03309
M204 S1250
G1 X92.089 Y97.276 F9000.000
M204 S800
;TYPE:External perimeter
G1 F1200.000
G1 X83.318 Y102.744 E0.32407
G1 X83.126 Y102.835 E0.00667
G1 X82.913 Y102.890 E0.00689
G1 X82.695 Y102.904 E0.00683
G1 X82.482 Y102.878 E0.00676
G1 X82.280 Y102.814 E0.00664
G1 X82.091 Y102.715 E0.00667
G1 X81.921 Y102.584 E0.00673
G1 X81.777 Y102.429 E0.00663
G1 X79.739 Y99.496 E0.11199
G1 X79.631 Y99.301 E0.00699
G1 X79.562 Y99.072 E0.00749
G1 X79.541 Y98.843 E0.00722
G1 X79.564 Y98.614 E0.00721
G1 X79.632 Y98.393 E0.00725
G1 X79.743 Y98.192 E0.00719
G1 X79.894 Y98.012 E0.00737
G1 X80.066 Y97.882 E0.00676
G1 X82.120 Y96.611 E0.07575
G1 X91.898 Y96.611 E0.30658
G1 X92.072 Y97.218 E0.01982
M204 S1250
G1 X92.395 Y97.533 F9000.000
G1 E-2.24000 F2400.000
;WIPE_START
G1 F7200.000
G1 X89.637 Y98.756 E-0.91200
;WIPE_END
G1 E-0.04800 F2400.000
G1 Z0.400 F9000.000
G1 X100.949 Y86.808
G1 Z0.200
G1 E3.20000 F1500.000
M204 S800
;TYPE:Perimeter
G1 F1200.000
G1 X86.018 Y86.808 E0.46815
G1 X79.946 Y82.288 E0.23733
G1 X79.742 Y82.111 E0.00847
G1 X79.552 Y81.859 E0.00988
G1 X79.419 Y81.577 E0.00978
G1 X79.348 Y81.277 E0.00967
G1 X79.337 Y80.967 E0.00971
G1 X79.393 Y80.658 E0.00986
G1 X79.521 Y80.348 E0.01051
G1 X81.854 Y77.349 E0.11913
G1 X82.035 Y77.159 E0.00823
G1 X82.277 Y76.986 E0.00933
G1 X82.543 Y76.867 E0.00915
G1 X82.822 Y76.799 E0.00900
G1 X83.115 Y76.784 E0.00920
G1 X83.410 Y76.829 E0.00937
G1 X83.696 Y76.933 E0.00952
G1 X83.917 Y77.072 E0.00819
G1 X94.329 Y84.811 E0.40676
G1 X94.329 Y78.249 E0.20573
G1 X94.355 Y77.988 E0.00824
G1 X94.442 Y77.705 E0.00928
G1 X94.578 Y77.449 E0.00909
G1 X94.760 Y77.221 E0.00915
G1 X94.984 Y77.030 E0.00922
G1 X95.246 Y76.882 E0.00945
G1 X95.541 Y76.788 E0.00971
G1 X95.803 Y76.761 E0.00826
G1 X99.229 Y76.657 E0.10747
G1 X99.670 Y76.673 E0.01383
G1 X99.975 Y76.761 E0.00994
G1 X100.239 Y76.895 E0.00930
G1 X100.471 Y77.075 E0.00919
G1 X100.670 Y77.299 E0.00940
G1 X100.823 Y77.566 E0.00964
G1 X100.920 Y77.863 E0.00980
G1 X100.949 Y78.141 E0.00876
G1 X100.949 Y86.748 E0.26986
M204 S1250
G1 X100.572 Y86.430 F9000.000
M204 S800
;TYPE:External perimeter
G1 F1200.000
G1 X86.143 Y86.430 E0.45240
G1 X80.183 Y81.993 E0.23298
G1 X80.019 Y81.852 E0.00678
G1 X79.877 Y81.663 E0.00742
G1 X79.777 Y81.451 E0.00734
G1 X79.723 Y81.226 E0.00724
G1 X79.715 Y80.995 E0.00727
G1 X79.757 Y80.765 E0.00733
G1 X79.850 Y80.539 E0.00764
G1 X82.140 Y77.595 E0.11694
G1 X82.283 Y77.445 E0.00651
G1 X82.466 Y77.315 E0.00704
G1 X82.666 Y77.225 E0.00689
G1 X82.876 Y77.174 E0.00679
G1 X83.096 Y77.163 E0.00690
G1 X83.317 Y77.196 E0.00699
G1 X83.529 Y77.274 E0.00710
G1 X83.705 Y77.384 E0.00648
G1 X94.135 Y85.136 E0.40746
G1 X94.245 Y85.193 E0.00391
G1 X94.428 Y85.203 E0.00573
G1 X94.516 Y85.172 E0.00293
G1 X94.652 Y85.054 E0.00565
G1 X94.688 Y84.977 E0.00267
G1 X94.707 Y84.854 E0.00390
G1 X94.707 Y78.268 E0.20650
G1 X94.726 Y78.062 E0.00647
G1 X94.792 Y77.850 E0.00697
G1 X94.894 Y77.657 E0.00686
G1 X95.032 Y77.485 E0.00690
G1 X95.201 Y77.341 E0.00695
G1 X95.398 Y77.230 E0.00710
G1 X95.619 Y77.159 E0.00728
G1 X95.829 Y77.137 E0.00661
G1 X99.228 Y77.034 E0.10664
G1 X99.610 Y77.048 E0.01198
G1 X99.836 Y77.113 E0.00736
G1 X100.037 Y77.215 E0.00707
G1 X100.213 Y77.352 E0.00697
G1 X100.362 Y77.520 E0.00706
G1 X100.476 Y77.719 E0.00720
G1 X100.549 Y77.942 E0.00733
G1 X100.572 Y78.160 E0.00689
G1 X100.572 Y86.370 E0.25743
M204 S1250
G1 X100.572 Y86.830 F9000.000
G1 E-2.24000 F2400.000
;WIPE_START
G1 F7200.000
G1 X97.692 Y86.382 E-0.91200
;WIPE_END
G1 E-0.04800 F2400.000
G1 Z0.400 F9000.000
G1 X91.480 Y101.184
G1 Z0.200
G1 E3.20000 F1500.000
M204 S800
;TYPE:Perimeter
G1 F1200.000
G1 X84.631 Y105.438 E0.25279
G1 X84.090 Y105.677 E0.01855
G1 X83.836 Y105.758 E0.00835
G1 X83.259 Y105.877 E0.01847
G1 X82.680 Y105.916 E0.01819
G1 X82.171 Y105.886 E0.01598
G1 X81.677 Y105.796 E0.01576
G1 X81.201 Y105.650 E0.01561
G1 X80.750 Y105.450 E0.01547
G1 X80.327 Y105.196 E0.01547
G1 X79.937 Y104.893 E0.01549
G1 X79.584 Y104.541 E0.01562
G1 X79.257 Y104.121 E0.01671
G1 X77.268 Y101.261 E0.10921
G1 X77.033 Y100.886 E0.01387
G1 X76.848 Y100.511 E0.01312
G1 X76.703 Y100.118 E0.01313
G1 X76.599 Y99.709 E0.01323
G1 X76.537 Y99.291 E0.01326
G1 X76.517 Y98.865 E0.01335
G1 X76.540 Y98.437 E0.01345
G1 X76.607 Y98.011 E0.01353
G1 X76.716 Y97.595 E0.01350
G1 X76.867 Y97.194 E0.01340
G1 X77.054 Y96.813 E0.01332
G1 X77.277 Y96.456 E0.01321
G1 X77.533 Y96.123 E0.01318
G1 X77.820 Y95.819 E0.01310
G1 X78.134 Y95.547 E0.01304
G1 X78.492 Y95.297 E0.01367
G1 X86.441 Y90.357 E0.29345
G1 X78.402 Y84.387 E0.31397
G1 X78.058 Y84.104 E0.01398
G1 X77.764 Y83.809 E0.01306
G1 X77.506 Y83.491 E0.01282
G1 X77.284 Y83.151 E0.01273
G1 X77.097 Y82.789 E0.01277
G1 X76.947 Y82.409 E0.01282
G1 X76.833 Y82.008 E0.01308
G1 X76.758 Y81.589 E0.01333
G1 X76.723 Y81.164 E0.01339
G1 X76.729 Y80.745 E0.01312
G1 X76.775 Y80.337 E0.01288
G1 X76.862 Y79.937 E0.01284
G1 X76.986 Y79.548 E0.01279
G1 X77.150 Y79.173 E0.01284
G1 X77.350 Y78.812 E0.01295
G1 X77.598 Y78.455 E0.01364
G1 X79.722 Y75.740 E0.10807
G1 X80.055 Y75.364 E0.01573
G1 X80.408 Y75.045 E0.01494
G1 X80.790 Y74.770 E0.01476
G1 X81.197 Y74.540 E0.01464
G1 X81.627 Y74.359 E0.01462
G1 X82.078 Y74.227 E0.01475
G1 X82.547 Y74.146 E0.01493
G1 X83.038 Y74.118 E0.01543
G1 X83.363 Y74.132 E0.01017
G1 X83.689 Y74.173 E0.01032
G1 X84.011 Y74.240 E0.01031
G1 X84.330 Y74.333 E0.01042
G1 X84.643 Y74.452 E0.01050
G1 X84.948 Y74.595 E0.01055
G1 X85.247 Y74.764 E0.01077
G1 X85.543 Y74.962 E0.01118
G1 X91.519 Y79.402 E0.23344
G1 X91.842 Y77.251 E0.06822
G1 X92.095 Y76.526 E0.02405
G1 X92.472 Y75.870 E0.02373
G1 X92.958 Y75.296 E0.02359
G1 X93.539 Y74.819 E0.02355
G1 X94.201 Y74.456 E0.02369
G1 X94.931 Y74.218 E0.02407
G1 X95.759 Y74.116 E0.02614
G1 X98.881 Y74.025 E0.09795
G1 X99.741 Y74.069 E0.02699
G1 X100.144 Y74.129 E0.01278
G1 X100.538 Y74.229 E0.01276
G1 X100.922 Y74.366 E0.01276
G1 X101.289 Y74.541 E0.01276
G1 X101.639 Y74.750 E0.01277
G1 X101.965 Y74.990 E0.01272
G1 X102.272 Y75.268 E0.01295
G1 X102.556 Y75.573 E0.01308
G1 X102.798 Y75.895 E0.01263
G1 X103.005 Y76.241 E0.01263
G1 X103.176 Y76.605 E0.01261
G1 X103.309 Y76.985 E0.01262
G1 X103.405 Y77.381 E0.01278
G1 X103.463 Y77.787 E0.01287
G1 X103.484 Y78.218 E0.01353
G1 X103.484 Y101.797 E0.73929
G1 X103.396 Y102.670 E0.02752
G1 X103.153 Y103.445 E0.02547
G1 X102.769 Y104.150 E0.02516
G1 X102.261 Y104.765 E0.02503
G1 X101.646 Y105.273 E0.02503
G1 X100.941 Y105.657 E0.02516
G1 X100.166 Y105.900 E0.02547
G1 X99.292 Y105.988 E0.02755
G1 X95.823 Y105.988 E0.10875
G1 X95.384 Y105.966 E0.01378
G1 X94.976 Y105.906 E0.01293
G1 X94.582 Y105.806 E0.01276
G1 X94.202 Y105.669 E0.01265
G1 X93.840 Y105.496 E0.01260
G1 X93.495 Y105.287 E0.01264
G1 X93.171 Y105.046 E0.01268
G1 X92.866 Y104.769 E0.01291
G1 X92.633 Y104.518 E0.01074
G1 X92.423 Y104.248 E0.01072
G1 X92.235 Y103.964 E0.01067
G1 X92.073 Y103.670 E0.01055
G1 X91.936 Y103.361 E0.01058
G1 X91.825 Y103.042 E0.01061
G1 X91.740 Y102.712 E0.01067
G1 X91.490 Y101.243 E0.04672
M204 S1250
G1 X91.202 Y101.801 F9000.000
M204 S800
;TYPE:External perimeter
G1 F1200.000
G1 X84.803 Y105.774 E0.23617
G1 X84.224 Y106.030 E0.01987
G1 X83.931 Y106.123 E0.00961
G1 X83.310 Y106.252 E0.01989
G1 X82.682 Y106.294 E0.01975
G1 X82.126 Y106.261 E0.01744
G1 X81.588 Y106.163 E0.01717
G1 X81.068 Y106.004 E0.01703
G1 X80.576 Y105.785 E0.01690
G1 X80.114 Y105.508 E0.01691
G1 X79.687 Y105.176 E0.01693
G1 X79.301 Y104.791 E0.01709
G1 X78.953 Y104.344 E0.01777
G1 X76.953 Y101.469 E0.10981
G1 X76.703 Y101.070 E0.01476
G1 X76.501 Y100.660 E0.01435
G1 X76.343 Y100.230 E0.01436
G1 X76.229 Y99.784 E0.01444
G1 X76.161 Y99.327 E0.01446
G1 X76.139 Y98.864 E0.01455
G1 X76.165 Y98.398 E0.01465
G1 X76.237 Y97.934 E0.01473
G1 X76.357 Y97.480 E0.01470
G1 X76.520 Y97.044 E0.01459
G1 X76.724 Y96.630 E0.01449
G1 X76.967 Y96.240 E0.01438
G1 X77.246 Y95.878 E0.01435
G1 X77.559 Y95.546 E0.01429
G1 X77.903 Y95.249 E0.01426
G1 X78.284 Y94.982 E0.01460
G1 X85.772 Y90.329 E0.27639
G1 X78.170 Y84.684 E0.29687
G1 X77.804 Y84.384 E0.01486
G1 X77.483 Y84.061 E0.01426
G1 X77.201 Y83.714 E0.01403
G1 X76.958 Y83.342 E0.01393
G1 X76.753 Y82.946 E0.01398
G1 X76.589 Y82.530 E0.01401
G1 X76.465 Y82.093 E0.01424
G1 X76.384 Y81.638 E0.01449
G1 X76.346 Y81.177 E0.01452
G1 X76.352 Y80.722 E0.01427
G1 X76.403 Y80.276 E0.01406
G1 X76.497 Y79.840 E0.01400
G1 X76.633 Y79.415 E0.01397
G1 X76.811 Y79.006 E0.01402
G1 X77.030 Y78.612 E0.01410
G1 X77.295 Y78.231 E0.01457
G1 X79.432 Y75.498 E0.10877
G1 X79.786 Y75.098 E0.01675
G1 X80.171 Y74.751 E0.01625
G1 X80.587 Y74.451 E0.01607
G1 X81.030 Y74.201 E0.01597
G1 X81.500 Y74.003 E0.01598
G1 X81.992 Y73.859 E0.01609
G1 X82.504 Y73.771 E0.01629
G1 X83.036 Y73.741 E0.01669
G1 X83.394 Y73.755 E0.01124
G1 X83.751 Y73.800 E0.01129
G1 X84.103 Y73.874 E0.01126
G1 X84.450 Y73.975 E0.01135
G1 X84.790 Y74.104 E0.01141
G1 X85.121 Y74.260 E0.01146
G1 X85.444 Y74.443 E0.01165
G1 X85.760 Y74.654 E0.01191
G1 X91.240 Y78.725 E0.21402
G1 X91.474 Y77.159 E0.04963
G1 X91.751 Y76.369 E0.02626
G1 X92.163 Y75.653 E0.02589
G1 X92.692 Y75.026 E0.02574
G1 X93.327 Y74.506 E0.02573
G1 X94.051 Y74.108 E0.02589
G1 X94.849 Y73.849 E0.02631
G1 X95.730 Y73.740 E0.02783
G1 X98.922 Y73.646 E0.10011
G1 X99.779 Y73.693 E0.02691
G1 X100.218 Y73.759 E0.01395
G1 X100.649 Y73.868 E0.01392
G1 X101.066 Y74.018 E0.01391
G1 X101.467 Y74.208 E0.01391
G1 X101.848 Y74.435 E0.01392
G1 X102.205 Y74.698 E0.01389
G1 X102.537 Y74.999 E0.01404
G1 X102.846 Y75.330 E0.01421
G1 X103.112 Y75.684 E0.01388
G1 X103.338 Y76.063 E0.01384
