; generated by PrusaSlicer 2.3.3+win64 on 2022-03-15 at 15:39:03 UTC


;
;

;
;
; 

; external perimeters extrusion width = 0.45mm
; perimeters extrusion width = 0.45mm
; infill extrusion width = 0.45mm
; solid infill extrusion width = 0.45mm
; top infill extrusion width = 0.40mm
; first layer extrusion width = 0.42mm

M73 P0 R69
M201 X1250 Y1250 Z400 E5000 ; sets maximum accelerations, mm/sec^2
M203 X180 Y180 Z12 E80 ; sets maximum feedrates, mm/sec
M204 P1250 R1250 T1250 ; sets acceleration (P, T) and retract acceleration (R), mm/sec^2
M205 X8.00 Y8.00 Z2.00 E10.00 ; sets the jerk limits, mm/sec
M205 S0 T0 ; sets the minimum extruding and travel feed rate, mm/sec
M107
;TYPE:Custom
G90 ; use absolute coordinates
M83 ; extruder relative mode
M104 S170 ; set extruder temp for bed leveling
M140 S85 ; set bed temp
M109 R170 ; wait for bed leveling temp
M190 S85 ; wait for bed temp
G28 ; home all without mesh bed level
G29 ; mesh bed leveling 
M104 S230 ; set extruder temp
G92 E0.0
G1 Y-2.0 X179 F2400
G1 Z3 F720
M109 S230 ; wait for extruder temp

; intro line
G1 X170 F1000
G1 Z0.2 F720
G1 X110.0 E8.0 F900
G1 X40.0 E10.0 F700
G92 E0.0

M221 S95 ; set flow
G21 ; set units to millimeters
G90 ; use absolute coordinates
M83 ; use relative distances for extrusion
M900 K0.2 ; Filament gcode
;LAYER_CHANGE
;Z:0.2
;HEIGHT:0.2
;BEFORE_LAYER_CHANGE
G92 E0.0
;0.2


G1 E-3.20000 F2400.000
G1 Z0.200 F9000.000
;AFTER_LAYER_CHANGE
;0.2
G1 Z0.400
G1 X32.133 Y23.474
G1 Z0.200
G1 E3.20000 F1500.000
M204 S800
;TYPE:Skirt
;WIDTH:0.42
G1 F1200.000
G1 X33.169 Y22.270 E0.04978
G1 X34.275 Y21.313 E0.04587
G1 X35.805 Y20.343 E0.05681
G1 X37.488 Y19.655 E0.05699
G1 X38.932 Y19.305 E0.04660
G1 X40.567 Y19.129 E0.05154
G1 X139.342 Y19.127 E3.09705
G1 X141.076 Y19.271 E0.05453
G1 X142.851 Y19.731 E0.05750
G1 X144.217 Y20.317 E0.04662
G1 X145.465 Y21.086 E0.04597
G1 X146.827 Y22.231 E0.05579
G1 X147.909 Y23.498 E0.05223
G1 X148.834 Y25.034 E0.05624
G1 X149.398 Y26.391 E0.04605
G1 X149.762 Y27.839 E0.04684
G1 X149.931 Y29.580 E0.05484
G1 X149.935 Y150.314 E3.78551
M73 P0 R68
G1 X149.796 Y151.996 E0.05292
G1 X149.394 Y153.624 E0.05257
G1 X148.745 Y155.155 E0.05216
G1 X147.865 Y156.564 E0.05209
G1 X146.830 Y157.766 E0.04971
G1 X145.724 Y158.722 E0.04583
G1 X144.183 Y159.700 E0.05725
G1 X142.688 Y160.330 E0.05086
G1 X141.231 Y160.697 E0.04712
G1 X139.385 Y160.872 E0.05813
G1 X40.616 Y160.872 E3.09684
G1 X38.941 Y160.733 E0.05269
G1 X37.309 Y160.330 E0.05271
G1 X35.781 Y159.682 E0.05206
G1 X34.372 Y158.802 E0.05209
G1 X33.170 Y157.766 E0.04973
G1 X32.215 Y156.661 E0.04579
G1 X31.237 Y155.120 E0.05725
G1 X30.607 Y153.625 E0.05086
G1 X30.240 Y152.168 E0.04712
G1 X30.065 Y150.314 E0.05836
G1 X30.065 Y29.722 E3.78108
G1 X30.204 Y28.040 E0.05292
G1 X30.605 Y26.412 E0.05259
G1 X31.255 Y24.880 E0.05218
G1 X32.101 Y23.525 E0.05009
M204 S1250
; printing object Fantabulous Trug-Wolt.stl id:0 copy 0
M73 P1 R68
G1 E-2.24000 F2400.000
;WIPE_START
G1 F7200.000
G1 X33.169 Y22.270 E-0.52158
G1 X34.101 Y21.464 E-0.39042
;WIPE_END
G1 E-0.04800 F2400.000
G1 Z0.400 F9000.000
G1 X36.232 Y26.495
G1 Z0.200
G1 E3.20000 F1500.000
M204 S800
;TYPE:Perimeter
G1 F1200.000
G1 X36.777 Y25.857 E0.02632
G1 X37.413 Y25.307 E0.02638
G1 X38.133 Y24.859 E0.02657
G1 X38.921 Y24.524 E0.02685
G1 X39.769 Y24.315 E0.02738
G1 X40.630 Y24.245 E0.02709
G1 X139.406 Y24.245 E3.09705
G1 X140.258 Y24.315 E0.02683
G1 X141.101 Y24.525 E0.02723
G1 X141.887 Y24.859 E0.02679
G1 X142.604 Y25.307 E0.02649
G1 X143.241 Y25.857 E0.02639
G1 X143.787 Y26.496 E0.02634
G1 X144.230 Y27.216 E0.02651
G1 X144.559 Y28.005 E0.02680
G1 X144.759 Y28.849 E0.02720
G1 X144.818 Y29.699 E0.02671
G1 X144.818 Y150.307 E3.78160
G1 X144.749 Y151.158 E0.02677
G1 X144.543 Y152.000 E0.02717
G1 X144.212 Y152.786 E0.02674
G1 X143.769 Y153.504 E0.02646
G1 X143.223 Y154.144 E0.02637
G1 X142.585 Y154.693 E0.02639
G1 X141.868 Y155.141 E0.02652
G1 X141.078 Y155.476 E0.02688
G1 X140.232 Y155.685 E0.02734
G1 X139.370 Y155.755 E0.02709
G1 X40.630 Y155.755 E3.09594
G1 X39.779 Y155.686 E0.02677
G1 X38.937 Y155.480 E0.02717
G1 X38.151 Y155.149 E0.02674
G1 X37.433 Y154.706 E0.02646
G1 X36.793 Y154.160 E0.02637
G1 X36.244 Y153.522 E0.02639
G1 X35.796 Y152.805 E0.02651
G1 X35.460 Y152.015 E0.02691
G1 X35.252 Y151.168 E0.02735
G1 X35.182 Y150.307 E0.02708
G1 X35.182 Y29.694 E3.78175
G1 X35.251 Y28.842 E0.02681
G1 X35.457 Y28.001 E0.02714
G1 X35.788 Y27.214 E0.02677
G1 X36.200 Y26.546 E0.02460
M204 S1250
G1 X36.521 Y26.745 F9000.000
M204 S800
;TYPE:External perimeter
G1 F1200.000
G1 X37.045 Y26.124 E0.02548
G1 X37.638 Y25.611 E0.02456
G1 X38.307 Y25.195 E0.02472
G1 X39.040 Y24.883 E0.02499
G1 X39.829 Y24.689 E0.02548
G1 X40.645 Y24.623 E0.02565
G1 X139.390 Y24.623 E3.09609
G1 X140.197 Y24.689 E0.02538
G1 X140.981 Y24.883 E0.02533
G1 X141.713 Y25.195 E0.02493
G1 X142.379 Y25.611 E0.02466
G1 X142.973 Y26.123 E0.02458
G1 X143.481 Y26.718 E0.02453
G1 X143.894 Y27.388 E0.02466
G1 X144.199 Y28.122 E0.02491
G1 X144.385 Y28.906 E0.02527
G1 X144.441 Y29.711 E0.02533
G1 X144.441 Y150.292 E3.78072
G1 X144.376 Y151.098 E0.02536
G1 X144.184 Y151.882 E0.02529
G1 X143.876 Y152.613 E0.02488
G1 X143.463 Y153.282 E0.02465
G1 X142.955 Y153.878 E0.02455
G1 X142.361 Y154.389 E0.02457
G1 X141.693 Y154.805 E0.02469
G1 X140.958 Y155.117 E0.02502
G1 X140.171 Y155.311 E0.02545
G1 X139.355 Y155.377 E0.02566
G1 X40.645 Y155.377 E3.09498
G1 X39.839 Y155.313 E0.02536
G1 X39.055 Y155.121 E0.02529
G1 X38.324 Y154.813 E0.02488
G1 X37.655 Y154.400 E0.02465
G1 X37.059 Y153.892 E0.02455
G1 X36.548 Y153.298 E0.02457
G1 X36.132 Y152.630 E0.02468
M73 P2 R68
G1 X35.819 Y151.895 E0.02504
G1 X35.625 Y151.107 E0.02545
G1 X35.559 Y150.292 E0.02565
G1 X35.559 Y29.709 E3.78080
M73 P2 R67
G1 X35.624 Y28.902 E0.02539
G1 X35.816 Y28.119 E0.02526
G1 X36.124 Y27.387 E0.02491
G1 X36.489 Y26.796 E0.02180
M204 S1250
G1 X36.357 Y26.380 F9000.000
G1 E-2.24000 F2400.000
;WIPE_START
G1 F7200.000
G1 X37.045 Y26.124 E-0.27611
G1 X37.638 Y25.611 E-0.24808
G1 X38.307 Y25.195 E-0.24968
G1 X38.708 Y25.024 E-0.13813
;WIPE_END
G1 E-0.04800 F2400.000
G1 Z0.400 F9000.000
G1 X33.329 Y28.551
G1 Z0.200
G1 E3.20000 F1500.000
M204 S800
;TYPE:Perimeter
G1 F1200.000
G1 X33.612 Y27.407 E0.03695
G1 X34.064 Y26.342 E0.03630
G1 X34.671 Y25.368 E0.03597
G1 X35.415 Y24.502 E0.03579
G1 X36.283 Y23.760 E0.03582
G1 X37.257 Y23.157 E0.03591
G1 X38.321 Y22.708 E0.03622
G1 X39.460 Y22.427 E0.03678
G1 X41.140 Y22.292 E0.05284
G1 X139.306 Y22.292 E3.07794
G1 X140.547 Y22.393 E0.03903
G1 X141.691 Y22.676 E0.03694
G1 X142.758 Y23.127 E0.03632
G1 X143.731 Y23.733 E0.03595
G1 X144.596 Y24.479 E0.03581
G1 X145.338 Y25.346 E0.03579
G1 X145.942 Y26.321 E0.03595
G1 X146.391 Y27.385 E0.03622
G1 X146.672 Y28.524 E0.03678
G1 X146.771 Y29.757 E0.03878
G1 X146.771 Y150.244 E3.77777
G1 X146.671 Y151.485 E0.03903
G1 X146.388 Y152.628 E0.03692
G1 X145.936 Y153.693 E0.03630
G1 X145.329 Y154.667 E0.03597
G1 X144.584 Y155.534 E0.03583
G1 X143.717 Y156.275 E0.03579
G1 X142.743 Y156.879 E0.03593
G1 X141.679 Y157.328 E0.03621
G1 X140.539 Y157.609 E0.03681
G1 X139.307 Y157.708 E0.03876
G1 X40.693 Y157.708 E3.09196
G1 X39.452 Y157.608 E0.03903
G1 X38.308 Y157.325 E0.03695
G1 X37.243 Y156.873 E0.03630
G1 X36.269 Y156.267 E0.03596
G1 X35.404 Y155.521 E0.03581
G1 X34.662 Y154.654 E0.03579
G1 X34.058 Y153.680 E0.03593
G1 X33.609 Y152.616 E0.03621
G1 X33.328 Y151.476 E0.03681
G1 X33.229 Y150.244 E0.03876
G1 X33.229 Y29.792 E3.77667
G1 X33.324 Y28.611 E0.03715
M204 S1250
G1 X32.948 Y28.581 F9000.000
M204 S800
;TYPE:External perimeter
G1 F1200.000
G1 X32.955 Y28.491 E0.00284
G1 X33.253 Y27.288 E0.03885
G1 X33.728 Y26.167 E0.03817
G1 X34.366 Y25.144 E0.03780
G1 X35.148 Y24.235 E0.03760
G1 X36.060 Y23.455 E0.03764
G1 X37.083 Y22.821 E0.03773
G1 X38.202 Y22.349 E0.03807
G1 X39.399 Y22.054 E0.03867
G1 X41.071 Y21.915 E0.05261
G1 X139.322 Y21.915 E3.08057
G1 X140.608 Y22.019 E0.04047
G1 X141.811 Y22.317 E0.03883
G1 X142.932 Y22.792 E0.03818
G1 X143.955 Y23.429 E0.03779
G1 X144.864 Y24.212 E0.03762
G1 X145.644 Y25.123 E0.03760
G1 X146.278 Y26.147 E0.03778
G1 X146.750 Y27.266 E0.03807
G1 X147.045 Y28.463 E0.03867
G1 X147.149 Y29.742 E0.04022
G1 X147.149 Y150.259 E3.77872
M73 P3 R67
G1 X147.045 Y151.545 E0.04047
G1 X146.747 Y152.747 E0.03882
G1 X146.272 Y153.868 E0.03817
G1 X145.634 Y154.891 E0.03780
G1 X144.851 Y155.801 E0.03765
G1 X143.940 Y156.581 E0.03760
G1 X142.917 Y157.215 E0.03775
G1 X141.798 Y157.687 E0.03807
G1 X140.600 Y157.982 E0.03870
G1 X139.322 Y158.085 E0.04019
G1 X40.678 Y158.085 E3.09291
G1 X39.392 Y157.982 E0.04047
G1 X38.189 Y157.684 E0.03885
G1 X37.068 Y157.209 E0.03817
G1 X36.045 Y156.571 E0.03779
G1 X35.136 Y155.788 E0.03762
G1 X34.356 Y154.877 E0.03760
G1 X33.722 Y153.854 E0.03775
G1 X33.250 Y152.735 E0.03807
G1 X32.955 Y151.537 E0.03870
G1 X32.851 Y150.259 E0.04019
G1 X32.851 Y29.777 E3.77763
G1 X32.943 Y28.641 E0.03575
M204 S1250
G1 X33.029 Y28.540 F9000.000
G1 E-2.24000 F2400.000
;WIPE_START
G1 F7200.000
G1 X32.955 Y28.491 E-0.04766
G1 X33.253 Y27.288 E-0.39241
G1 X33.728 Y26.167 E-0.38546
G1 X33.873 Y25.935 E-0.08647
;WIPE_END
G1 E-0.04800 F2400.000
G1 Z0.400 F9000.000
G1 X142.193 Y23.011
G1 Z0.200
G1 E3.20000 F1500.000
M204 S800
;TYPE:Solid infill
;WIDTH:0.420833
G1 F1200.000
G1 X145.732 Y26.549 E0.15724
G1 X146.122 Y27.474 E0.03153
G1 X141.590 Y22.942 E0.20140
G1 X140.880 Y22.766 E0.02298
G1 X146.297 Y28.183 E0.24074
G1 X146.392 Y28.570 E0.01250
G1 X146.413 Y28.834 E0.00835
G1 X140.230 Y22.651 E0.27481
G1 X139.648 Y22.603 E0.01835
G1 X141.381 Y24.337 E0.07703
G1 X141.191 Y24.256 E0.00648
G1 X140.625 Y24.115 E0.01833
G1 X139.084 Y22.574 E0.06846
G1 X138.550 Y22.574 E0.01679
G1 X139.985 Y24.009 E0.06376
G1 X139.404 Y23.963 E0.01831
G1 X138.015 Y22.574 E0.06169
G1 X137.481 Y22.574 E0.01679
G1 X138.869 Y23.963 E0.06169
G1 X138.335 Y23.963 E0.01679
G1 X136.947 Y22.574 E0.06169
G1 X136.412 Y22.574 E0.01679
G1 X137.800 Y23.963 E0.06169
G1 X137.266 Y23.963 E0.01679
G1 X135.878 Y22.574 E0.06169
G1 X135.343 Y22.574 E0.01679
G1 X136.731 Y23.963 E0.06169
G1 X136.197 Y23.963 E0.01679
G1 X134.809 Y22.574 E0.06169
G1 X134.274 Y22.574 E0.01679
G1 X135.663 Y23.963 E0.06169
G1 X135.128 Y23.963 E0.01679
G1 X133.740 Y22.574 E0.06169
G1 X133.205 Y22.574 E0.01679
G1 X134.594 Y23.963 E0.06169
G1 X134.059 Y23.963 E0.01679
G1 X132.671 Y22.574 E0.06169
G1 X132.137 Y22.574 E0.01679
G1 X133.525 Y23.963 E0.06169
G1 X132.990 Y23.963 E0.01679
G1 X131.602 Y22.574 E0.06169
G1 X131.068 Y22.574 E0.01679
G1 X132.456 Y23.963 E0.06169
G1 X131.921 Y23.963 E0.01679
G1 X130.533 Y22.574 E0.06169
G1 X129.999 Y22.574 E0.01679
G1 X131.387 Y23.963 E0.06169
G1 X130.853 Y23.963 E0.01679
G1 X129.464 Y22.574 E0.06169
G1 X128.930 Y22.574 E0.01679
G1 X130.318 Y23.963 E0.06169
G1 X129.784 Y23.963 E0.01679
G1 X128.395 Y22.574 E0.06169
G1 X127.861 Y22.574 E0.01679
G1 X129.249 Y23.963 E0.06169
G1 X128.715 Y23.963 E0.01679
G1 X127.326 Y22.574 E0.06169
G1 X126.792 Y22.574 E0.01679
G1 X128.180 Y23.963 E0.06169
G1 X127.646 Y23.963 E0.01679
G1 X126.258 Y22.574 E0.06169
G1 X125.723 Y22.574 E0.01679
G1 X127.111 Y23.963 E0.06169
G1 X126.577 Y23.963 E0.01679
G1 X125.189 Y22.574 E0.06169
G1 X124.654 Y22.574 E0.01679
G1 X126.042 Y23.963 E0.06169
G1 X125.508 Y23.963 E0.01679
G1 X124.120 Y22.574 E0.06169
G1 X123.585 Y22.574 E0.01679
G1 X124.974 Y23.963 E0.06169
G1 X124.439 Y23.963 E0.01679
G1 X123.051 Y22.574 E0.06169
G1 X122.516 Y22.574 E0.01679
G1 X123.905 Y23.963 E0.06169
G1 X123.370 Y23.963 E0.01679
G1 X121.982 Y22.574 E0.06169
G1 X121.448 Y22.574 E0.01679
G1 X122.836 Y23.963 E0.06169
G1 X122.301 Y23.963 E0.01679
G1 X120.913 Y22.574 E0.06169
G1 X120.379 Y22.574 E0.01679
G1 X121.767 Y23.963 E0.06169
G1 X121.232 Y23.963 E0.01679
G1 X119.844 Y22.574 E0.06169
G1 X119.310 Y22.574 E0.01679
G1 X120.698 Y23.963 E0.06169
G1 X120.164 Y23.963 E0.01679
G1 X118.775 Y22.574 E0.06169
M73 P3 R66
G1 X118.241 Y22.574 E0.01679
G1 X119.629 Y23.963 E0.06169
G1 X119.095 Y23.963 E0.01679
G1 X117.706 Y22.574 E0.06169
G1 X117.172 Y22.574 E0.01679
G1 X118.560 Y23.963 E0.06169
G1 X118.026 Y23.963 E0.01679
G1 X116.637 Y22.574 E0.06169
G1 X116.103 Y22.574 E0.01679
G1 X117.491 Y23.963 E0.06169
G1 X116.957 Y23.963 E0.01679
G1 X115.569 Y22.574 E0.06169
G1 X115.034 Y22.574 E0.01679
G1 X116.422 Y23.963 E0.06169
G1 X115.888 Y23.963 E0.01679
G1 X114.500 Y22.574 E0.06169
G1 X113.965 Y22.574 E0.01679
G1 X115.353 Y23.963 E0.06169
G1 X114.819 Y23.963 E0.01679
G1 X113.431 Y22.574 E0.06169
G1 X112.896 Y22.574 E0.01679
G1 X114.285 Y23.963 E0.06169
G1 X113.750 Y23.963 E0.01679
G1 X112.362 Y22.574 E0.06169
G1 X111.827 Y22.574 E0.01679
G1 X113.216 Y23.963 E0.06169
G1 X112.681 Y23.963 E0.01679
G1 X111.293 Y22.574 E0.06169
G1 X110.759 Y22.574 E0.01679
G1 X112.147 Y23.963 E0.06169
G1 X111.612 Y23.963 E0.01679
G1 X110.224 Y22.574 E0.06169
G1 X109.690 Y22.574 E0.01679
G1 X111.078 Y23.963 E0.06169
G1 X110.543 Y23.963 E0.01679
G1 X109.155 Y22.574 E0.06169
G1 X108.621 Y22.574 E0.01679
G1 X110.009 Y23.963 E0.06169
G1 X109.475 Y23.963 E0.01679
G1 X108.086 Y22.574 E0.06169
G1 X107.552 Y22.574 E0.01679
G1 X108.940 Y23.963 E0.06169
G1 X108.406 Y23.963 E0.01679
G1 X107.017 Y22.574 E0.06169
G1 X106.483 Y22.574 E0.01679
G1 X107.871 Y23.963 E0.06169
G1 X107.337 Y23.963 E0.01679
G1 X105.948 Y22.574 E0.06169
G1 X105.414 Y22.574 E0.01679
G1 X106.802 Y23.963 E0.06169
G1 X106.268 Y23.963 E0.01679
G1 X104.880 Y22.574 E0.06169
G1 X104.345 Y22.574 E0.01679
G1 X105.733 Y23.963 E0.06169
G1 X105.199 Y23.963 E0.01679
G1 X103.811 Y22.574 E0.06169
G1 X103.276 Y22.574 E0.01679
G1 X104.664 Y23.963 E0.06169
G1 X104.130 Y23.963 E0.01679
G1 X102.742 Y22.574 E0.06169
G1 X102.207 Y22.574 E0.01679
G1 X103.596 Y23.963 E0.06169
G1 X103.061 Y23.963 E0.01679
G1 X101.673 Y22.574 E0.06169
G1 X101.138 Y22.574 E0.01679
G1 X102.527 Y23.963 E0.06169
G1 X101.992 Y23.963 E0.01679
G1 X100.604 Y22.574 E0.06169
G1 X100.070 Y22.574 E0.01679
G1 X101.458 Y23.963 E0.06169
G1 X100.923 Y23.963 E0.01679
G1 X99.535 Y22.574 E0.06169
G1 X99.001 Y22.574 E0.01679
G1 X100.389 Y23.963 E0.06169
G1 X99.854 Y23.963 E0.01679
G1 X98.466 Y22.574 E0.06169
G1 X97.932 Y22.574 E0.01679
G1 X99.320 Y23.963 E0.06169
G1 X98.786 Y23.963 E0.01679
G1 X97.397 Y22.574 E0.06169
G1 X96.863 Y22.574 E0.01679
G1 X98.251 Y23.963 E0.06169
G1 X97.717 Y23.963 E0.01679
G1 X96.328 Y22.574 E0.06169
G1 X95.794 Y22.574 E0.01679
G1 X97.182 Y23.963 E0.06169
G1 X96.648 Y23.963 E0.01679
G1 X95.259 Y22.574 E0.06169
G1 X94.725 Y22.574 E0.01679
G1 X96.113 Y23.963 E0.06169
G1 X95.579 Y23.963 E0.01679
G1 X94.191 Y22.574 E0.06169
G1 X93.656 Y22.574 E0.01679
G1 X95.044 Y23.963 E0.06169
G1 X94.510 Y23.963 E0.01679
G1 X93.122 Y22.574 E0.06169
G1 X92.587 Y22.574 E0.01679
G1 X93.975 Y23.963 E0.06169
G1 X93.441 Y23.963 E0.01679
G1 X92.053 Y22.574 E0.06169
G1 X91.518 Y22.574 E0.01679
G1 X92.907 Y23.963 E0.06169
G1 X92.372 Y23.963 E0.01679
G1 X90.984 Y22.574 E0.06169
G1 X90.449 Y22.574 E0.01679
G1 X91.838 Y23.963 E0.06169
G1 X91.303 Y23.963 E0.01679
G1 X89.915 Y22.574 E0.06169
G1 X89.381 Y22.574 E0.01679
G1 X90.769 Y23.963 E0.06169
G1 X90.234 Y23.963 E0.01679
G1 X88.846 Y22.574 E0.06169
G1 X88.312 Y22.574 E0.01679
G1 X89.700 Y23.963 E0.06169
G1 X89.165 Y23.963 E0.01679
G1 X87.777 Y22.574 E0.06169
G1 X87.243 Y22.574 E0.01679
G1 X88.631 Y23.963 E0.06169
G1 X88.097 Y23.963 E0.01679
G1 X86.708 Y22.574 E0.06169
G1 X86.174 Y22.574 E0.01679
G1 X87.562 Y23.963 E0.06169
G1 X87.028 Y23.963 E0.01679
G1 X85.639 Y22.574 E0.06169
G1 X85.105 Y22.574 E0.01679
G1 X86.493 Y23.963 E0.06169
G1 X85.959 Y23.963 E0.01679
G1 X84.570 Y22.574 E0.06169
G1 X84.036 Y22.574 E0.01679
G1 X85.424 Y23.963 E0.06169
G1 X84.890 Y23.963 E0.01679
G1 X83.502 Y22.574 E0.06169
G1 X82.967 Y22.574 E0.01679
G1 X84.355 Y23.963 E0.06169
G1 X83.821 Y23.963 E0.01679
G1 X82.433 Y22.574 E0.06169
G1 X81.898 Y22.574 E0.01679
G1 X83.286 Y23.963 E0.06169
G1 X82.752 Y23.963 E0.01679
G1 X81.364 Y22.574 E0.06169
G1 X80.829 Y22.574 E0.01679
G1 X82.218 Y23.963 E0.06169
G1 X81.683 Y23.963 E0.01679
G1 X80.295 Y22.574 E0.06169
G1 X79.760 Y22.574 E0.01679
G1 X81.149 Y23.963 E0.06169
G1 X80.614 Y23.963 E0.01679
