; generated by PrusaSlicer 2.3.3+win64 on 2022-05-05 at 11:01:47 UTC


;
;

;
;
; 

; external perimeters extrusion width = 0.45mm
; perimeters extrusion width = 0.45mm
; infill extrusion width = 0.45mm
; solid infill extrusion width = 0.45mm
; top infill extrusion width = 0.40mm
; first layer extrusion width = 0.42mm

M73 P0 R68
M201 X1250 Y1250 Z400 E5000 ; sets maximum accelerations, mm/sec^2
M203 X180 Y180 Z12 E80 ; sets maximum feedrates, mm/sec
M204 P1250 R1250 T1250 ; sets acceleration (P, T) and retract acceleration (R), mm/sec^2
M205 X8.00 Y8.00 Z2.00 E10.00 ; sets the jerk limits, mm/sec
M205 S0 T0 ; sets the minimum extruding and travel feed rate, mm/sec
M107
;TYPE:Custom
G90 ; use absolute coordinates
M83 ; extruder relative mode
M104 S170 ; set extruder temp for bed leveling
M140 S85 ; set bed temp
M109 R170 ; wait for bed leveling temp
M190 S85 ; wait for bed temp
G28 ; home all without mesh bed level
G29 ; mesh bed leveling 
M104 S230 ; set extruder temp
G92 E0.0
G1 Y-2.0 X179 F2400
G1 Z3 F720
M109 S230 ; wait for extruder temp

; intro line
G1 X170 F1000
G1 Z0.2 F720
G1 X110.0 E8.0 F900
G1 X40.0 E10.0 F700
G92 E0.0

M221 S95 ; set flow
G21 ; set units to millimeters
G90 ; use absolute coordinates
M83 ; use relative distances for extrusion
M900 K0.2 ; Filament gcode
;LAYER_CHANGE
;Z:0.2
;HEIGHT:0.2
;BEFORE_LAYER_CHANGE
G92 E0.0
;0.2


M73 P0 R67
G1 E-3.20000 F2400.000
G1 Z0.200 F9000.000
;AFTER_LAYER_CHANGE
;0.2
G1 Z0.400
G1 X62.622 Y50.630
G1 Z0.200
G1 E3.20000 F1500.000
M204 S800
;TYPE:Skirt
;WIDTH:0.42
G1 F1200.000
G1 X64.278 Y48.716 E0.07935
G1 X66.239 Y46.795 E0.08607
G1 X68.436 Y44.986 E0.08923
G1 X70.856 Y43.319 E0.09215
G1 X73.404 Y41.864 E0.09198
G1 X76.097 Y40.605 E0.09320
G1 X78.997 Y39.517 E0.09714
G1 X81.960 Y38.650 E0.09678
G1 X84.961 Y37.992 E0.09635
G1 X88.086 Y37.518 E0.09910
G1 X91.467 Y37.217 E0.10642
G1 X94.891 Y37.120 E0.10742
G1 X98.348 Y37.306 E0.10853
G1 X101.736 Y37.835 E0.10753
G1 X104.905 Y38.630 E0.10241
G1 X107.807 Y39.601 E0.09595
G1 X110.614 Y40.757 E0.09518
G1 X113.181 Y41.991 E0.08933
G1 X115.556 Y43.275 E0.08464
G1 X117.704 Y44.547 E0.07828
G1 X121.290 Y46.848 E0.13358
G1 X122.193 Y47.592 E0.03669
G1 X122.928 Y48.477 E0.03607
G1 X123.351 Y49.187 E0.02592
G1 X123.777 Y50.256 E0.03607
G1 X123.941 Y50.966 E0.02285
G1 X124.041 Y52.093 E0.03546
G1 X123.757 Y70.376 E0.57334
G1 X122.217 Y130.474 E1.88495
G1 X121.990 Y131.602 E0.03605
G1 X121.424 Y132.852 E0.04303
G1 X120.741 Y133.754 E0.03547
G1 X119.878 Y134.507 E0.03593
G1 X118.018 Y135.725 E0.06972
G1 X115.851 Y136.919 E0.07755
G1 X113.336 Y138.102 E0.08714
G1 X110.543 Y139.226 E0.09441
G1 X107.632 Y140.218 E0.09643
G1 X104.499 Y141.108 E0.10211
G1 X101.264 Y141.840 E0.10399
G1 X97.949 Y142.398 E0.10541
G1 X94.644 Y142.748 E0.10418
G1 X91.121 Y142.879 E0.11053
G1 X85.222 Y142.507 E0.18534
G1 X79.544 Y141.333 E0.18181
G1 X74.920 Y139.616 E0.15464
G1 X70.682 Y137.190 E0.15313
G1 X67.286 Y134.394 E0.13793
G1 X64.463 Y131.125 E0.13541
G1 X62.274 Y127.504 E0.13266
G1 X60.785 Y123.802 E0.12512
G1 X59.804 Y119.498 E0.13840
G1 X56.036 Y72.287 E1.48498
G1 X55.959 Y70.068 E0.06963
G1 X56.069 Y67.373 E0.08456
G1 X56.406 Y64.675 E0.08526
G1 X56.921 Y62.196 E0.07939
G1 X57.630 Y59.789 E0.07865
G1 X58.602 Y57.286 E0.08420
G1 X59.753 Y54.950 E0.08165
G1 X61.147 Y52.655 E0.08420
G1 X62.587 Y50.679 E0.07667
M204 S1250
; printing object Bodacious Elzing-Bigery.stl id:0 copy 0
G1 E-2.24000 F2400.000
;WIPE_START
G1 F7200.000
G1 X64.278 Y48.716 E-0.82036
G1 X64.485 Y48.513 E-0.09164
;WIPE_END
G1 E-0.04800 F2400.000
G1 Z0.400 F9000.000
G1 X71.286 Y99.319
G1 Z0.200
G1 E3.20000 F1500.000
M204 S800
;TYPE:Perimeter
G1 F1200.000
G1 X105.639 Y99.319 E1.07713
G1 X105.619 Y105.464 E0.19268
G1 X92.762 Y105.164 E0.40324
G1 X91.199 Y105.208 E0.04902
G1 X89.897 Y105.359 E0.04109
G1 X88.869 Y105.637 E0.03340
G1 X88.100 Y106.044 E0.02730
G1 X87.536 Y106.606 E0.02494
G1 X87.121 Y107.402 E0.02816
G1 X86.856 Y108.528 E0.03626
G1 X86.772 Y110.038 E0.04741
G1 X86.884 Y111.937 E0.05965
G1 X87.025 Y112.697 E0.02423
G1 X87.260 Y113.271 E0.01947
G1 X87.589 Y113.710 E0.01719
G1 X88.038 Y114.060 E0.01783
G1 X88.649 Y114.337 E0.02105
G1 X89.453 Y114.535 E0.02596
G1 X90.458 Y114.640 E0.03168
G1 X91.666 Y114.651 E0.03789
G1 X93.073 Y114.566 E0.04419
G1 X94.717 Y114.387 E0.05186
G1 X96.996 Y114.269 E0.07154
G1 X99.363 Y113.941 E0.07494
G1 X101.820 Y113.431 E0.07868
G1 X104.304 Y112.770 E0.08059
G1 X106.750 Y111.993 E0.08046
G1 X109.096 Y111.132 E0.07837
G1 X111.281 Y110.221 E0.07422
G1 X113.242 Y109.295 E0.06800
G1 X114.913 Y108.390 E0.05959
G1 X116.655 Y107.274 E0.06485
G1 X117.472 Y107.716 E0.02912
G1 X117.567 Y118.893 E0.35047
G1 X64.354 Y118.893 E1.66843
G1 X64.110 Y115.601 E0.10349
G1 X64.285 Y112.706 E0.09096
G1 X64.813 Y109.912 E0.08913
M73 P1 R67
G1 X65.692 Y107.232 E0.08844
G1 X66.925 Y104.687 E0.08869
G1 X68.509 Y102.293 E0.08998
G1 X70.441 Y100.073 E0.09230
G1 X71.241 Y99.359 E0.03362
M204 S1250
G1 X71.430 Y99.696 F9000.000
M204 S800
;TYPE:External perimeter
G1 F1200.000
G1 X105.261 Y99.696 E1.06075
G1 X105.243 Y105.078 E0.16876
G1 X92.761 Y104.787 E0.39148
G1 X91.172 Y104.831 E0.04984
G1 X89.826 Y104.988 E0.04248
G1 X88.730 Y105.284 E0.03560
G1 X87.874 Y105.738 E0.03039
G1 X87.229 Y106.380 E0.02853
G1 X86.765 Y107.270 E0.03147
G1 X86.482 Y108.474 E0.03878
G1 X86.394 Y110.038 E0.04913
G1 X86.509 Y111.982 E0.06106
G1 X86.661 Y112.804 E0.02618
G1 X86.930 Y113.459 E0.02221
G1 X87.318 Y113.976 E0.02028
G1 X87.841 Y114.385 E0.02082
G1 X88.525 Y114.695 E0.02355
G1 X89.388 Y114.907 E0.02786
G1 X90.437 Y115.017 E0.03306
G1 X91.676 Y115.028 E0.03886
G1 X93.105 Y114.942 E0.04489
G1 X94.748 Y114.763 E0.05181
G1 X97.032 Y114.644 E0.07171
G1 X99.428 Y114.313 E0.07584
G1 X101.907 Y113.798 E0.07940
G1 X104.410 Y113.132 E0.08120
G1 X106.872 Y112.350 E0.08100
G1 X109.234 Y111.483 E0.07889
G1 X111.434 Y110.565 E0.07475
G1 X113.412 Y109.631 E0.06860
G1 X115.105 Y108.715 E0.06036
G1 X116.671 Y107.711 E0.05831
G1 X117.096 Y107.942 E0.01517
G1 X117.186 Y118.516 E0.33157
G1 X64.704 Y118.516 E1.64553
G1 X64.488 Y115.599 E0.09172
G1 X64.660 Y112.752 E0.08941
G1 X65.179 Y110.007 E0.08761
G1 X66.043 Y107.374 E0.08687
G1 X67.253 Y104.874 E0.08711
G1 X68.809 Y102.522 E0.08841
G1 X70.710 Y100.338 E0.09078
G1 X71.385 Y99.736 E0.02836
M204 S1250
G1 X71.529 Y99.308 F9000.000
G1 E-2.24000 F2400.000
;WIPE_START
G1 F7200.000
G1 X74.265 Y99.733 E-0.91200
;WIPE_END
G1 E-0.04800 F2400.000
G1 Z0.400 F9000.000
G1 X73.542 Y98.893
G1 Z0.200
G1 E3.20000 F1500.000
M204 S800
;TYPE:Perimeter
G1 F1200.000
G1 X73.174 Y97.722 E0.03848
G1 X75.340 Y96.211 E0.08281
G1 X78.302 Y94.602 E0.10569
G1 X79.900 Y93.964 E0.05393
G1 X78.302 Y93.575 E0.05155
G1 X75.058 Y92.314 E0.10914
G1 X72.030 Y90.690 E0.10773
G1 X69.260 Y88.712 E0.10673
G1 X66.792 Y86.390 E0.10623
G1 X64.672 Y83.736 E0.10652
G1 X63.147 Y81.108 E0.09527
G1 X63.601 Y80.319 E0.02853
G1 X84.762 Y80.319 E0.66348
G1 X84.985 Y80.570 E0.01054
G1 X86.128 Y81.321 E0.04288
G1 X87.710 Y81.920 E0.05303
G1 X89.799 Y82.355 E0.06691
G1 X92.447 Y82.617 E0.08343
G1 X95.703 Y82.704 E0.10215
G1 X105.695 Y82.589 E0.31331
G1 X105.641 Y98.893 E0.51121
G1 X73.602 Y98.893 E1.00455
M204 S1250
G1 X73.819 Y98.516 F9000.000
M204 S800
;TYPE:External perimeter
G1 F1200.000
G1 X73.617 Y97.873 E0.02112
G1 X75.539 Y96.533 E0.07347
G1 X78.464 Y94.943 E0.10438
G1 X79.880 Y94.365 E0.04794
G1 X80.378 Y94.209 E0.01638
G1 X80.878 Y94.113 E0.01595
G1 X81.312 Y93.971 E0.01433
G1 X81.489 Y93.848 E0.00675
G1 X81.323 Y93.764 E0.00583
G1 X80.885 Y93.677 E0.01400
G1 X80.388 Y93.656 E0.01559
G1 X79.879 Y93.579 E0.01614
G1 X78.416 Y93.215 E0.04727
G1 X75.216 Y91.971 E0.10767
G1 X72.230 Y90.369 E0.10625
G1 X69.500 Y88.420 E0.10517
G1 X67.070 Y86.134 E0.10459
G1 X64.984 Y83.522 E0.10480
G1 X63.583 Y81.107 E0.08756
G1 X63.819 Y80.696 E0.01486
G1 X84.592 Y80.696 E0.65132
G1 X84.736 Y80.858 E0.00680
G1 X85.956 Y81.659 E0.04575
G1 X87.604 Y82.283 E0.05525
G1 X89.742 Y82.728 E0.06847
G1 X92.423 Y82.994 E0.08449
G1 X95.701 Y83.081 E0.10280
G1 X105.317 Y82.970 E0.30153
G1 X105.265 Y98.516 E0.48743
G1 X73.879 Y98.516 E0.98409
M204 S1250
G1 X73.444 Y98.655 F9000.000
G1 E-2.24000 F2400.000
;WIPE_START
G1 F7200.000
G1 X73.617 Y97.873 E-0.21979
G1 X75.410 Y96.623 E-0.69221
;WIPE_END
G1 E-0.04800 F2400.000
G1 Z0.400 F9000.000
G1 X61.991 Y61.319
G1 Z0.200
G1 E3.20000 F1500.000
M204 S800
;TYPE:Perimeter
G1 F1200.000
G1 X119.304 Y61.319 E1.79702
G1 X119.149 Y71.536 E0.32039
G1 X116.740 Y70.159 E0.08701
G1 X115.113 Y69.371 E0.05667
G1 X113.147 Y68.532 E0.06703
G1 X110.904 Y67.683 E0.07520
G1 X108.448 Y66.858 E0.08122
G1 X105.844 Y66.094 E0.08510
G1 X103.152 Y65.425 E0.08696
G1 X100.437 Y64.889 E0.08678
G1 X97.760 Y64.517 E0.08473
G1 X95.178 Y64.345 E0.08114
G1 X92.112 Y64.352 E0.09615
G1 X89.599 Y64.545 E0.07902
G1 X87.610 Y64.926 E0.06350
G1 X86.098 Y65.487 E0.05058
G1 X84.995 Y66.218 E0.04147
G1 X84.206 Y67.134 E0.03791
G1 X83.650 Y68.295 E0.04034
G1 X83.288 Y69.752 E0.04707
G1 X83.097 Y71.524 E0.05591
G1 X83.043 Y73.613 E0.06550
G1 X83.093 Y75.534 E0.06024
G1 X83.275 Y77.181 E0.05197
G1 X83.627 Y78.551 E0.04434
G1 X84.295 Y79.893 E0.04701
G1 X62.605 Y79.893 E0.68005
G1 X61.660 Y77.486 E0.08110
G1 X60.858 Y73.920 E0.11458
G1 X60.581 Y70.082 E0.12065
G1 X60.934 Y65.612 E0.14059
G1 X61.976 Y61.377 E0.13675
M204 S1250
G1 X62.286 Y61.696 F9000.000
M204 S800
;TYPE:External perimeter
G1 F1200.000
G1 X118.921 Y61.696 E1.77575
M73 P1 R66
G1 X118.782 Y70.892 E0.28836
G1 X116.916 Y69.825 E0.06739
G1 X115.270 Y69.027 E0.05736
G1 X113.287 Y68.182 E0.06756
G1 X111.031 Y67.328 E0.07566
G1 X108.561 Y66.498 E0.08167
G1 X105.942 Y65.730 E0.08558
G1 X103.234 Y65.057 E0.08749
G1 X100.500 Y64.517 E0.08741
G1 X97.799 Y64.142 E0.08549
G1 X95.190 Y63.968 E0.08197
G1 X92.097 Y63.975 E0.09700
G1 X89.549 Y64.171 E0.08012
G1 X87.508 Y64.561 E0.06515
G1 X85.926 Y65.149 E0.05293
G1 X84.743 Y65.932 E0.04447
G1 X83.888 Y66.926 E0.04112
G1 X83.293 Y68.166 E0.04312
G1 X82.916 Y69.686 E0.04908
G1 X82.721 Y71.499 E0.05720
G1 X82.666 Y73.613 E0.06629
G1 X82.717 Y75.559 E0.06104
G1 X82.903 Y77.249 E0.05331
G1 X83.272 Y78.683 E0.04642
G1 X83.686 Y79.516 E0.02917
G1 X62.862 Y79.516 E0.65291
G1 X62.021 Y77.375 E0.07213
G1 X61.232 Y73.865 E0.11279
G1 X60.959 Y70.084 E0.11887
G1 X61.307 Y65.672 E0.13874
G1 X62.272 Y61.754 E0.12652
M204 S1250
G1 X62.307 Y61.297 F9000.000
G1 X62.272 Y60.893
M204 S800
;TYPE:Perimeter
G1 F1200.000
G1 X62.175 Y60.893 E0.00303
G1 X63.747 Y57.269 E0.12385
G1 X66.197 Y53.542 E0.13985
G1 X69.332 Y50.203 E0.14358
G1 X73.140 Y47.326 E0.14967
G1 X77.610 Y44.978 E0.15830
G1 X82.731 Y43.222 E0.16974
G1 X88.492 Y42.123 E0.18388
M73 P2 R66
G1 X94.831 Y41.746 E0.19911
G1 X98.026 Y41.920 E0.10032
G1 X101.054 Y42.415 E0.09622
G1 X103.949 Y43.168 E0.09379
G1 X106.694 Y44.122 E0.09112
G1 X109.273 Y45.221 E0.08790
G1 X111.671 Y46.407 E0.08386
G1 X113.868 Y47.623 E0.07875
G1 X115.852 Y48.817 E0.07260
G1 X119.458 Y51.139 E0.13446
G1 X119.310 Y60.893 E0.30588
G1 X62.332 Y60.893 E1.78652
M204 S1250
G1 X62.750 Y60.516 F9000.000
M204 S800
;TYPE:External perimeter
G1 F1200.000
G1 X64.080 Y57.449 E0.10481
G1 X66.494 Y53.776 E0.13781
G1 X69.585 Y50.485 E0.14155
G1 X73.343 Y47.646 E0.14769
G1 X77.760 Y45.325 E0.15643
G1 X82.828 Y43.588 E0.16799
G1 X88.539 Y42.498 E0.18228
G1 X94.832 Y42.124 E0.19768
G1 X97.985 Y42.296 E0.09901
G1 X100.976 Y42.784 E0.09503
G1 X103.840 Y43.529 E0.09276
G1 X106.558 Y44.474 E0.09024
G1 X109.116 Y45.563 E0.08716
G1 X111.496 Y46.741 E0.08325
G1 X113.680 Y47.950 E0.07827
G1 X115.653 Y49.138 E0.07221
G1 X119.078 Y51.342 E0.12772
G1 X118.939 Y60.516 E0.28767
G1 X62.810 Y60.516 E1.75989
M204 S1250
G1 X62.359 Y60.429 F9000.000
G1 E-2.24000 F2400.000
;WIPE_START
G1 F7200.000
G1 X63.912 Y57.855 E-0.91200
;WIPE_END
G1 E-0.04800 F2400.000
G1 Z0.400 F9000.000
G1 X64.430 Y119.319
G1 Z0.200
G1 E3.20000 F1500.000
M204 S800
;TYPE:Perimeter
G1 F1200.000
G1 X117.571 Y119.319 E1.66620
G1 X117.645 Y130.185 E0.34072
G1 X117.523 Y130.486 E0.01017
G1 X117.314 Y130.732 E0.01012
G1 X115.574 Y131.870 E0.06519
G1 X113.577 Y132.956 E0.07127
G1 X111.307 Y134.003 E0.07837
G1 X108.805 Y134.990 E0.08432
G1 X106.112 Y135.893 E0.08907
G1 X103.265 Y136.689 E0.09269
G1 X100.307 Y137.351 E0.09502
G1 X97.281 Y137.856 E0.09622
G1 X94.224 Y138.179 E0.09636
G1 X91.172 Y138.292 E0.09577
G1 X85.947 Y137.974 E0.16413
G1 X81.289 Y137.057 E0.14885
G1 X77.200 Y135.599 E0.13613
G1 X73.674 Y133.661 E0.12616
G1 X70.710 Y131.304 E0.11872
G1 X68.304 Y128.595 E0.11360
G1 X66.451 Y125.602 E0.11037
G1 X65.142 Y122.394 E0.10865
G1 X64.444 Y119.377 E0.09708
M204 S1250
G1 X64.905 Y119.696 F9000.000
M204 S800
;TYPE:External perimeter
G1 F1200.000
G1 X117.197 Y119.696 E1.63959
G1 X117.267 Y130.113 E0.32663
G1 X117.196 Y130.288 E0.00592
G1 X117.062 Y130.446 E0.00651
G1 X115.380 Y131.546 E0.06301
G1 X113.407 Y132.619 E0.07040
G1 X111.159 Y133.656 E0.07765
G1 X108.676 Y134.635 E0.08368
G1 X106.001 Y135.532 E0.08846
G1 X103.173 Y136.323 E0.09208
G1 X100.235 Y136.981 E0.09438
G1 X97.230 Y137.482 E0.09553
G1 X94.198 Y137.802 E0.09560
G1 X91.177 Y137.914 E0.09479
G1 X85.995 Y137.600 E0.16276
G1 X81.389 Y136.692 E0.14719
G1 X77.355 Y135.254 E0.13430
G1 X73.884 Y133.346 E0.12421
G1 X70.971 Y131.029 E0.11670
G1 X68.608 Y128.369 E0.11156
G1 X66.788 Y125.431 E0.10836
G1 X65.502 Y122.279 E0.10671
G1 X64.918 Y119.754 E0.08126
M204 S1250
G1 X64.862 Y119.298 F9000.000
G1 E-2.24000 F2400.000
;WIPE_START
G1 F7200.000
G1 X67.798 Y119.751 E-0.91200
;WIPE_END
G1 E-0.04800 F2400.000
G1 Z0.400 F9000.000
G1 X88.718 Y112.746
G1 Z0.200
G1 E3.20000 F1500.000
M204 S800
;TYPE:Perimeter
G1 F1200.000
G1 X88.950 Y112.878 E0.00837
G1 X89.385 Y113.030 E0.01445
G1 X89.856 Y113.121 E0.01503
G1 X90.823 Y113.201 E0.03044
G1 X91.525 Y113.205 E0.02201
G1 X92.419 Y113.170 E0.02805
G1 X93.780 Y113.049 E0.04284
G1 X94.679 Y112.923 E0.02845
G1 X96.900 Y112.812 E0.06972
G1 X99.158 Y112.494 E0.07152
G1 X101.496 Y112.004 E0.07490
G1 X103.861 Y111.376 E0.07672
G1 X106.194 Y110.639 E0.07672
G1 X108.440 Y109.824 E0.07491
G1 X110.541 Y108.961 E0.07121
G1 X112.441 Y108.079 E0.06567
G1 X114.084 Y107.204 E0.05836
G1 X115.362 Y106.394 E0.04746
G1 X115.876 Y106.109 E0.01840
G1 X116.341 Y105.976 E0.01517
G1 X116.809 Y105.951 E0.01471
G1 X117.269 Y106.026 E0.01459
G1 X117.702 Y106.196 E0.01459
G1 X118.093 Y106.451 E0.01464
G1 X118.422 Y106.780 E0.01458
G1 X118.674 Y107.176 E0.01471
G1 X118.837 Y107.633 E0.01520
G1 X118.901 Y108.200 E0.01789
G1 X119.076 Y129.939 E0.68165
G1 X119.065 Y130.185 E0.00770
G1 X118.979 Y130.626 E0.01411
G1 X118.906 Y130.839 E0.00704
G1 X118.703 Y131.238 E0.01405
G1 X118.428 Y131.594 E0.01409
G1 X118.093 Y131.894 E0.01413
G1 X116.388 Y133.012 E0.06390
G1 X114.349 Y134.134 E0.07299
G1 X112.018 Y135.226 E0.08070
G1 X109.441 Y136.260 E0.08706
G1 X106.660 Y137.206 E0.09210
G1 X103.718 Y138.041 E0.09589
G1 X100.657 Y138.735 E0.09840
G1 X97.519 Y139.263 E0.09978
G1 X94.346 Y139.597 E0.10002
G1 X91.192 Y139.715 E0.09898
G1 X85.545 Y139.358 E0.17741
G1 X80.577 Y138.342 E0.15898
G1 X76.260 Y136.747 E0.14431
G1 X72.574 Y134.651 E0.13294
G1 X69.498 Y132.128 E0.12474
G1 X67.014 Y129.248 E0.11923
G1 X65.105 Y126.084 E0.11587
G1 X63.754 Y122.706 E0.11407
G1 X62.953 Y119.185 E0.11322
G1 X62.687 Y115.578 E0.11339
G1 X62.731 Y114.080 E0.04699
G1 X62.862 Y112.596 E0.04672
G1 X63.079 Y111.145 E0.04599
G1 X63.381 Y109.731 E0.04534
G1 X63.767 Y108.352 E0.04491
G1 X64.234 Y107.011 E0.04452
G1 X64.785 Y105.708 E0.04435
G1 X65.414 Y104.446 E0.04422
G1 X66.125 Y103.226 E0.04428
G1 X66.938 Y102.014 E0.04575
G1 X67.761 Y100.660 E0.04969
G1 X68.386 Y99.195 E0.04994
G1 X68.794 Y97.677 E0.04927
G1 X68.985 Y96.129 E0.04892
G1 X68.966 Y94.572 E0.04881
G1 X68.736 Y93.029 E0.04890
G1 X68.302 Y91.522 E0.04917
G1 X67.665 Y90.073 E0.04966
G1 X66.826 Y88.702 E0.05038
G1 X65.846 Y87.500 E0.04863
G1 X65.659 Y87.166 E0.01198
G1 X65.541 Y87.153 E0.00374
G1 X64.491 Y85.931 E0.05050
G1 X63.383 Y84.422 E0.05872
G1 X62.399 Y82.840 E0.05841
G1 X61.541 Y81.191 E0.05827
G1 X60.809 Y79.479 E0.05839
G1 X60.207 Y77.706 E0.05869
