; generated by PrusaSlicer 2.3.3+win64 on 2022-05-05 at 10:46:41 UTC


;
;

;
;
; 

; external perimeters extrusion width = 0.45mm
; perimeters extrusion width = 0.45mm
; infill extrusion width = 0.45mm
; solid infill extrusion width = 0.45mm
; top infill extrusion width = 0.40mm
; first layer extrusion width = 0.42mm

M73 P0 R69
M201 X1250 Y1250 Z400 E5000 ; sets maximum accelerations, mm/sec^2
M203 X180 Y180 Z12 E80 ; sets maximum feedrates, mm/sec
M204 P1250 R1250 T1250 ; sets acceleration (P, T) and retract acceleration (R), mm/sec^2
M205 X8.00 Y8.00 Z2.00 E10.00 ; sets the jerk limits, mm/sec
M205 S0 T0 ; sets the minimum extruding and travel feed rate, mm/sec
M107
;TYPE:Custom
G90 ; use absolute coordinates
M83 ; extruder relative mode
M104 S170 ; set extruder temp for bed leveling
M140 S85 ; set bed temp
M109 R170 ; wait for bed leveling temp
M190 S85 ; wait for bed temp
G28 ; home all without mesh bed level
G29 ; mesh bed leveling 
M104 S230 ; set extruder temp
G92 E0.0
G1 Y-2.0 X179 F2400
G1 Z3 F720
M109 S230 ; wait for extruder temp

; intro line
G1 X170 F1000
G1 Z0.2 F720
G1 X110.0 E8.0 F900
G1 X40.0 E10.0 F700
G92 E0.0

M221 S95 ; set flow
G21 ; set units to millimeters
G90 ; use absolute coordinates
M83 ; use relative distances for extrusion
M900 K0.2 ; Filament gcode
;LAYER_CHANGE
;Z:0.2
;HEIGHT:0.2
;BEFORE_LAYER_CHANGE
G92 E0.0
;0.2


M73 P0 R68
G1 E-3.20000 F2400.000
G1 Z0.200 F9000.000
;AFTER_LAYER_CHANGE
;0.2
G1 Z0.400
G1 X57.807 Y47.592
G1 Z0.200
G1 E3.20000 F1500.000
M204 S800
;TYPE:Skirt
;WIDTH:0.42
G1 F1200.000
G1 X58.710 Y46.848 E0.03669
G1 X62.295 Y44.548 E0.13358
G1 X64.443 Y43.275 E0.07827
G1 X66.819 Y41.991 E0.08469
G1 X69.387 Y40.757 E0.08932
G1 X72.192 Y39.602 E0.09513
G1 X75.095 Y38.630 E0.09597
G1 X78.264 Y37.835 E0.10244
G1 X81.650 Y37.306 E0.10746
G1 X85.119 Y37.120 E0.10893
G1 X88.533 Y37.217 E0.10709
G1 X91.914 Y37.518 E0.10642
G1 X95.037 Y37.991 E0.09904
G1 X97.821 Y38.602 E0.08936
G1 X101.002 Y39.517 E0.10379
G1 X103.903 Y40.605 E0.09713
G1 X106.597 Y41.865 E0.09325
G1 X109.143 Y43.319 E0.09193
G1 X111.565 Y44.987 E0.09221
G1 X113.762 Y46.795 E0.08922
G1 X115.724 Y48.718 E0.08613
G1 X117.380 Y50.633 E0.07938
G1 X118.855 Y52.658 E0.07856
G1 X120.246 Y54.950 E0.08406
G1 X121.398 Y57.286 E0.08167
G1 X122.371 Y59.793 E0.08432
G1 X123.079 Y62.196 E0.07853
G1 X123.594 Y64.673 E0.07933
G1 X123.931 Y67.374 E0.08534
G1 X124.041 Y70.070 E0.08460
G1 X123.965 Y72.286 E0.06954
G1 X120.196 Y119.499 E1.48502
G1 X119.216 Y123.800 E0.13831
G1 X117.727 Y127.502 E0.12513
G1 X115.538 Y131.124 E0.13268
G1 X112.712 Y134.396 E0.13555
G1 X109.319 Y137.189 E0.13783
G1 X105.079 Y139.617 E0.15316
G1 X100.456 Y141.333 E0.15463
G1 X94.776 Y142.507 E0.18186
G1 X88.881 Y142.879 E0.18520
G1 X85.357 Y142.748 E0.11057
G1 X82.053 Y142.398 E0.10417
G1 X78.736 Y141.840 E0.10547
G1 X75.499 Y141.107 E0.10405
G1 X72.369 Y140.218 E0.10202
G1 X69.458 Y139.227 E0.09642
G1 X66.665 Y138.103 E0.09442
G1 X64.149 Y136.919 E0.08717
G1 X61.984 Y135.726 E0.07750
G1 X60.122 Y134.507 E0.06978
G1 X59.258 Y133.753 E0.03596
G1 X58.575 Y132.852 E0.03546
G1 X58.009 Y131.600 E0.04308
G1 X57.783 Y130.477 E0.03589
G1 X56.243 Y70.377 E1.88502
G1 X55.959 Y52.095 E0.57331
G1 X56.059 Y50.966 E0.03552
G1 X56.224 Y50.256 E0.02287
G1 X56.650 Y49.185 E0.03614
G1 X57.072 Y48.476 E0.02584
G1 X57.768 Y47.638 E0.03416
M204 S1250
; printing object Bodacious Elzing-Bigery.stl id:0 copy 0
G1 E-2.24000 F2400.000
;WIPE_START
G1 F7200.000
G1 X58.710 Y46.848 E-0.38921
G1 X60.099 Y45.957 E-0.52279
;WIPE_END
G1 E-0.04800 F2400.000
G1 Z0.400 F9000.000
G1 X74.305 Y82.589
G1 Z0.200
G1 E3.20000 F1500.000
M204 S800
;TYPE:Perimeter
G1 F1200.000
G1 X84.297 Y82.704 E0.31331
G1 X87.553 Y82.617 E0.10215
G1 X90.201 Y82.355 E0.08343
G1 X92.290 Y81.920 E0.06691
G1 X93.872 Y81.321 E0.05303
G1 X95.015 Y80.570 E0.04288
G1 X95.238 Y80.319 E0.01054
G1 X116.399 Y80.319 E0.66348
G1 X116.853 Y81.108 E0.02853
G1 X115.328 Y83.736 E0.09527
G1 X113.208 Y86.390 E0.10652
G1 X110.740 Y88.712 E0.10623
G1 X107.970 Y90.690 E0.10673
G1 X104.942 Y92.314 E0.10773
G1 X101.698 Y93.575 E0.10914
G1 X100.100 Y93.964 E0.05155
G1 X101.698 Y94.602 E0.05393
G1 X104.660 Y96.211 E0.10569
G1 X106.826 Y97.722 E0.08281
G1 X106.458 Y98.893 E0.03848
G1 X74.359 Y98.893 E1.00643
G1 X74.305 Y82.649 E0.50933
M204 S1250
G1 X74.683 Y82.970 F9000.000
M204 S800
;TYPE:External perimeter
G1 F1200.000
G1 X84.299 Y83.081 E0.30153
G1 X87.577 Y82.994 E0.10280
G1 X90.258 Y82.728 E0.08449
G1 X92.396 Y82.283 E0.06847
G1 X94.044 Y81.659 E0.05525
G1 X95.264 Y80.858 E0.04575
G1 X95.408 Y80.696 E0.00680
G1 X116.181 Y80.696 E0.65132
G1 X116.417 Y81.107 E0.01486
G1 X115.016 Y83.522 E0.08756
G1 X112.930 Y86.134 E0.10480
G1 X110.500 Y88.420 E0.10459
G1 X107.770 Y90.369 E0.10517
G1 X104.784 Y91.971 E0.10625
G1 X101.584 Y93.215 E0.10767
M73 P1 R68
G1 X100.121 Y93.579 E0.04727
G1 X99.612 Y93.656 E0.01614
G1 X99.115 Y93.677 E0.01559
G1 X98.677 Y93.764 E0.01400
G1 X98.511 Y93.848 E0.00583
G1 X98.688 Y93.971 E0.00675
G1 X99.122 Y94.113 E0.01433
G1 X99.622 Y94.209 E0.01595
G1 X100.120 Y94.365 E0.01638
G1 X101.536 Y94.943 E0.04794
G1 X104.461 Y96.533 E0.10438
G1 X106.383 Y97.873 E0.07347
G1 X106.181 Y98.516 E0.02112
G1 X74.735 Y98.516 E0.98597
G1 X74.683 Y83.030 E0.48555
M204 S1250
G1 X74.541 Y82.596 F9000.000
G1 E-2.24000 F2400.000
;WIPE_START
G1 F7200.000
G1 X77.563 Y83.045 E-0.91200
;WIPE_END
G1 E-0.04800 F2400.000
G1 Z0.400 F9000.000
G1 X74.361 Y99.319
G1 Z0.200
G1 E3.20000 F1500.000
M204 S800
;TYPE:Perimeter
G1 F1200.000
G1 X108.714 Y99.319 E1.07713
G1 X109.559 Y100.073 E0.03550
G1 X111.491 Y102.293 E0.09230
G1 X113.075 Y104.687 E0.08998
G1 X114.308 Y107.232 E0.08869
G1 X115.187 Y109.912 E0.08844
G1 X115.715 Y112.706 E0.08913
G1 X115.890 Y115.601 E0.09096
G1 X115.646 Y118.893 E0.10349
G1 X62.433 Y118.893 E1.66843
G1 X62.528 Y107.716 E0.35047
G1 X63.345 Y107.274 E0.02912
G1 X65.087 Y108.390 E0.06485
G1 X66.758 Y109.295 E0.05959
G1 X68.719 Y110.221 E0.06800
G1 X70.904 Y111.132 E0.07422
G1 X73.250 Y111.993 E0.07837
G1 X75.696 Y112.770 E0.08046
G1 X78.180 Y113.431 E0.08059
G1 X80.637 Y113.941 E0.07868
G1 X83.004 Y114.269 E0.07494
G1 X85.283 Y114.387 E0.07154
G1 X86.927 Y114.566 E0.05186
G1 X88.334 Y114.651 E0.04419
G1 X89.542 Y114.640 E0.03789
G1 X90.547 Y114.535 E0.03168
G1 X91.351 Y114.337 E0.02596
G1 X91.962 Y114.060 E0.02105
G1 X92.411 Y113.710 E0.01783
G1 X92.740 Y113.271 E0.01719
G1 X92.975 Y112.697 E0.01947
G1 X93.116 Y111.937 E0.02423
G1 X93.228 Y110.038 E0.05965
G1 X93.144 Y108.528 E0.04741
G1 X92.879 Y107.402 E0.03626
G1 X92.464 Y106.606 E0.02816
G1 X91.900 Y106.044 E0.02494
G1 X91.131 Y105.637 E0.02730
G1 X90.103 Y105.359 E0.03340
G1 X88.801 Y105.208 E0.04109
G1 X87.238 Y105.164 E0.04902
G1 X74.381 Y105.464 E0.40324
G1 X74.361 Y99.379 E0.19080
M204 S1250
G1 X74.739 Y99.696 F9000.000
M204 S800
;TYPE:External perimeter
G1 F1200.000
G1 X108.570 Y99.696 E1.06075
G1 X109.290 Y100.338 E0.03024
G1 X111.191 Y102.522 E0.09078
G1 X112.747 Y104.874 E0.08841
G1 X113.957 Y107.374 E0.08711
G1 X114.821 Y110.007 E0.08687
G1 X115.340 Y112.752 E0.08761
G1 X115.512 Y115.599 E0.08941
G1 X115.296 Y118.516 E0.09172
G1 X62.814 Y118.516 E1.64553
G1 X62.904 Y107.942 E0.33157
G1 X63.329 Y107.711 E0.01517
G1 X64.895 Y108.715 E0.05831
G1 X66.588 Y109.631 E0.06036
G1 X68.566 Y110.565 E0.06860
G1 X70.766 Y111.483 E0.07475
G1 X73.128 Y112.350 E0.07889
G1 X75.590 Y113.132 E0.08100
G1 X78.093 Y113.798 E0.08120
G1 X80.572 Y114.313 E0.07940
G1 X82.968 Y114.644 E0.07584
G1 X85.252 Y114.763 E0.07171
G1 X86.895 Y114.942 E0.05181
G1 X88.324 Y115.028 E0.04489
G1 X89.563 Y115.017 E0.03886
G1 X90.612 Y114.907 E0.03306
G1 X91.475 Y114.695 E0.02786
G1 X92.159 Y114.385 E0.02355
G1 X92.682 Y113.976 E0.02082
G1 X93.070 Y113.459 E0.02028
G1 X93.339 Y112.804 E0.02221
G1 X93.491 Y111.982 E0.02618
G1 X93.606 Y110.038 E0.06106
G1 X93.518 Y108.474 E0.04913
G1 X93.235 Y107.270 E0.03878
G1 X92.771 Y106.380 E0.03147
G1 X92.126 Y105.738 E0.02853
G1 X91.270 Y105.284 E0.03039
G1 X90.174 Y104.988 E0.03560
G1 X88.828 Y104.831 E0.04248
G1 X87.239 Y104.787 E0.04984
G1 X74.757 Y105.078 E0.39148
G1 X74.739 Y99.756 E0.16688
M204 S1250
G1 X74.585 Y99.327 F9000.000
G1 E-2.24000 F2400.000
;WIPE_START
G1 F7200.000
G1 X77.619 Y99.751 E-0.91200
;WIPE_END
G1 E-0.04800 F2400.000
G1 Z0.400 F9000.000
G1 X62.429 Y119.319
G1 Z0.200
G1 E3.20000 F1500.000
M204 S800
;TYPE:Perimeter
G1 F1200.000
G1 X115.570 Y119.319 E1.66618
G1 X114.858 Y122.394 E0.09896
G1 X113.549 Y125.602 E0.10865
G1 X111.696 Y128.595 E0.11037
G1 X109.290 Y131.304 E0.11360
G1 X106.326 Y133.661 E0.11872
G1 X102.800 Y135.599 E0.12616
G1 X98.711 Y137.057 E0.13613
G1 X94.053 Y137.974 E0.14885
G1 X88.828 Y138.292 E0.16413
G1 X85.776 Y138.179 E0.09577
G1 X82.719 Y137.856 E0.09636
G1 X79.693 Y137.351 E0.09622
G1 X76.735 Y136.689 E0.09502
G1 X73.888 Y135.893 E0.09269
G1 X71.195 Y134.990 E0.08907
G1 X68.693 Y134.003 E0.08432
G1 X66.423 Y132.956 E0.07837
G1 X64.426 Y131.870 E0.07127
G1 X62.675 Y130.725 E0.06561
G1 X62.424 Y130.401 E0.01286
G1 X62.347 Y130.057 E0.01105
G1 X62.429 Y119.379 E0.33481
M204 S1250
G1 X62.803 Y119.696 F9000.000
M204 S800
;TYPE:External perimeter
G1 F1200.000
G1 X115.095 Y119.696 E1.63958
M73 P1 R67
G1 X114.498 Y122.279 E0.08314
G1 X113.212 Y125.431 E0.10671
G1 X111.392 Y128.369 E0.10836
G1 X109.029 Y131.029 E0.11156
G1 X106.116 Y133.346 E0.11670
G1 X102.645 Y135.254 E0.12421
G1 X98.611 Y136.692 E0.13430
G1 X94.005 Y137.600 E0.14719
G1 X88.823 Y137.914 E0.16276
G1 X85.802 Y137.802 E0.09479
G1 X82.770 Y137.482 E0.09560
G1 X79.765 Y136.981 E0.09553
G1 X76.827 Y136.323 E0.09438
G1 X73.999 Y135.532 E0.09208
G1 X71.324 Y134.635 E0.08846
G1 X68.841 Y133.656 E0.08368
G1 X66.593 Y132.619 E0.07765
G1 X64.620 Y131.546 E0.07040
G1 X62.934 Y130.444 E0.06315
G1 X62.773 Y130.236 E0.00824
G1 X62.724 Y130.017 E0.00705
G1 X62.803 Y119.756 E0.32173
M204 S1250
G1 X62.804 Y119.296 F9000.000
G1 E-2.24000 F2400.000
;WIPE_START
G1 F7200.000
G1 X65.683 Y119.753 E-0.91200
;WIPE_END
G1 E-0.04800 F2400.000
G1 Z0.400 F9000.000
G1 X60.851 Y71.536
G1 Z0.200
G1 E3.20000 F1500.000
M204 S800
;TYPE:Perimeter
G1 F1200.000
G1 X60.696 Y61.319 E0.32039
G1 X118.009 Y61.319 E1.79702
G1 X119.066 Y65.612 E0.13863
G1 X119.419 Y70.082 E0.14059
G1 X119.142 Y73.920 E0.12065
G1 X118.340 Y77.486 E0.11458
G1 X117.395 Y79.893 E0.08110
G1 X95.705 Y79.893 E0.68005
M73 P2 R67
G1 X96.373 Y78.551 E0.04701
G1 X96.725 Y77.181 E0.04434
G1 X96.907 Y75.534 E0.05197
G1 X96.957 Y73.613 E0.06024
G1 X96.903 Y71.524 E0.06550
G1 X96.712 Y69.752 E0.05591
G1 X96.350 Y68.295 E0.04707
G1 X95.794 Y67.134 E0.04034
G1 X95.005 Y66.218 E0.03791
G1 X93.902 Y65.487 E0.04147
G1 X92.390 Y64.926 E0.05058
G1 X90.401 Y64.545 E0.06350
G1 X87.888 Y64.352 E0.07902
G1 X84.822 Y64.345 E0.09615
G1 X82.240 Y64.517 E0.08114
G1 X79.563 Y64.889 E0.08473
G1 X76.848 Y65.425 E0.08678
G1 X74.156 Y66.094 E0.08696
G1 X71.552 Y66.858 E0.08510
G1 X69.096 Y67.683 E0.08122
G1 X66.853 Y68.532 E0.07520
G1 X64.887 Y69.371 E0.06703
G1 X63.260 Y70.159 E0.05667
G1 X60.903 Y71.506 E0.08513
M204 S1250
G1 X61.218 Y70.892 F9000.000
M204 S800
;TYPE:External perimeter
G1 F1200.000
G1 X61.079 Y61.696 E0.28836
G1 X117.714 Y61.696 E1.77575
G1 X118.693 Y65.672 E0.12840
G1 X119.041 Y70.084 E0.13874
G1 X118.768 Y73.865 E0.11887
G1 X117.979 Y77.375 E0.11279
G1 X117.138 Y79.516 E0.07213
G1 X96.314 Y79.516 E0.65291
G1 X96.728 Y78.683 E0.02917
G1 X97.097 Y77.249 E0.04642
G1 X97.283 Y75.559 E0.05331
G1 X97.334 Y73.613 E0.06104
G1 X97.279 Y71.499 E0.06629
G1 X97.084 Y69.686 E0.05720
G1 X96.707 Y68.166 E0.04908
G1 X96.112 Y66.926 E0.04312
G1 X95.257 Y65.932 E0.04112
G1 X94.074 Y65.149 E0.04447
G1 X92.492 Y64.561 E0.05293
G1 X90.451 Y64.171 E0.06515
G1 X87.903 Y63.975 E0.08012
G1 X84.810 Y63.968 E0.09700
G1 X82.201 Y64.142 E0.08197
G1 X79.500 Y64.517 E0.08549
G1 X76.766 Y65.057 E0.08741
G1 X74.058 Y65.730 E0.08749
G1 X71.439 Y66.498 E0.08558
G1 X68.969 Y67.328 E0.08167
G1 X66.713 Y68.182 E0.07566
G1 X64.730 Y69.027 E0.06756
G1 X63.084 Y69.825 E0.05736
G1 X61.270 Y70.862 E0.06551
M204 S1250
G1 X60.824 Y70.960 F9000.000
G1 E-2.24000 F2400.000
;WIPE_START
G1 F7200.000
G1 X61.210 Y67.983 E-0.91200
;WIPE_END
G1 E-0.04800 F2400.000
G1 Z0.400 F9000.000
G1 X117.825 Y60.893
G1 Z0.200
G1 E3.20000 F1500.000
M204 S800
;TYPE:Perimeter
G1 F1200.000
G1 X60.690 Y60.893 E1.79143
G1 X60.542 Y51.139 E0.30588
G1 X64.148 Y48.817 E0.13446
G1 X66.132 Y47.623 E0.07260
G1 X68.329 Y46.407 E0.07875
G1 X70.727 Y45.221 E0.08386
G1 X73.306 Y44.122 E0.08790
G1 X76.051 Y43.168 E0.09112
G1 X78.946 Y42.415 E0.09379
G1 X81.974 Y41.921 E0.09620
G1 X85.115 Y41.743 E0.09864
G1 X91.508 Y42.123 E0.20082
G1 X97.269 Y43.222 E0.18388
G1 X102.390 Y44.978 E0.16974
G1 X106.860 Y47.326 E0.15830
G1 X110.668 Y50.203 E0.14967
G1 X113.803 Y53.542 E0.14358
G1 X116.253 Y57.269 E0.13985
G1 X117.801 Y60.838 E0.12197
M204 S1250
G1 X117.250 Y60.516 F9000.000
M204 S800
;TYPE:External perimeter
G1 F1200.000
G1 X61.061 Y60.516 E1.76177
G1 X60.922 Y51.342 E0.28767
G1 X64.347 Y49.138 E0.12772
G1 X66.320 Y47.950 E0.07221
G1 X68.504 Y46.741 E0.07827
G1 X70.884 Y45.563 E0.08325
G1 X73.442 Y44.474 E0.08716
G1 X76.160 Y43.529 E0.09024
G1 X79.024 Y42.784 E0.09276
G1 X82.015 Y42.296 E0.09503
G1 X85.114 Y42.120 E0.09733
G1 X91.461 Y42.498 E0.19937
G1 X97.172 Y43.588 E0.18228
G1 X102.240 Y45.325 E0.16799
G1 X106.657 Y47.646 E0.15643
G1 X110.415 Y50.485 E0.14769
G1 X113.506 Y53.776 E0.14155
G1 X115.920 Y57.449 E0.13781
G1 X117.226 Y60.461 E0.10293
M204 S1250
G1 X117.317 Y60.910 F9000.000
G1 E-2.24000 F2400.000
;WIPE_START
G1 F7200.000
G1 X114.346 Y60.464 E-0.91200
;WIPE_END
G1 E-0.04800 F2400.000
G1 Z0.400 F9000.000
G1 X91.282 Y112.746
G1 Z0.200
G1 E3.20000 F1500.000
M204 S800
;TYPE:Perimeter
G1 F1200.000
G1 X91.450 Y112.531 E0.00856
G1 X91.559 Y112.272 E0.00882
G1 X91.646 Y111.819 E0.01445
G1 X91.722 Y110.905 E0.02877
G1 X91.755 Y110.144 E0.02388
G1 X91.751 Y109.503 E0.02010
G1 X91.720 Y108.967 E0.01682
G1 X91.662 Y108.515 E0.01430
G1 X91.507 Y107.877 E0.02058
G1 X91.316 Y107.482 E0.01376
G1 X91.167 Y107.296 E0.00747
G1 X90.861 Y107.080 E0.01174
G1 X90.388 Y106.895 E0.01593
G1 X89.692 Y106.743 E0.02234
G1 X89.208 Y106.679 E0.01530
G1 X87.987 Y106.599 E0.03835
G1 X87.198 Y106.588 E0.02474
G1 X86.043 Y106.600 E0.03623
G1 X75.403 Y106.867 E0.33371
G1 X74.806 Y106.845 E0.01871
G1 X74.465 Y106.768 E0.01097
G1 X74.141 Y106.638 E0.01095
G1 X73.845 Y106.461 E0.01081
G1 X73.582 Y106.241 E0.01076
G1 X73.356 Y105.984 E0.01072
G1 X73.174 Y105.693 E0.01077
G1 X73.036 Y105.373 E0.01093
G1 X72.951 Y105.028 E0.01113
G1 X72.918 Y104.626 E0.01265
G1 X72.848 Y84.222 E0.63977
G1 X72.883 Y83.692 E0.01665
G1 X72.992 Y83.226 E0.01501
G1 X73.171 Y82.792 E0.01470
G1 X73.415 Y82.396 E0.01459
G1 X73.717 Y82.043 E0.01456
G1 X74.069 Y81.741 E0.01456
G1 X74.466 Y81.497 E0.01460
G1 X74.901 Y81.318 E0.01475
G1 X75.365 Y81.208 E0.01497
G1 X75.893 Y81.173 E0.01658
G1 X84.269 Y81.244 E0.26262
G1 X85.730 Y81.228 E0.04582
G1 X87.077 Y81.180 E0.04228
G1 X88.313 Y81.098 E0.03883
G1 X89.438 Y80.984 E0.03545
G1 X90.457 Y80.836 E0.03229
G1 X91.371 Y80.651 E0.02924
G1 X92.184 Y80.429 E0.02642
G1 X92.903 Y80.164 E0.02401
G1 X93.530 Y79.847 E0.02204
G1 X94.059 Y79.470 E0.02037
G1 X94.390 Y79.132 E0.01483
G1 X94.667 Y78.743 E0.01496
G1 X94.892 Y78.304 E0.01547
G1 X95.073 Y77.819 E0.01623
G1 X95.214 Y77.281 E0.01745
G1 X95.323 Y76.686 E0.01898
G1 X95.402 Y76.026 E0.02083
G1 X95.456 Y75.293 E0.02304
G1 X95.488 Y74.476 E0.02563
G1 X95.488 Y72.637 E0.05767
G1 X95.457 Y71.778 E0.02693
G1 X95.405 Y71.005 E0.02430
G1 X95.329 Y70.307 E0.02202
G1 X95.227 Y69.677 E0.01999
G1 X95.096 Y69.110 E0.01827
G1 X94.931 Y68.600 E0.01680
G1 X94.727 Y68.139 E0.01580
G1 X94.475 Y67.729 E0.01508
G1 X94.171 Y67.369 E0.01478
G1 X93.741 Y67.019 E0.01738
G1 X93.228 Y66.726 E0.01852
G1 X92.643 Y66.482 E0.01988
G1 X91.983 Y66.279 E0.02166
G1 X91.246 Y66.111 E0.02370
G1 X90.430 Y65.974 E0.02594
G1 X89.532 Y65.869 E0.02834
G1 X88.553 Y65.794 E0.03079
G1 X87.491 Y65.749 E0.03332
G1 X86.204 Y65.736 E0.04037
G1 X84.832 Y65.770 E0.04304
G1 X82.379 Y65.943 E0.07708
