; generated by PrusaSlicer 2.3.3+win64 on 2022-05-23 at 08:34:01 UTC


;
;

;
;
; 

; external perimeters extrusion width = 0.45mm
; perimeters extrusion width = 0.45mm
; infill extrusion width = 0.45mm
; solid infill extrusion width = 0.45mm
; top infill extrusion width = 0.40mm
; first layer extrusion width = 0.42mm

M73 P0 R132
M201 X1250 Y1250 Z400 E5000 ; sets maximum accelerations, mm/sec^2
M203 X180 Y180 Z12 E80 ; sets maximum feedrates, mm/sec
M204 P1250 R1250 T1250 ; sets acceleration (P, T) and retract acceleration (R), mm/sec^2
M205 X8.00 Y8.00 Z2.00 E10.00 ; sets the jerk limits, mm/sec
M205 S0 T0 ; sets the minimum extruding and travel feed rate, mm/sec
M107
;TYPE:Custom
G90 ; use absolute coordinates
M83 ; extruder relative mode
M104 S170 ; set extruder temp for bed leveling
M140 S85 ; set bed temp
M109 R170 ; wait for bed leveling temp
M190 S85 ; wait for bed temp
G28 ; home all without mesh bed level
G29 ; mesh bed leveling 
M104 S230 ; set extruder temp
G92 E0.0
G1 Y-2.0 X179 F2400
G1 Z3 F720
M109 S230 ; wait for extruder temp

; intro line
G1 X170 F1000
G1 Z0.2 F720
G1 X110.0 E8.0 F900
G1 X40.0 E10.0 F700
G92 E0.0

M221 S95 ; set flow
G21 ; set units to millimeters
G90 ; use absolute coordinates
M83 ; use relative distances for extrusion
M900 K0.2 ; Filament gcode
;LAYER_CHANGE
;Z:0.2
;HEIGHT:0.2
;BEFORE_LAYER_CHANGE
G92 E0.0
;0.2


G1 E-3.20000 F2400.000
G1 Z0.200 F9000.000
;AFTER_LAYER_CHANGE
;0.2
G1 Z0.400
G1 X42.160 Y25.734
G1 Z0.200
G1 E3.20000 F1500.000
M204 S800
;TYPE:Skirt
;WIDTH:0.42
G1 F1200.000
G1 X44.451 Y24.496 E0.08165
G1 X45.909 Y24.068 E0.04764
G1 X47.687 Y23.888 E0.05605
G1 X62.181 Y24.206 E0.45455
G1 X63.770 Y24.353 E0.05002
G1 X108.099 Y36.723 E1.44302
G1 X109.399 Y37.252 E0.04399
G1 X140.481 Y52.860 E1.09052
G1 X141.537 Y53.519 E0.03905
G1 X142.540 Y54.499 E0.04397
G1 X143.166 Y55.414 E0.03475
G1 X143.602 Y56.403 E0.03389
G1 X143.926 Y57.936 E0.04911
G1 X147.060 Y141.898 E2.63443
M73 P0 R131
G1 X146.829 Y146.067 E0.13090
G1 X146.244 Y149.929 E0.12249
G1 X145.630 Y153.083 E0.10072
G1 X145.301 Y153.720 E0.02249
G1 X144.797 Y154.230 E0.02249
G1 X144.139 Y154.576 E0.02331
G1 X143.406 Y154.701 E0.02331
G1 X97.245 Y155.018 E1.44737
G1 X94.745 Y154.869 E0.07854
G1 X41.733 Y150.627 E1.66746
G1 X40.825 Y150.484 E0.02882
G1 X39.349 Y150.100 E0.04781
G1 X37.784 Y149.435 E0.05331
G1 X36.326 Y148.490 E0.05449
G1 X35.542 Y147.798 E0.03279
G1 X35.055 Y147.238 E0.02328
G1 X34.426 Y146.219 E0.03753
G1 X34.033 Y145.154 E0.03559
G1 X32.522 Y135.558 E0.30460
G1 X38.962 Y38.732 E3.04260
G1 X39.710 Y30.151 E0.27007
G1 X39.950 Y28.877 E0.04065
G1 X40.468 Y27.674 E0.04109
G1 X41.230 Y26.603 E0.04120
G1 X42.116 Y25.775 E0.03802
M204 S1250
; printing object aerostato_sf2.stl id:5 copy 0
G1 E-2.24000 F2400.000
;WIPE_START
G1 F7200.000
G1 X44.451 Y24.496 E-0.84308
G1 X44.660 Y24.435 E-0.06892
;WIPE_END
G1 E-0.04800 F2400.000
G1 Z0.400 F9000.000
G1 X44.830 Y35.476
G1 Z0.200
G1 E3.20000 F1500.000
M204 S800
;TYPE:Perimeter
G1 F1200.000
G1 X48.394 Y35.487 E0.11177
G1 X48.923 Y35.542 E0.01666
G1 X49.678 Y35.719 E0.02431
G1 X50.569 Y35.536 E0.02851
G1 X51.114 Y35.487 E0.01717
G1 X58.996 Y35.489 E0.24714
G1 X59.562 Y35.553 E0.01787
G1 X60.275 Y35.748 E0.02316
G1 X60.991 Y35.553 E0.02329
G1 X61.557 Y35.489 E0.01785
G1 X65.718 Y35.478 E0.13045
G1 X66.016 Y37.608 E0.06743
G1 X66.567 Y37.952 E0.02037
G1 X65.879 Y39.315 E0.04787
G1 X64.339 Y38.706 E0.05193
G1 X63.197 Y38.663 E0.03583
G1 X62.483 Y38.888 E0.02347
G1 X62.100 Y38.983 E0.01237
G1 X61.842 Y39.105 E0.00894
G1 X61.541 Y39.206 E0.00996
G1 X61.211 Y39.438 E0.01264
G1 X60.983 Y39.706 E0.01103
G1 X60.847 Y40.013 E0.01053
G1 X60.672 Y40.303 E0.01062
G1 X60.515 Y40.650 E0.01193
G1 X60.179 Y41.292 E0.02273
G1 X59.951 Y42.136 E0.02741
G1 X59.985 Y43.444 E0.04103
G1 X58.788 Y43.826 E0.03939
G1 X57.485 Y41.882 E0.07338
G1 X56.560 Y40.772 E0.04530
G1 X55.715 Y39.995 E0.03599
G1 X54.964 Y39.509 E0.02807
G1 X54.308 Y39.260 E0.02200
G1 X53.735 Y39.190 E0.01808
G1 X53.218 Y39.258 E0.01636
G1 X52.757 Y39.431 E0.01544
G1 X51.822 Y40.110 E0.03623
G1 X51.100 Y40.960 E0.03496
G1 X50.065 Y42.772 E0.06544
G1 X49.038 Y42.660 E0.03240
G1 X48.386 Y40.538 E0.06960
G1 X48.303 Y40.120 E0.01338
G1 X48.073 Y39.309 E0.02642
G1 X47.546 Y38.863 E0.02164
G1 X47.108 Y38.403 E0.01992
G1 X46.612 Y38.116 E0.01796
G1 X46.204 Y38.044 E0.01299
G1 X45.866 Y38.089 E0.01070
G1 X45.280 Y38.348 E0.02010
G1 X44.495 Y37.202 E0.04353
G1 X44.778 Y36.919 E0.01255
G1 X44.827 Y35.536 E0.04340
M204 S1250
G1 E-2.24000 F2400.000
;WIPE_START
G1 F7200.000
G1 X47.707 Y35.497 E-0.91200
;WIPE_END
G1 E-0.04800 F2400.000
G1 Z0.400 F9000.000
G1 X60.125 Y36.098
G1 Z0.200
G1 E3.20000 F1500.000
M204 S800
;TYPE:External perimeter
G1 F1200.000
G1 X60.566 Y38.838 E0.08700
G1 X60.589 Y38.856 E0.00092
G1 X60.713 Y38.814 E0.00410
G1 X60.859 Y38.375 E0.01452
G1 X60.363 Y36.115 E0.07255
G1 X61.062 Y35.924 E0.02274
G1 X61.580 Y35.866 E0.01634
G1 X65.390 Y35.855 E0.11944
G1 X65.667 Y37.834 E0.06266
G1 X66.075 Y38.089 E0.01509
G1 X65.697 Y38.837 E0.02628
G1 X64.417 Y38.331 E0.04316
G1 X63.146 Y38.284 E0.03990
G1 X62.380 Y38.525 E0.02516
G1 X61.973 Y38.627 E0.01318
G1 X61.701 Y38.754 E0.00941
G1 X61.368 Y38.866 E0.01100
G1 X60.974 Y39.135 E0.01497
G1 X60.660 Y39.503 E0.01516
G1 X60.512 Y39.839 E0.01152
G1 X60.338 Y40.128 E0.01057
G1 X60.176 Y40.485 E0.01229
G1 X59.826 Y41.154 E0.02368
G1 X59.572 Y42.091 E0.03044
G1 X59.601 Y43.171 E0.03388
G1 X58.944 Y43.381 E0.02162
G1 X57.787 Y41.656 E0.06511
G1 X56.834 Y40.511 E0.04670
G1 X55.947 Y39.695 E0.03779
G1 X55.135 Y39.171 E0.03032
G1 X54.399 Y38.891 E0.02469
G1 X53.734 Y38.810 E0.02101
G1 X53.126 Y38.889 E0.01922
G1 X52.577 Y39.096 E0.01840
G1 X51.563 Y39.831 E0.03925
G1 X50.790 Y40.742 E0.03748
G1 X49.860 Y42.370 E0.05879
G1 X49.325 Y42.312 E0.01687
G1 X48.752 Y40.446 E0.06121
G1 X48.670 Y40.031 E0.01325
G1 X48.492 Y39.404 E0.02044
G1 X48.776 Y39.285 E0.00966
G1 X48.924 Y39.117 E0.00702
G1 X49.065 Y38.903 E0.00805
G1 X49.413 Y38.028 E0.02951
G1 X49.688 Y37.129 E0.02948
G1 X49.963 Y36.045 E0.03506
G1 X50.624 Y35.910 E0.02114
G1 X51.133 Y35.864 E0.01602
G1 X58.974 Y35.866 E0.24587
G1 X59.491 Y35.924 E0.01630
G1 X60.068 Y36.082 E0.01875
M204 S1250
G1 X60.525 Y36.082 F9000.000
G1 E-2.24000 F2400.000
;WIPE_START
G1 F7200.000
G1 X60.566 Y38.838 E-0.88673
G1 X60.589 Y38.856 E-0.00933
G1 X60.637 Y38.840 E-0.01594
;WIPE_END
G1 E-0.04800 F2400.000
G1 Z0.400 F9000.000
G1 X49.580 Y36.083
G1 Z0.200
G1 E3.20000 F1500.000
M204 S800
G1 F1200.000
G1 X49.373 Y36.871 E0.02554
G1 X49.112 Y37.676 E0.02654
G1 X48.969 Y38.078 E0.01338
G1 X48.580 Y39.002 E0.03142
G1 X48.312 Y39.017 E0.00841
G1 X47.809 Y38.592 E0.02065
G1 X47.344 Y38.103 E0.02115
G1 X46.743 Y37.756 E0.02176
G1 X46.212 Y37.663 E0.01691
G1 X45.763 Y37.723 E0.01421
G1 X45.414 Y37.877 E0.01196
G1 X44.983 Y37.248 E0.02390
G1 X45.150 Y37.081 E0.00739
G1 X45.193 Y35.854 E0.03849
G1 X48.374 Y35.864 E0.09973
G1 X48.860 Y35.915 E0.01532
G1 X49.522 Y36.069 E0.02130
M204 S1250
G1 X49.969 Y36.175 F9000.000
G1 E-2.24000 F2400.000
;WIPE_START
G1 F7200.000
G1 X49.373 Y36.871 E-0.25815
G1 X49.112 Y37.676 E-0.26805
G1 X48.969 Y38.078 E-0.13510
G1 X48.662 Y38.808 E-0.25070
;WIPE_END
G1 E-0.04800 F2400.000
G1 Z0.400 F9000.000
G1 X65.235 Y30.117
G1 Z0.200
G1 E3.20000 F1500.000
M204 S800
;TYPE:Perimeter
G1 F1200.000
G1 X65.055 Y30.750 E0.02063
G1 X65.658 Y35.054 E0.13626
G1 X61.051 Y35.041 E0.14445
G1 X60.511 Y34.976 E0.01706
G1 X59.897 Y34.796 E0.02006
G1 X59.255 Y34.976 E0.02090
G1 X58.699 Y35.041 E0.01756
G1 X51.474 Y35.041 E0.22653
G1 X50.921 Y34.976 E0.01747
G1 X50.186 Y34.771 E0.02392
G1 X49.476 Y34.976 E0.02317
G1 X48.932 Y35.041 E0.01717
G1 X44.845 Y35.054 E0.12817
G1 X45.029 Y29.860 E0.16297
G1 X46.385 Y29.149 E0.04801
G1 X47.923 Y28.932 E0.04870
G1 X48.867 Y29.132 E0.03026
G1 X49.778 Y29.605 E0.03218
G1 X50.227 Y30.029 E0.01937
G1 X50.650 Y30.510 E0.02007
G1 X50.827 Y31.010 E0.01662
G1 X50.940 Y31.170 E0.00615
G1 X51.227 Y30.916 E0.01201
G1 X51.656 Y30.610 E0.01652
G1 X52.092 Y30.357 E0.01582
G1 X53.394 Y29.669 E0.04617
G1 X54.667 Y29.256 E0.04196
G1 X55.844 Y29.122 E0.03713
G1 X56.960 Y29.292 E0.03540
G1 X58.004 Y29.757 E0.03583
G1 X58.679 Y30.259 E0.02638
G1 X59.027 Y30.585 E0.01494
G1 X59.321 Y31.028 E0.01669
G1 X59.437 Y30.644 E0.01259
G1 X59.834 Y30.171 E0.01936
G1 X60.268 Y29.746 E0.01905
G1 X61.195 Y29.313 E0.03207
G1 X62.153 Y29.176 E0.03034
G1 X63.726 Y29.454 E0.05009
G1 X65.180 Y30.093 E0.04979
M204 S1250
G1 X64.782 Y30.330 F9000.000
M204 S800
;TYPE:External perimeter
G1 F1200.000
G1 X64.671 Y30.724 E0.01282
G1 X65.224 Y34.676 E0.12512
G1 X61.074 Y34.664 E0.13012
G1 X60.587 Y34.605 E0.01540
G1 X59.993 Y34.432 E0.01941
G1 X59.487 Y32.131 E0.07385
G1 X59.855 Y34.417 E0.07258
G1 X59.182 Y34.605 E0.02192
G1 X58.676 Y34.664 E0.01595
G1 X52.464 Y34.675 E0.19479
G1 X51.498 Y34.664 E0.03029
G1 X50.994 Y34.605 E0.01592
G1 X50.320 Y34.416 E0.02195
G1 X50.537 Y33.100 E0.04182
G1 X50.554 Y32.308 E0.02487
G1 X49.994 Y34.434 E0.06894
G1 X49.401 Y34.605 E0.01936
G1 X48.909 Y34.664 E0.01552
G1 X45.235 Y34.676 E0.11519
G1 X45.398 Y30.092 E0.14381
G1 X46.502 Y29.513 E0.03909
G1 X47.910 Y29.315 E0.04457
G1 X48.739 Y29.490 E0.02657
G1 X49.558 Y29.915 E0.02891
G1 X49.955 Y30.291 E0.01717
G1 X50.319 Y30.705 E0.01726
G1 X50.489 Y31.184 E0.01596
G1 X50.830 Y31.668 E0.01856
G1 X51.115 Y31.519 E0.01009
G1 X51.462 Y31.212 E0.01454
G1 X51.861 Y30.927 E0.01535
G1 X52.275 Y30.687 E0.01502
G1 X53.542 Y30.018 E0.04492
G1 X54.747 Y29.626 E0.03975
G1 X55.837 Y29.502 E0.03437
G1 X56.853 Y29.657 E0.03224
G1 X57.812 Y30.084 E0.03293
G1 X58.437 Y30.549 E0.02441
G1 X58.736 Y30.829 E0.01286
G1 X59.021 Y31.263 E0.01627
G1 X59.409 Y31.644 E0.01704
G1 X59.641 Y31.274 E0.01370
G1 X59.775 Y30.827 E0.01462
G1 X60.111 Y30.428 E0.01636
G1 X60.486 Y30.060 E0.01646
G1 X61.304 Y29.679 E0.02830
G1 X62.147 Y29.558 E0.02670
G1 X63.616 Y29.818 E0.04678
G1 X64.727 Y30.306 E0.03807
M204 S1250
G1 X65.167 Y30.440 F9000.000
G1 E-2.24000 F2400.000
;WIPE_START
G1 F7200.000
G1 X64.671 Y30.724 E-0.13345
G1 X65.012 Y33.158 E-0.77855
;WIPE_END
G1 E-0.04800 F2400.000
G1 Z0.400 F9000.000
G1 X51.355 Y28.526
G1 Z0.200
G1 E3.20000 F1500.000
M204 S800
;TYPE:Perimeter
G1 F1200.000
G1 X53.815 Y27.569 E0.08278
G1 X54.750 Y27.370 E0.02997
G1 X55.669 Y27.303 E0.02889
G1 X57.282 Y27.520 E0.05105
G1 X59.044 Y28.245 E0.05973
G1 X60.717 Y27.556 E0.05672
G1 X62.132 Y27.373 E0.04475
G1 X63.153 Y27.457 E0.03213
G1 X64.085 Y27.678 E0.03002
G1 X65.696 Y28.340 E0.05462
G1 X66.248 Y28.702 E0.02069
G1 X66.695 Y29.169 E0.02027
G1 X67.028 Y29.730 E0.02045
G1 X67.240 Y30.408 E0.02228
G1 X68.712 Y38.118 E0.24611
G1 X68.931 Y39.404 E0.04091
G1 X67.291 Y41.318 E0.07903
G1 X65.284 Y41.318 E0.06293
G1 X64.597 Y40.930 E0.02471
G1 X63.500 Y40.526 E0.03667
G1 X62.410 Y41.224 E0.04059
G1 X61.806 Y42.274 E0.03800
G1 X61.870 Y43.168 E0.02811
G1 X61.792 Y43.717 E0.01738
G1 X61.598 Y44.234 E0.01730
G1 X61.262 Y44.750 E0.01932
G1 X60.462 Y45.763 E0.04045
G1 X57.614 Y45.763 E0.08932
G1 X56.805 Y44.454 E0.04825
G1 X55.223 Y42.270 E0.08455
G1 X53.709 Y40.961 E0.06274
G1 X52.644 Y42.186 E0.05089
G1 X52.137 Y43.045 E0.03126
G1 X51.242 Y44.975 E0.06673
G1 X47.404 Y44.372 E0.12180
G1 X46.961 Y42.598 E0.05733
G1 X46.288 Y40.436 E0.07101
G1 X45.010 Y40.436 E0.04009
G1 X44.402 Y40.371 E0.01915
G1 X43.865 Y40.196 E0.01772
G1 X43.373 Y39.912 E0.01781
G1 X42.917 Y39.504 E0.01919
G1 X42.147 Y38.628 E0.03656
G1 X42.856 Y30.496 E0.25593
G1 X42.981 Y29.805 E0.02205
G1 X43.236 Y29.217 E0.02007
G1 X43.615 Y28.688 E0.02040
G1 X44.089 Y28.250 E0.02024
G1 X45.510 Y27.480 E0.05069
G1 X46.501 Y27.180 E0.03246
G1 X47.686 Y27.060 E0.03735
G1 X49.216 Y27.281 E0.04847
G1 X50.059 Y27.629 E0.02860
G1 X51.305 Y28.492 E0.04752
M204 S1250
G1 X51.405 Y28.102 F9000.000
M204 S800
;TYPE:External perimeter
G1 F1200.000
G1 X53.707 Y27.206 E0.07745
G1 X54.697 Y26.996 E0.03174
G1 X55.680 Y26.924 E0.03092
G1 X57.381 Y27.153 E0.05380
G1 X59.044 Y27.837 E0.05639
G1 X60.619 Y27.189 E0.05341
G1 X62.123 Y26.994 E0.04756
G1 X63.213 Y27.084 E0.03426
G1 X64.201 Y27.317 E0.03184
G1 X65.873 Y28.005 E0.05668
G1 X66.491 Y28.410 E0.02317
G1 X66.997 Y28.940 E0.02297
G1 X67.375 Y29.575 E0.02318
G1 X67.607 Y30.316 E0.02434
G1 X69.083 Y38.051 E0.24690
G1 X69.332 Y39.515 E0.04657
G1 X67.464 Y41.695 E0.09001
G1 X65.185 Y41.695 E0.07148
G1 X64.439 Y41.274 E0.02686
G1 X63.545 Y40.945 E0.02984
G1 X62.690 Y41.492 E0.03182
G1 X62.190 Y42.362 E0.03149
G1 X62.249 Y43.182 E0.02575
G1 X62.159 Y43.811 E0.01993
G1 X61.937 Y44.405 E0.01989
G1 X61.568 Y44.971 E0.02116
G1 X60.645 Y46.140 E0.04672
G1 X57.404 Y46.140 E0.10164
G1 X56.492 Y44.664 E0.05441
G1 X54.943 Y42.527 E0.08274
G1 X53.747 Y41.492 E0.04958
G1 X52.951 Y42.407 E0.03802
G1 X52.471 Y43.220 E0.02959
G1 X51.464 Y45.392 E0.07507
G1 X47.099 Y44.706 E0.13855
G1 X46.598 Y42.700 E0.06482
G1 X46.011 Y40.813 E0.06197
G1 X44.990 Y40.813 E0.03201
G1 X44.323 Y40.742 E0.02102
G1 X43.711 Y40.542 E0.02019
G1 X43.151 Y40.219 E0.02028
G1 X42.649 Y39.770 E0.02112
G1 X41.758 Y38.756 E0.04232
G1 X42.482 Y30.446 E0.26153
G1 X42.618 Y29.695 E0.02396
G1 X42.906 Y29.030 E0.02270
G1 X43.331 Y28.438 E0.02287
G1 X43.867 Y27.941 E0.02293
G1 X45.364 Y27.130 E0.05338
G1 X46.427 Y26.809 E0.03481
G1 X47.694 Y26.681 E0.03994
G1 X49.317 Y26.914 E0.05139
G1 X50.241 Y27.296 E0.03134
G1 X51.355 Y28.068 E0.04251
M204 S1250
G1 X51.630 Y28.432 F9000.000
G1 E-2.24000 F2400.000
;WIPE_START
G1 F7200.000
G1 X53.707 Y27.206 E-0.79303
G1 X54.074 Y27.128 E-0.11897
;WIPE_END
G1 E-0.04800 F2400.000
G1 Z0.400 F9000.000
G1 X51.100 Y35.243
G1 Z0.200
G1 E3.20000 F1500.000
M204 S800
;TYPE:Gap fill
;WIDTH:0.200292
G1 F1200.000
G1 X50.514 Y35.207 E0.00768
M204 S1250
G1 X51.100 Y35.243 F9000.000
M204 S800
;WIDTH:0.0955601
G1 F1200.000
G1 X51.461 Y35.262 E0.00159
G1 X52.373 Y35.265 E0.00399
M204 S1250
G1 X52.770 Y35.265 F9000.000
M204 S800
;WIDTH:0.113205
G1 F1200.000
G1 X58.714 Y35.265 E0.03474
M204 S1250
M204 S800
;WIDTH:0.148726
G1 X59.013 Y35.248 E0.00263
M204 S1250
M204 S800
;WIDTH:0.181729
G1 X59.157 Y35.247 E0.00167
M204 S1250
M204 S800
;WIDTH:0.218976
G1 X59.315 Y35.247 E0.00231
M204 S1250
M204 S800
;WIDTH:0.249113
G1 X59.452 Y35.236 E0.00236
M204 S1250
M204 S800
;WIDTH:0.279252
G1 X59.590 Y35.225 E0.00271
M204 S1250
G1 X60.566 Y35.321 F9000.000
M204 S800
;WIDTH:0.290141
G1 F1200.000
G1 X60.751 Y35.307 E0.00382
M204 S1250
M204 S800
;WIDTH:0.191668
G1 X61.032 Y35.294 E0.00348
M204 S1250
M204 S800
;WIDTH:0.0983647
G1 X61.545 Y35.266 E0.00237
G1 X64.416 Y35.264 E0.01324
M204 S1250
G1 E-2.24000 F2400.000
;WIPE_START
G1 F7200.000
G1 X61.545 Y35.266 E-0.90928
G1 X61.536 Y35.266 E-0.00272
;WIPE_END
G1 E-0.04800 F2400.000
G1 Z0.400 F9000.000
G1 X65.546 Y28.401
G1 Z0.200
G1 E3.20000 F1500.000
M204 S800
;TYPE:Solid infill
;WIDTH:0.421013
G1 F1200.000
G1 X66.468 Y29.341 E0.04141
G1 X66.768 Y29.846 E0.01845
G1 X66.910 Y30.299 E0.01494
G1 X64.949 Y28.339 E0.08717
G1 X64.041 Y27.965 E0.03088
G1 X67.063 Y30.987 E0.13435
G1 X67.189 Y31.648 E0.02115
G1 X63.331 Y27.790 E0.17152
G1 X63.109 Y27.738 E0.00718
G1 X62.711 Y27.705 E0.01255
G1 X64.485 Y29.479 E0.07889
G1 X63.809 Y29.182 E0.02324
G1 X63.620 Y29.148 E0.00602
G1 X62.130 Y27.659 E0.06624
G1 X61.657 Y27.720 E0.01501
G1 X62.970 Y29.033 E0.05841
G1 X62.321 Y28.918 E0.02074
G1 X61.183 Y27.781 E0.05057
G1 X60.790 Y27.832 E0.01247
G1 X60.726 Y27.858 E0.00218
G1 X61.807 Y28.940 E0.04809
G1 X61.340 Y29.007 E0.01485
G1 X60.347 Y28.014 E0.04413
G1 X59.968 Y28.170 E0.01288
G1 X60.925 Y29.127 E0.04255
G1 X60.561 Y29.297 E0.01265
G1 X59.590 Y28.326 E0.04317
G1 X59.211 Y28.482 E0.01288
G1 X60.196 Y29.467 E0.04380
G1 X60.105 Y29.510 E0.00318
G1 X59.902 Y29.708 E0.00890
G1 X58.536 Y28.342 E0.06075
G1 X57.628 Y27.968 E0.03088
G1 X59.632 Y29.973 E0.08913
G1 X59.388 Y30.263 E0.01193
G1 X56.876 Y27.751 E0.11169
G1 X56.258 Y27.668 E0.01961
G1 X58.064 Y29.474 E0.08032
G1 X57.100 Y29.044 E0.03320
G1 X55.644 Y27.588 E0.06474
G1 X55.145 Y27.625 E0.01571
G1 X56.449 Y28.928 E0.05795
G1 X55.825 Y28.840 E0.01979
G1 X54.663 Y27.677 E0.05167
G1 X54.222 Y27.771 E0.01417
