; generated by PrusaSlicer 2.3.3+win64 on 2022-08-12 at 18:27:05 UTC


;
;

;
;
; 

; external perimeters extrusion width = 0.45mm
; perimeters extrusion width = 0.45mm
; infill extrusion width = 0.45mm
; solid infill extrusion width = 0.45mm
; top infill extrusion width = 0.40mm
; first layer extrusion width = 0.42mm

M73 P0 R28
M201 X1250 Y1250 Z400 E5000 ; sets maximum accelerations, mm/sec^2
M203 X180 Y180 Z12 E80 ; sets maximum feedrates, mm/sec
M204 P1250 R1250 T1250 ; sets acceleration (P, T) and retract acceleration (R), mm/sec^2
M205 X8.00 Y8.00 Z2.00 E10.00 ; sets the jerk limits, mm/sec
M205 S0 T0 ; sets the minimum extruding and travel feed rate, mm/sec
M107
;TYPE:Custom
G90 ; use absolute coordinates
M83 ; extruder relative mode
M104 S170 ; set extruder temp for bed leveling
M140 S85 ; set bed temp
M109 R170 ; wait for bed leveling temp
M190 S85 ; wait for bed temp
G28 ; home all without mesh bed level
G29 ; mesh bed leveling 
M104 S230 ; set extruder temp
G92 E0.0
G1 Y-2.0 X179 F2400
G1 Z3 F720
M109 S230 ; wait for extruder temp

; intro line
G1 X170 F1000
G1 Z0.2 F720
G1 X110.0 E8.0 F900
G1 X40.0 E10.0 F700
G92 E0.0

M221 S95 ; set flow
G21 ; set units to millimeters
G90 ; use absolute coordinates
M83 ; use relative distances for extrusion
M900 K0.2 ; Filament gcode
;LAYER_CHANGE
;Z:0.2
;HEIGHT:0.2
;BEFORE_LAYER_CHANGE
G92 E0.0
;0.2


G1 E-3.20000 F2400.000
G1 Z0.200 F9000.000
;AFTER_LAYER_CHANGE
;0.2
G1 Z0.400
G1 X70.159 Y76.475
G1 Z0.200
G1 E3.20000 F1500.000
M204 S800
;TYPE:Skirt
;WIDTH:0.42
G1 F1200.000
G1 X105.875 Y81.172 E1.12950
M73 P1 R28
G1 X106.815 Y81.399 E0.03033
G1 X107.631 Y81.707 E0.02735
G1 X120.511 Y88.951 E0.46332
G1 X121.776 Y89.951 E0.05058
G1 X122.922 Y91.039 E0.04953
G1 X124.145 Y92.376 E0.05680
G1 X124.591 Y93.000 E0.02405
G1 X125.254 Y94.232 E0.04388
G1 X125.594 Y95.195 E0.03201
G1 X125.803 Y96.348 E0.03676
G1 X125.792 Y97.483 E0.03559
G1 X125.307 Y99.341 E0.06020
G1 X124.952 Y100.058 E0.02509
G1 X124.282 Y100.963 E0.03529
G1 X123.693 Y101.518 E0.02538
G1 X123.039 Y101.964 E0.02482
G1 X122.447 Y102.261 E0.02078
G1 X121.689 Y102.513 E0.02503
G1 X118.992 Y102.830 E0.08516
G1 X60.178 Y103.525 E1.84419
G1 X58.455 Y103.420 E0.05414
G1 X57.229 Y103.016 E0.04048
G1 X56.276 Y102.437 E0.03496
G1 X55.384 Y101.568 E0.03903
G1 X54.882 Y100.853 E0.02739
G1 X54.519 Y100.070 E0.02706
G1 X54.233 Y98.964 E0.03583
G1 X54.203 Y97.677 E0.04036
G1 X54.546 Y95.020 E0.08402
G1 X54.791 Y93.842 E0.03773
G1 X55.213 Y92.739 E0.03702
G1 X55.783 Y91.784 E0.03485
G1 X64.526 Y79.355 E0.47649
G1 X65.061 Y78.718 E0.02608
G1 X66.319 Y77.662 E0.05151
G1 X67.277 Y77.113 E0.03460
G1 X68.017 Y76.806 E0.02512
G1 X68.831 Y76.585 E0.02646
G1 X70.099 Y76.480 E0.03989
M204 S1250
; printing object Shiny Lahdi-Hillar (1).stl id:0 copy 0
G1 E-2.24000 F2400.000
;WIPE_START
G1 F7200.000
G1 X72.955 Y76.854 E-0.91200
;WIPE_END
G1 E-0.04800 F2400.000
G1 Z0.400 F9000.000
G1 X62.888 Y91.945
G1 Z0.200
G1 E3.20000 F1500.000
M204 S800
;TYPE:Perimeter
G1 F1200.000
G1 X63.767 Y95.659 E0.11968
G1 X64.358 Y97.976 E0.07495
G1 X63.461 Y98.300 E0.02990
G1 X62.978 Y98.347 E0.01523
G1 X61.826 Y98.390 E0.03614
G1 X59.485 Y98.415 E0.07340
G1 X59.821 Y95.886 E0.08000
G1 X59.943 Y95.160 E0.02309
G1 X60.110 Y94.801 E0.01243
G1 X60.335 Y94.473 E0.01246
G1 X60.594 Y94.153 E0.01290
G1 X61.158 Y93.549 E0.02591
G1 X61.691 Y93.033 E0.02327
G1 X62.843 Y91.985 E0.04884
M204 S1250
G1 X62.668 Y92.654 F9000.000
M204 S800
;TYPE:External perimeter
G1 F1200.000
G1 X63.401 Y95.749 E0.09973
G1 X63.908 Y97.737 E0.06433
G1 X63.378 Y97.929 E0.01768
G1 X62.952 Y97.970 E0.01340
G1 X61.817 Y98.013 E0.03564
G1 X59.916 Y98.033 E0.05960
G1 X60.194 Y95.942 E0.06615
G1 X60.306 Y95.273 E0.02128
G1 X60.439 Y94.988 E0.00984
G1 X60.637 Y94.699 E0.01101
G1 X60.878 Y94.401 E0.01201
G1 X61.427 Y93.813 E0.02520
G1 X61.949 Y93.308 E0.02278
G1 X62.624 Y92.694 E0.02860
M204 S1250
G1 X63.036 Y92.496 F9000.000
G1 E-2.24000 F2400.000
;WIPE_START
G1 F7200.000
G1 X63.334 Y95.486 E-0.91200
;WIPE_END
G1 E-0.04800 F2400.000
G1 Z0.400 F9000.000
G1 X63.212 Y90.609
G1 Z0.200
G1 E3.20000 F1500.000
M204 S800
;TYPE:Perimeter
G1 F1200.000
G1 X63.553 Y90.697 E0.01105
G1 X63.870 Y90.839 E0.01090
G1 X64.158 Y91.030 E0.01084
G1 X64.412 Y91.266 E0.01087
G1 X64.625 Y91.542 E0.01090
G1 X64.792 Y91.854 E0.01111
G1 X64.920 Y92.234 E0.01258
G1 X65.034 Y92.674 E0.01423
G1 X65.629 Y95.141 E0.07959
G1 X66.169 Y97.274 E0.06898
G1 X66.192 Y97.507 E0.00734
G1 X66.189 Y97.746 E0.00751
G1 X66.157 Y97.982 E0.00747
G1 X66.099 Y98.213 E0.00747
G1 X66.011 Y98.440 E0.00760
G1 X65.899 Y98.656 E0.00765
G1 X65.582 Y99.112 E0.01741
G1 X65.222 Y99.528 E0.01724
G1 X64.872 Y99.809 E0.01407
G1 X64.475 Y100.010 E0.01396
G1 X63.969 Y100.158 E0.01653
G1 X63.308 Y100.259 E0.02097
G1 X62.465 Y100.318 E0.02651
G1 X61.423 Y100.347 E0.03268
G1 X59.542 Y100.361 E0.05898
G1 X59.030 Y100.305 E0.01613
G1 X58.600 Y100.160 E0.01425
G1 X58.215 Y99.931 E0.01402
G1 X57.887 Y99.630 E0.01397
G1 X57.627 Y99.270 E0.01393
G1 X57.446 Y98.864 E0.01392
G1 X57.353 Y98.427 E0.01403
G1 X57.359 Y97.918 E0.01594
G1 X57.603 Y95.958 E0.06193
G1 X57.771 Y94.966 E0.03156
G1 X57.830 Y94.724 E0.00781
G1 X57.944 Y94.380 E0.01135
G1 X58.050 Y94.143 E0.00814
G1 X58.381 Y93.592 E0.02018
G1 X58.871 Y92.966 E0.02492
G1 X59.176 Y92.623 E0.01439
G1 X60.251 Y91.530 E0.04807
G1 X60.583 Y91.243 E0.01376
G1 X60.907 Y91.007 E0.01258
G1 X61.230 Y90.824 E0.01164
G1 X61.566 Y90.691 E0.01132
G1 X61.935 Y90.608 E0.01187
G1 X62.386 Y90.575 E0.01419
G1 X62.822 Y90.575 E0.01367
G1 X63.152 Y90.603 E0.01037
M204 S1250
G1 X63.275 Y90.236 F9000.000
M204 S800
;TYPE:External perimeter
G1 F1200.000
G1 X63.678 Y90.340 E0.01304
G1 X64.053 Y90.507 E0.01287
G1 X64.392 Y90.733 E0.01279
G1 X64.692 Y91.011 E0.01282
G1 X64.942 Y91.336 E0.01287
G1 X65.139 Y91.704 E0.01308
G1 X65.281 Y92.127 E0.01398
G1 X65.399 Y92.582 E0.01474
G1 X65.995 Y95.051 E0.07962
G1 X66.542 Y97.209 E0.06980
G1 X66.570 Y97.491 E0.00890
G1 X66.565 Y97.774 E0.00888
G1 X66.528 Y98.054 E0.00885
G1 X66.459 Y98.328 E0.00885
G1 X66.356 Y98.595 E0.00898
G1 X66.222 Y98.851 E0.00907
G1 X65.880 Y99.343 E0.01878
G1 X65.485 Y99.801 E0.01895
G1 X65.078 Y100.128 E0.01638
G1 X64.615 Y100.362 E0.01628
G1 X64.051 Y100.527 E0.01841
G1 X63.350 Y100.634 E0.02225
G1 X62.483 Y100.694 E0.02724
G1 X61.429 Y100.724 E0.03305
G1 X59.523 Y100.738 E0.05979
G1 X58.949 Y100.675 E0.01810
G1 X58.441 Y100.504 E0.01679
G1 X57.989 Y100.235 E0.01650
G1 X57.604 Y99.882 E0.01639
G1 X57.298 Y99.459 E0.01636
G1 X57.085 Y98.982 E0.01640
G1 X56.975 Y98.464 E0.01658
G1 X56.982 Y97.893 E0.01792
G1 X57.230 Y95.904 E0.06286
G1 X57.401 Y94.889 E0.03225
G1 X57.468 Y94.620 E0.00870
G1 X57.591 Y94.244 E0.01241
G1 X57.715 Y93.969 E0.00946
G1 X58.070 Y93.377 E0.02162
G1 X58.581 Y92.724 E0.02601
G1 X58.899 Y92.367 E0.01499
G1 X59.996 Y91.252 E0.04905
G1 X60.348 Y90.947 E0.01459
G1 X60.702 Y90.689 E0.01374
G1 X61.067 Y90.483 E0.01314
G1 X61.454 Y90.330 E0.01305
G1 X61.879 Y90.234 E0.01367
G1 X62.373 Y90.198 E0.01551
G1 X62.838 Y90.198 E0.01460
G1 X63.216 Y90.230 E0.01187
M204 S1250
G1 X63.409 Y90.613 F9000.000
G1 X63.571 Y90.829
M204 S800
;TYPE:Solid infill
;WIDTH:0.425855
G1 F1200.000
G1 X64.215 Y91.473 E0.02898
G1 X64.386 Y91.696 E0.00895
G1 X64.531 Y91.967 E0.00979
G1 X64.695 Y92.495 E0.01761
G1 X63.082 Y90.881 E0.07266
G1 X62.517 Y90.858 E0.01800
G1 X64.873 Y93.215 E0.10612
G1 X65.045 Y93.928 E0.02338
G1 X63.215 Y92.097 E0.08245
G1 X63.053 Y91.413 E0.02238
G1 X62.779 Y91.662 E0.01177
G1 X62.003 Y90.886 E0.03493
G1 X61.649 Y90.962 E0.01153
G1 X61.569 Y90.994 E0.00274
G1 X62.495 Y91.920 E0.04169
G1 X62.212 Y92.178 E0.01221
G1 X61.200 Y91.166 E0.04555
G1 X60.874 Y91.381 E0.01245
G1 X61.928 Y92.435 E0.04748
G1 X61.644 Y92.693 E0.01221
G1 X60.575 Y91.624 E0.04816
G1 X60.293 Y91.883 E0.01220
G1 X61.364 Y92.955 E0.04827
G1 X61.089 Y93.222 E0.01219
G1 X60.021 Y92.153 E0.04812
G1 X59.755 Y92.429 E0.01220
G1 X60.821 Y93.495 E0.04801
G1 X60.560 Y93.775 E0.01220
G1 X59.489 Y92.705 E0.04821
G1 X59.230 Y92.987 E0.01220
G1 X60.304 Y94.061 E0.04836
G1 X60.066 Y94.365 E0.01228
G1 X58.983 Y93.282 E0.04876
G1 X58.745 Y93.585 E0.01228
G1 X59.850 Y94.690 E0.04974
G1 X59.678 Y95.059 E0.01298
G1 X58.523 Y93.904 E0.05199
G1 X58.320 Y94.243 E0.01257
G1 X59.596 Y95.519 E0.05747
G1 X59.523 Y95.987 E0.01509
G1 X58.165 Y94.630 E0.06114
G1 X58.044 Y95.050 E0.01393
G1 X59.459 Y96.465 E0.06374
G1 X59.395 Y96.943 E0.01535
G1 X57.965 Y95.513 E0.06441
G1 X57.887 Y95.976 E0.01496
G1 X59.332 Y97.421 E0.06507
M73 P2 R28
G1 X59.268 Y97.899 E0.01535
G1 X57.674 Y96.305 E0.07180
M204 S1250
G1 E-2.24000 F2400.000
;WIPE_START
G1 F7200.000
G1 X59.268 Y97.899 E-0.71406
G1 X59.332 Y97.421 E-0.15268
G1 X59.231 Y97.320 E-0.04526
;WIPE_END
G1 E-0.04800 F2400.000
G1 Z0.400 F9000.000
G1 X63.154 Y92.579
G1 Z0.200
G1 E3.20000 F1500.000
M204 S800
G1 F1200.000
G1 X65.218 Y94.642 E0.09292
G1 X65.392 Y95.358 E0.02347
G1 X63.551 Y93.517 E0.08293
G1 X63.719 Y94.226 E0.02322
G1 X65.576 Y96.083 E0.08364
G1 X65.760 Y96.809 E0.02382
G1 X63.887 Y94.936 E0.08434
G1 X64.056 Y95.647 E0.02327
G1 X65.907 Y97.498 E0.08336
G1 X65.906 Y97.725 E0.00724
G1 X65.862 Y97.994 E0.00868
G1 X64.241 Y96.374 E0.07299
M73 P2 R27
G1 X64.427 Y97.100 E0.02388
G1 X65.718 Y98.391 E0.05814
G1 X65.656 Y98.509 E0.00423
G1 X65.508 Y98.723 E0.00829
G1 X64.612 Y97.827 E0.04034
G1 X64.695 Y98.154 E0.01075
G1 X64.477 Y98.234 E0.00740
G1 X65.276 Y99.033 E0.03601
G1 X65.025 Y99.324 E0.01223
G1 X64.079 Y98.377 E0.04261
G1 X63.681 Y98.521 E0.01347
G1 X64.725 Y99.565 E0.04699
G1 X64.366 Y99.747 E0.01282
G1 X63.225 Y98.607 E0.05136
G1 X62.716 Y98.639 E0.01624
G1 X63.947 Y99.870 E0.05541
G1 X63.482 Y99.946 E0.01501
G1 X62.194 Y98.659 E0.05797
G1 X61.668 Y98.674 E0.01676
G1 X62.991 Y99.998 E0.05958
G1 X62.485 Y100.033 E0.01616
G1 X61.133 Y98.680 E0.06091
G1 X60.597 Y98.686 E0.01706
G1 X61.960 Y100.049 E0.06138
G1 X61.433 Y100.064 E0.01678
G1 X59.893 Y98.524 E0.06934
M204 S1250
G1 E-2.24000 F2400.000
;WIPE_START
G1 F7200.000
G1 X61.433 Y100.064 E-0.68963
G1 X61.960 Y100.049 E-0.16686
G1 X61.836 Y99.925 E-0.05551
;WIPE_END
G1 E-0.04800 F2400.000
G1 Z0.400 F9000.000
G1 X61.064 Y100.237
G1 Z0.200
G1 E3.20000 F1500.000
M204 S800
G1 F1200.000
G1 X59.525 Y98.698 E0.06930
G1 X59.161 Y98.702 E0.01159
G1 X59.205 Y98.377 E0.01043
G1 X57.766 Y96.938 E0.06479
G1 X57.706 Y97.420 E0.01545
G1 X60.358 Y100.072 E0.11944
G1 X59.820 Y100.076 E0.01712
G1 X57.646 Y97.901 E0.09793
G1 X57.645 Y98.442 E0.01723
G1 X59.247 Y100.044 E0.07212
G1 X59.091 Y100.027 E0.00498
G1 X58.718 Y99.901 E0.01254
G1 X58.385 Y99.703 E0.01235
G1 X57.605 Y98.943 E0.03467
M204 S1250
G1 E-2.24000 F2400.000
;WIPE_START
G1 F7200.000
G1 X58.385 Y99.703 E-0.34481
G1 X58.718 Y99.901 E-0.12285
G1 X59.091 Y100.027 E-0.12469
G1 X59.247 Y100.044 E-0.04955
G1 X58.644 Y99.441 E-0.27010
;WIPE_END
G1 E-0.04800 F2400.000
G1 Z0.400 F9000.000
G1 X83.879 Y94.114
G1 Z0.200
G1 E3.20000 F1500.000
M204 S800
;TYPE:Perimeter
;WIDTH:0.42
G1 F1200.000
G1 X84.216 Y93.637 E0.01831
G1 X84.447 Y93.454 E0.00924
G1 X84.832 Y93.232 E0.01394
G1 X85.390 Y92.986 E0.01913
G1 X85.691 Y92.884 E0.00996
G1 X86.034 Y92.948 E0.01095
G1 X87.820 Y93.384 E0.05765
G1 X89.079 Y93.742 E0.04104
G1 X89.571 Y93.912 E0.01630
G1 X90.208 Y94.268 E0.02288
G1 X90.203 Y95.015 E0.02344
G1 X90.068 Y95.457 E0.01448
G1 X89.706 Y96.286 E0.02837
G1 X88.829 Y98.004 E0.06047
G1 X85.466 Y95.798 E0.12613
G1 X84.557 Y95.151 E0.03496
G1 X84.079 Y94.765 E0.01927
G1 X83.897 Y94.171 E0.01947
M204 S1250
G1 X84.294 Y94.180 F9000.000
M204 S800
;TYPE:External perimeter
G1 F1200.000
G1 X84.492 Y93.899 E0.01079
G1 X84.659 Y93.767 E0.00668
G1 X85.003 Y93.568 E0.01244
G1 X85.527 Y93.338 E0.01796
G1 X85.719 Y93.273 E0.00634
G1 X87.724 Y93.749 E0.06462
G1 X88.966 Y94.102 E0.04050
G1 X89.416 Y94.257 E0.01492
G1 X89.829 Y94.488 E0.01484
G1 X89.827 Y94.958 E0.01472
G1 X89.714 Y95.326 E0.01207
G1 X89.365 Y96.125 E0.02735
G1 X88.684 Y97.458 E0.04693
G1 X85.678 Y95.486 E0.11272
G1 X84.785 Y94.851 E0.03437
G1 X84.406 Y94.544 E0.01529
G1 X84.312 Y94.237 E0.01006
M204 S1250
G1 X84.036 Y93.953 F9000.000
G1 E-2.24000 F2400.000
;WIPE_START
G1 F7200.000
G1 X84.492 Y93.899 E-0.12148
G1 X84.659 Y93.767 E-0.06743
G1 X85.003 Y93.568 E-0.12564
G1 X85.527 Y93.338 E-0.18138
G1 X85.719 Y93.273 E-0.06408
G1 X86.800 Y93.529 E-0.35199
;WIPE_END
G1 E-0.04800 F2400.000
G1 Z0.400 F9000.000
G1 X82.311 Y92.735
G1 Z0.200
G1 E3.20000 F1500.000
M204 S800
;TYPE:Perimeter
G1 F1200.000
G1 X82.728 Y92.245 E0.02016
G1 X83.236 Y91.832 E0.02054
G1 X83.799 Y91.501 E0.02048
G1 X84.376 Y91.252 E0.01970
G1 X84.914 Y91.083 E0.01768
G1 X85.359 Y90.991 E0.01426
G1 X85.674 Y90.963 E0.00992
G1 X86.114 Y90.994 E0.01383
G1 X86.649 Y91.099 E0.01708
G1 X88.300 Y91.502 E0.05329
G1 X89.602 Y91.868 E0.04239
G1 X90.122 Y92.047 E0.01724
G1 X90.563 Y92.236 E0.01504
G1 X90.931 Y92.445 E0.01329
G1 X91.244 Y92.684 E0.01233
G1 X91.521 Y92.973 E0.01254
G1 X91.765 Y93.320 E0.01332
G1 X92.026 Y93.899 E0.01990
G1 X92.142 Y94.457 E0.01788
G1 X92.142 Y95.026 E0.01785
G1 X92.039 Y95.621 E0.01894
G1 X91.842 Y96.244 E0.02048
G1 X91.569 Y96.888 E0.02194
G1 X90.611 Y98.769 E0.06616
G1 X90.335 Y99.165 E0.01513
G1 X90.017 Y99.466 E0.01373
G1 X89.650 Y99.692 E0.01352
G1 X89.248 Y99.841 E0.01345
G1 X88.824 Y99.909 E0.01345
G1 X88.397 Y99.893 E0.01340
G1 X87.979 Y99.789 E0.01352
G1 X87.535 Y99.573 E0.01547
G1 X87.048 Y99.281 E0.01781
G1 X84.666 Y97.730 E0.08914
G1 X83.053 Y96.607 E0.06162
G1 X82.754 Y96.368 E0.01200
G1 X82.455 Y96.055 E0.01359
G1 X82.214 Y95.711 E0.01314
G1 X82.029 Y95.341 E0.01298
G1 X81.903 Y94.951 E0.01287
G1 X81.835 Y94.545 E0.01289
G1 X81.828 Y94.134 E0.01288
G1 X81.884 Y93.723 E0.01301
G1 X82.001 Y93.331 E0.01284
G1 X82.283 Y92.788 E0.01918
M204 S1250
G1 X81.996 Y92.523 F9000.000
M204 S800
;TYPE:External perimeter
G1 F1200.000
G1 X82.463 Y91.974 E0.02259
G1 X83.020 Y91.522 E0.02252
G1 X83.628 Y91.164 E0.02210
G1 X84.244 Y90.898 E0.02105
G1 X84.819 Y90.717 E0.01889
G1 X85.305 Y90.617 E0.01554
G1 X85.660 Y90.586 E0.01118
G1 X85.896 Y90.589 E0.00742
G1 X86.173 Y90.621 E0.00873
G1 X86.730 Y90.731 E0.01781
G1 X88.396 Y91.138 E0.05376
G1 X89.714 Y91.508 E0.04293
G1 X90.257 Y91.695 E0.01802
G1 X90.730 Y91.898 E0.01614
G1 X91.140 Y92.130 E0.01475
G1 X91.496 Y92.402 E0.01405
G1 X91.813 Y92.732 E0.01435
G1 X92.094 Y93.132 E0.01533
G1 X92.387 Y93.781 E0.02233
G1 X92.519 Y94.418 E0.02039
G1 X92.519 Y95.059 E0.02008
G1 X92.406 Y95.711 E0.02075
G1 X92.196 Y96.375 E0.02184
G1 X91.911 Y97.048 E0.02291
G1 X90.935 Y98.963 E0.06739
G1 X90.623 Y99.412 E0.01716
G1 X90.248 Y99.766 E0.01616
G1 X89.816 Y100.033 E0.01590
G1 X89.344 Y100.208 E0.01579
G1 X88.847 Y100.288 E0.01578
G1 X88.344 Y100.268 E0.01579
G1 X87.850 Y100.145 E0.01597
G1 X87.355 Y99.905 E0.01723
G1 X86.848 Y99.601 E0.01854
G1 X84.455 Y98.042 E0.08954
G1 X82.827 Y96.910 E0.06219
G1 X82.499 Y96.647 E0.01319
G1 X82.162 Y96.294 E0.01528
G1 X81.889 Y95.905 E0.01491
G1 X81.680 Y95.484 E0.01473
G1 X81.535 Y95.040 E0.01463
G1 X81.458 Y94.580 E0.01465
G1 X81.450 Y94.112 E0.01466
G1 X81.514 Y93.644 E0.01483
G1 X81.650 Y93.189 E0.01489
G1 X81.969 Y92.577 E0.02164
M204 S1250
G1 X82.395 Y92.556 F9000.000
G1 E-2.24000 F2400.000
;WIPE_START
G1 F7200.000
G1 X82.463 Y91.974 E-0.24669
G1 X83.020 Y91.522 E-0.22744
G1 X83.628 Y91.164 E-0.22323
G1 X84.244 Y90.898 E-0.21256
G1 X84.250 Y90.896 E-0.00207
;WIPE_END
G1 E-0.04800 F2400.000
G1 Z0.400 F9000.000
G1 X90.480 Y92.324
G1 Z0.200
G1 E3.20000 F1500.000
M204 S800
;TYPE:Solid infill
;WIDTH:0.42565
G1 F1200.000
G1 X91.302 Y93.153 E0.03716
G1 X91.519 Y93.461 E0.01198
G1 X91.755 Y93.986 E0.01835
G1 X91.796 Y94.181 E0.00632
G1 X89.877 Y92.262 E0.08637
G1 X89.093 Y92.019 E0.02612
G1 X91.859 Y94.786 E0.12451
G1 X91.859 Y95.002 E0.00688
G1 X91.811 Y95.279 E0.00895
G1 X88.340 Y91.807 E0.15624
G1 X87.618 Y91.627 E0.02368
G1 X89.621 Y93.630 E0.09016
G1 X90.492 Y94.102 E0.03152
G1 X90.489 Y94.498 E0.01260
G1 X91.711 Y95.720 E0.05498
G1 X91.581 Y96.131 E0.01373
G1 X90.486 Y95.036 E0.04928
G1 X90.364 Y95.456 E0.01390
G1 X91.421 Y96.512 E0.04756
G1 X91.253 Y96.886 E0.01302
