; generated by PrusaSlicer 2.3.3+win64 on 2022-05-04 at 13:03:37 UTC


;
;

;
;
; 

; external perimeters extrusion width = 0.45mm
; perimeters extrusion width = 0.45mm
; infill extrusion width = 0.45mm
; solid infill extrusion width = 0.45mm
; top infill extrusion width = 0.40mm
; first layer extrusion width = 0.42mm

M73 P0 R121
M201 X1250 Y1250 Z400 E5000 ; sets maximum accelerations, mm/sec^2
M203 X180 Y180 Z12 E80 ; sets maximum feedrates, mm/sec
M204 P1250 R1250 T1250 ; sets acceleration (P, T) and retract acceleration (R), mm/sec^2
M205 X8.00 Y8.00 Z2.00 E10.00 ; sets the jerk limits, mm/sec
M205 S0 T0 ; sets the minimum extruding and travel feed rate, mm/sec
M107
;TYPE:Custom
G90 ; use absolute coordinates
M83 ; extruder relative mode
M104 S170 ; set extruder temp for bed leveling
M140 S85 ; set bed temp
M109 R170 ; wait for bed leveling temp
M190 S85 ; wait for bed temp
G28 ; home all without mesh bed level
G29 ; mesh bed leveling 
M104 S230 ; set extruder temp
G92 E0.0
G1 Y-2.0 X179 F2400
G1 Z3 F720
M109 S230 ; wait for extruder temp

; intro line
G1 X170 F1000
G1 Z0.2 F720
G1 X110.0 E8.0 F900
G1 X40.0 E10.0 F700
G92 E0.0

M221 S95 ; set flow
G21 ; set units to millimeters
G90 ; use absolute coordinates
M83 ; use relative distances for extrusion
M900 K0.2 ; Filament gcode
;LAYER_CHANGE
;Z:0.2
;HEIGHT:0.2
;BEFORE_LAYER_CHANGE
G92 E0.0
;0.2


G1 E-3.20000 F2400.000
G1 Z0.200 F9000.000
;AFTER_LAYER_CHANGE
;0.2
G1 Z0.400
G1 X28.964 Y58.292
G1 Z0.200
G1 E3.20000 F1500.000
M204 S800
;TYPE:Skirt
;WIDTH:0.42
G1 F1200.000
G1 X32.621 Y55.274 E0.14866
G1 X36.093 Y53.000 E0.13015
G1 X39.552 Y51.175 E0.12259
G1 X43.101 Y49.668 E0.12089
G1 X46.216 Y48.608 E0.10317
G1 X49.082 Y47.832 E0.09313
G1 X51.532 Y47.312 E0.07852
G1 X119.834 Y35.565 E2.17299
G1 X128.089 Y34.860 E0.25979
G1 X136.358 Y35.568 E0.26020
G1 X144.197 Y37.618 E0.25405
G1 X151.524 Y40.906 E0.25181
G1 X158.175 Y45.290 E0.24976
G1 X164.119 Y50.705 E0.25213
G1 X169.193 Y56.989 E0.25323
G1 X173.319 Y64.052 E0.25646
G1 X176.336 Y71.621 E0.25549
G1 X178.310 Y80.055 E0.27159
G1 X178.966 Y88.603 E0.26882
G1 X178.281 Y97.656 E0.28464
G1 X176.391 Y105.781 E0.26156
G1 X173.320 Y113.506 E0.26066
G1 X169.193 Y120.571 E0.25652
G1 X164.107 Y126.869 E0.25383
G1 X158.194 Y132.256 E0.25078
G1 X151.519 Y136.657 E0.25071
G1 X144.209 Y139.938 E0.25120
G1 X136.467 Y141.970 E0.25097
G1 X63.656 Y149.071 E2.29378
G1 X59.981 Y149.283 E0.11543
G1 X55.410 Y149.127 E0.14339
G1 X52.573 Y148.822 E0.08949
G1 X49.363 Y148.255 E0.10219
G1 X45.662 Y147.291 E0.11992
G1 X41.822 Y145.901 E0.12804
G1 X37.768 Y143.950 E0.14105
G1 X33.684 Y141.402 E0.15093
G1 X29.523 Y138.087 E0.16681
G1 X25.567 Y134.105 E0.17600
G1 X22.366 Y130.166 E0.15912
G1 X19.710 Y126.250 E0.14836
G1 X17.584 Y122.467 E0.13609
G1 X15.861 Y118.707 E0.12966
G1 X14.455 Y114.838 E0.12907
G1 X13.472 Y111.299 E0.11516
G1 X12.782 Y107.876 E0.10950
G1 X12.336 Y104.472 E0.10762
G1 X12.135 Y101.449 E0.09499
G1 X12.112 Y98.658 E0.08751
G1 X12.233 Y95.417 E0.10169
G1 X12.493 Y92.155 E0.10262
G1 X12.966 Y88.607 E0.11222
G1 X13.665 Y85.080 E0.11274
G1 X14.645 Y81.467 E0.11736
G1 X16.029 Y77.571 E0.12965
G1 X17.760 Y73.715 E0.13253
G1 X19.895 Y69.829 E0.13901
G1 X22.560 Y65.780 E0.15198
G1 X25.805 Y61.609 E0.16571
G1 X28.922 Y58.335 E0.14174
M204 S1250
; printing object Grand Luulia.stl_2 id:1 copy 0
G1 E-2.24000 F2400.000
;WIPE_START
G1 F7200.000
G1 X31.141 Y56.499 E-0.91200
;WIPE_END
G1 E-0.04800 F2400.000
G1 Z0.400 F9000.000
G1 X83.308 Y79.011
G1 Z0.200
G1 E3.20000 F1500.000
M204 S800
;TYPE:Perimeter
G1 F1200.000
G1 X172.864 Y79.011 E2.80796
G1 X173.294 Y80.873 E0.05992
G1 X173.893 Y88.780 E0.24863
G1 X173.294 Y96.688 E0.24866
G1 X173.087 Y97.585 E0.02887
G1 X83.086 Y97.585 E2.82193
G1 X82.878 Y96.688 E0.02887
G1 X82.280 Y88.780 E0.24865
G1 X82.878 Y80.873 E0.24862
G1 X83.295 Y79.069 E0.05804
M204 S1250
G1 X83.608 Y79.388 F9000.000
M204 S800
;TYPE:External perimeter
G1 F1200.000
G1 X172.564 Y79.388 E2.78915
M73 P0 R120
G1 X172.920 Y80.930 E0.04962
G1 X173.515 Y88.780 E0.24683
G1 X172.920 Y96.631 E0.24687
G1 X172.787 Y97.208 E0.01857
G1 X83.385 Y97.208 E2.80312
G1 X83.252 Y96.631 E0.01857
G1 X82.659 Y88.780 E0.24686
G1 X83.252 Y80.930 E0.24683
G1 X83.595 Y79.446 E0.04774
M204 S1250
G1 X83.622 Y78.988 F9000.000
G1 E-2.24000 F2400.000
;WIPE_START
G1 F7200.000
G1 X86.475 Y79.444 E-0.91200
;WIPE_END
G1 E-0.04800 F2400.000
G1 Z0.400 F9000.000
G1 X83.184 Y98.011
G1 Z0.200
G1 E3.20000 F1500.000
M204 S800
;TYPE:Perimeter
G1 F1200.000
G1 X172.989 Y98.011 E2.81577
G1 X171.562 Y104.191 E0.19889
G1 X168.789 Y111.191 E0.23605
G1 X165.068 Y117.585 E0.23196
G1 X91.105 Y117.585 E2.31906
G1 X87.385 Y111.191 E0.23196
G1 X84.611 Y104.192 E0.23605
G1 X83.197 Y98.069 E0.19702
M204 S1250
G1 X83.658 Y98.388 F9000.000
M204 S800
;TYPE:External perimeter
G1 F1200.000
G1 X172.515 Y98.388 E2.78604
M73 P1 R120
G1 X171.201 Y104.079 E0.18314
G1 X168.449 Y111.025 E0.23427
G1 X164.851 Y117.208 E0.22427
G1 X91.322 Y117.208 E2.30546
G1 X87.725 Y111.025 E0.22427
G1 X84.972 Y104.079 E0.23427
G1 X83.671 Y98.446 E0.18126
M204 S1250
G1 X83.616 Y97.990 F9000.000
G1 E-2.24000 F2400.000
;WIPE_START
G1 F7200.000
G1 X86.551 Y98.444 E-0.91200
;WIPE_END
G1 E-0.04800 F2400.000
G1 Z0.400 F9000.000
G1 X92.595 Y118.011
G1 Z0.200
G1 E3.20000 F1500.000
M204 S800
;TYPE:Perimeter
G1 F1200.000
G1 X163.578 Y118.011 E2.22563
G1 X164.007 Y118.905 E0.03108
G1 X160.494 Y123.272 E0.17572
G1 X155.159 Y128.154 E0.22677
G1 X149.156 Y132.127 E0.22570
G1 X142.579 Y135.092 E0.22620
G1 X135.523 Y136.945 E0.22873
G1 X128.087 Y137.586 E0.23404
G1 X120.650 Y136.945 E0.23404
G1 X113.594 Y135.092 E0.22873
G1 X107.017 Y132.127 E0.22620
G1 X101.015 Y128.154 E0.22570
G1 X95.679 Y123.272 E0.22677
G1 X92.167 Y118.905 E0.17572
G1 X92.569 Y118.065 E0.02920
M204 S1250
G1 X92.833 Y118.388 F9000.000
M204 S800
;TYPE:External perimeter
G1 F1200.000
G1 X163.341 Y118.388 E2.21074
G1 X163.564 Y118.853 E0.01619
G1 X160.219 Y123.013 E0.16737
G1 X154.926 Y127.856 E0.22494
G1 X148.973 Y131.796 E0.22381
G1 X142.453 Y134.736 E0.22426
G1 X135.459 Y136.572 E0.22673
G1 X128.087 Y137.207 E0.23201
G1 X120.715 Y136.572 E0.23201
G1 X113.720 Y134.736 E0.22673
G1 X107.200 Y131.796 E0.22426
G1 X101.248 Y127.856 E0.22381
G1 X95.955 Y123.013 E0.22494
G1 X92.609 Y118.853 E0.16737
G1 X92.807 Y118.442 E0.01431
M204 S1250
G1 X92.754 Y117.995 F9000.000
G1 E-2.24000 F2400.000
;WIPE_START
G1 F7200.000
G1 X95.687 Y118.440 E-0.91200
;WIPE_END
G1 E-0.04800 F2400.000
G1 Z0.400 F9000.000
G1 X90.503 Y61.011
G1 Z0.200
G1 E3.20000 F1500.000
M204 S800
;TYPE:Perimeter
G1 F1200.000
G1 X165.670 Y61.011 E2.35683
G1 X168.789 Y66.369 E0.19438
G1 X171.562 Y73.369 E0.23608
G1 X172.766 Y78.585 E0.16784
G1 X83.407 Y78.585 E2.80180
G1 X84.611 Y73.369 E0.16784
G1 X87.385 Y66.369 E0.23608
G1 X90.473 Y61.062 E0.19250
M204 S1250
G1 X90.720 Y61.388 F9000.000
M204 S800
;TYPE:External perimeter
G1 F1200.000
G1 X165.454 Y61.388 E2.34323
M73 P1 R119
G1 X168.449 Y66.534 E0.18670
G1 X171.201 Y73.481 E0.23430
G1 X172.292 Y78.208 E0.15208
G1 X83.881 Y78.208 E2.77207
G1 X84.972 Y73.481 E0.15209
G1 X87.725 Y66.534 E0.23430
G1 X90.690 Y61.440 E0.18481
M204 S1250
G1 X90.779 Y60.992 F9000.000
G1 E-2.24000 F2400.000
;WIPE_START
G1 F7200.000
G1 X93.570 Y61.438 E-0.91200
;WIPE_END
G1 E-0.04800 F2400.000
G1 Z0.400 F9000.000
G1 X91.763 Y60.585
G1 Z0.200
G1 E3.20000 F1500.000
M204 S800
;TYPE:Perimeter
G1 F1200.000
G1 X91.334 Y59.691 E0.03108
G1 X95.679 Y54.288 E0.21739
G1 X101.015 Y49.406 E0.22674
G1 X107.017 Y45.432 E0.22571
G1 X113.594 Y42.468 E0.22619
G1 X120.650 Y40.614 E0.22874
G1 X128.087 Y39.975 E0.23403
G1 X135.523 Y40.614 E0.23403
G1 X142.579 Y42.468 E0.22874
G1 X149.156 Y45.432 E0.22619
G1 X155.159 Y49.406 E0.22571
G1 X160.494 Y54.288 E0.22674
G1 X164.839 Y59.691 E0.21739
G1 X164.411 Y60.585 E0.03108
G1 X91.823 Y60.585 E2.27595
M204 S1250
G1 X92.000 Y60.208 F9000.000
M204 S800
;TYPE:External perimeter
G1 F1200.000
G1 X91.777 Y59.742 E0.01619
G1 X95.955 Y54.546 E0.20904
G1 X101.248 Y49.705 E0.22491
G1 X107.200 Y45.764 E0.22383
G1 X113.720 Y42.825 E0.22425
G1 X120.715 Y40.987 E0.22674
G1 X128.087 Y40.353 E0.23200
G1 X135.459 Y40.987 E0.23200
G1 X142.453 Y42.825 E0.22674
G1 X148.973 Y45.764 E0.22425
G1 X154.926 Y49.705 E0.22383
G1 X160.219 Y54.546 E0.22491
G1 X164.396 Y59.742 E0.20904
G1 X164.173 Y60.208 E0.01619
G1 X92.060 Y60.208 E2.26106
M204 S1250
G1 X91.618 Y60.326 F9000.000
G1 E-2.24000 F2400.000
;WIPE_START
G1 F7200.000
G1 X91.777 Y59.742 E-0.17259
G1 X93.240 Y57.922 E-0.73941
;WIPE_END
G1 E-0.04800 F2400.000
G1 Z0.400 F9000.000
G1 X89.586 Y58.787
G1 Z0.200
G1 E3.20000 F1500.000
M204 S800
;TYPE:Perimeter
G1 F1200.000
G1 X94.360 Y52.875 E0.23826
G1 X99.922 Y47.805 E0.23598
G1 X106.174 Y43.682 E0.23481
G1 X113.016 Y40.610 E0.23517
G1 X120.352 Y38.689 E0.23775
G1 X128.087 Y38.027 E0.24341
G1 X135.820 Y38.689 E0.24338
G1 X143.157 Y40.610 E0.23778
G1 X149.999 Y43.682 E0.23517
G1 X156.251 Y47.805 E0.23481
G1 X161.813 Y52.875 E0.23598
G1 X166.587 Y58.787 E0.23826
G1 X170.472 Y65.439 E0.24153
G1 X173.369 Y72.724 E0.24584
G1 X175.180 Y80.539 E0.25152
G1 X175.806 Y88.780 E0.25912
G1 X175.180 Y97.021 E0.25916
G1 X173.369 Y104.836 E0.25152
G1 X170.472 Y112.122 E0.24584
G1 X166.587 Y118.772 E0.24150
G1 X161.813 Y124.685 E0.23828
G1 X156.251 Y129.756 E0.23598
M73 P2 R119
G1 X149.999 Y133.879 E0.23481
G1 X143.157 Y136.951 E0.23517
G1 X135.820 Y138.870 E0.23778
G1 X128.087 Y139.534 E0.24338
G1 X120.352 Y138.870 E0.24341
G1 X113.016 Y136.951 E0.23775
G1 X106.174 Y133.879 E0.23517
G1 X99.922 Y129.756 E0.23481
G1 X94.360 Y124.685 E0.23598
G1 X89.586 Y118.772 E0.23828
G1 X85.701 Y112.122 E0.24150
G1 X82.804 Y104.836 E0.24584
G1 X80.992 Y97.021 E0.25153
G1 X80.366 Y88.780 E0.25915
G1 X80.992 Y80.539 E0.25912
G1 X82.804 Y72.724 E0.25153
G1 X85.701 Y65.439 E0.24584
G1 X89.556 Y58.839 E0.23964
M204 S1250
G1 X89.230 Y58.649 F9000.000
M204 S800
;TYPE:External perimeter
G1 F1200.000
G1 X89.275 Y58.572 E0.00277
G1 X94.085 Y52.616 E0.24005
G1 X99.690 Y47.506 E0.23780
G1 X105.992 Y43.350 E0.23669
G1 X112.891 Y40.253 E0.23711
G1 X120.288 Y38.316 E0.23975
G1 X128.087 Y37.648 E0.24543
G1 X135.885 Y38.316 E0.24540
G1 X143.283 Y40.253 E0.23978
G1 X150.182 Y43.350 E0.23711
G1 X156.483 Y47.506 E0.23669
G1 X162.088 Y52.616 E0.23780
G1 X166.898 Y58.572 E0.24005
G1 X170.812 Y65.273 E0.24331
G1 X173.730 Y72.611 E0.24762
G1 X175.554 Y80.482 E0.25331
G1 X176.185 Y88.780 E0.26092
G1 X175.554 Y97.079 E0.26095
G1 X173.730 Y104.949 E0.25331
G1 X170.812 Y112.288 E0.24762
G1 X166.898 Y118.987 E0.24328
G1 X162.088 Y124.945 E0.24008
G1 X156.483 Y130.054 E0.23780
G1 X150.182 Y134.210 E0.23669
G1 X143.283 Y137.308 E0.23711
G1 X135.885 Y139.243 E0.23977
G1 X128.087 Y139.912 E0.24540
G1 X120.288 Y139.243 E0.24543
G1 X112.890 Y137.308 E0.23974
G1 X105.992 Y134.210 E0.23711
G1 X99.690 Y130.054 E0.23669
G1 X94.085 Y124.945 E0.23780
G1 X89.275 Y118.987 E0.24008
G1 X85.361 Y112.288 E0.24328
G1 X82.443 Y104.949 E0.24762
G1 X80.618 Y97.078 E0.25332
G1 X79.988 Y88.780 E0.26095
G1 X80.618 Y80.482 E0.26092
G1 X82.443 Y72.611 E0.25332
G1 X85.361 Y65.273 E0.24762
G1 X89.200 Y58.700 E0.23865
M204 S1250
G1 X89.319 Y58.647 F9000.000
G1 E-2.24000 F2400.000
;WIPE_START
G1 F7200.000
G1 X89.275 Y58.572 E-0.04701
G1 X90.991 Y56.447 E-0.86499
;WIPE_END
G1 E-0.04800 F2400.000
G1 Z0.400 F9000.000
G1 X162.740 Y54.203
G1 Z0.200
G1 E3.20000 F1500.000
M204 S800
;TYPE:Solid infill
;WIDTH:0.420939
G1 F1200.000
G1 X161.606 Y53.069 E0.05042
G1 X156.077 Y48.029 E0.23515
G1 X155.943 Y47.941 E0.00503
G1 X163.849 Y55.847 E0.35145
G1 X166.092 Y58.624 E0.11219
G1 X154.373 Y46.905 E0.52093
G1 X152.803 Y45.869 E0.05912
G1 X167.017 Y60.083 E0.63184
G1 X167.768 Y61.369 E0.04679
G1 X151.233 Y44.834 E0.73501
M73 P2 R118
G1 X149.863 Y43.930 E0.05158
G1 X149.739 Y43.875 E0.00426
G1 X154.486 Y48.622 E0.21103
G1 X152.904 Y47.575 E0.05964
G1 X148.769 Y43.439 E0.18384
G1 X147.798 Y43.004 E0.03343
G1 X151.322 Y46.527 E0.15664
G1 X149.740 Y45.480 E0.05964
G1 X146.828 Y42.568 E0.12944
G1 X145.858 Y42.132 E0.03343
G1 X148.595 Y44.869 E0.12166
G1 X147.622 Y44.431 E0.03355
G1 X144.888 Y41.697 E0.12153
G1 X143.918 Y41.261 E0.03343
G1 X146.648 Y43.992 E0.12139
G1 X145.675 Y43.553 E0.03355
G1 X142.977 Y40.855 E0.11996
G1 X142.252 Y40.665 E0.02353
G1 X144.702 Y43.115 E0.10889
G1 X143.729 Y42.676 E0.03355
G1 X141.528 Y40.476 E0.09782
G1 X140.804 Y40.286 E0.02353
G1 X142.756 Y42.237 E0.08675
G1 X142.674 Y42.201 E0.00282
G1 X142.010 Y42.026 E0.02159
G1 X140.080 Y40.096 E0.08578
G1 X139.356 Y39.907 E0.02353
G1 X141.285 Y41.836 E0.08573
G1 X140.559 Y41.645 E0.02357
G1 X138.632 Y39.717 E0.08569
G1 X137.908 Y39.528 E0.02353
G1 X139.834 Y41.455 E0.08565
G1 X139.109 Y41.264 E0.02357
G1 X137.183 Y39.338 E0.08561
G1 X136.459 Y39.149 E0.02353
G1 X138.384 Y41.074 E0.08556
G1 X137.659 Y40.883 E0.02357
G1 X135.742 Y38.966 E0.08520
G1 X135.158 Y38.916 E0.01845
G1 X136.934 Y40.692 E0.07896
G1 X136.209 Y40.502 E0.02357
G1 X134.573 Y38.866 E0.07272
G1 X133.988 Y38.816 E0.01845
G1 X135.501 Y40.328 E0.06723
G1 X134.916 Y40.278 E0.01845
G1 X133.404 Y38.766 E0.06722
G1 X132.819 Y38.716 E0.01845
G1 X134.331 Y40.228 E0.06721
G1 X133.746 Y40.178 E0.01845
G1 X132.234 Y38.666 E0.06720
G1 X131.649 Y38.616 E0.01845
G1 X133.161 Y40.127 E0.06719
G1 X132.576 Y40.077 E0.01845
G1 X131.065 Y38.566 E0.06718
G1 X130.480 Y38.515 E0.01845
G1 X131.991 Y40.027 E0.06717
G1 X131.406 Y39.976 E0.01845
G1 X129.895 Y38.465 E0.06716
G1 X129.311 Y38.415 E0.01845
G1 X130.821 Y39.926 E0.06715
G1 X130.237 Y39.876 E0.01845
G1 X128.726 Y38.365 E0.06715
G1 X128.141 Y38.315 E0.01845
G1 X129.652 Y39.825 E0.06714
G1 X129.067 Y39.775 E0.01845
G1 X127.640 Y38.349 E0.06341
G1 X127.148 Y38.391 E0.01553
G1 X128.482 Y39.725 E0.05930
G1 X128.087 Y39.691 E0.01247
G1 X127.927 Y39.705 E0.00504
G1 X126.655 Y38.433 E0.05652
G1 X126.163 Y38.475 E0.01553
G1 X127.435 Y39.747 E0.05653
G1 X126.942 Y39.789 E0.01553
G1 X125.671 Y38.517 E0.05654
G1 X125.178 Y38.560 E0.01553
G1 X126.450 Y39.832 E0.05654
G1 X125.958 Y39.874 E0.01553
G1 X124.686 Y38.602 E0.05655
G1 X124.193 Y38.644 E0.01553
G1 X125.466 Y39.916 E0.05656
G1 X124.973 Y39.959 E0.01553
G1 X123.701 Y38.686 E0.05656
G1 X123.208 Y38.728 E0.01553
G1 X124.481 Y40.001 E0.05657
G1 X123.989 Y40.043 E0.01553
G1 X122.716 Y38.770 E0.05658
G1 X122.224 Y38.813 E0.01553
G1 X123.497 Y40.086 E0.05659
G1 X123.004 Y40.128 E0.01553
G1 X121.731 Y38.855 E0.05659
G1 X121.239 Y38.897 E0.01553
G1 X122.512 Y40.170 E0.05660
G1 X122.020 Y40.213 E0.01553
G1 X120.746 Y38.939 E0.05661
G1 X120.400 Y38.969 E0.01092
G1 X120.274 Y39.002 E0.00409
G1 X121.528 Y40.255 E0.05571
G1 X121.035 Y40.297 E0.01553
G1 X119.851 Y39.113 E0.05266
G1 X119.427 Y39.224 E0.01377
G1 X120.551 Y40.348 E0.04997
G1 X120.128 Y40.459 E0.01376
G1 X119.003 Y39.335 E0.04999
G1 X118.580 Y39.445 E0.01377
G1 X119.704 Y40.570 E0.05000
G1 X119.281 Y40.682 E0.01376
G1 X118.156 Y39.556 E0.05002
G1 X117.732 Y39.667 E0.01377
G1 X118.858 Y40.793 E0.05003
G1 X118.434 Y40.904 E0.01376
G1 X117.309 Y39.778 E0.05005
G1 X116.885 Y39.889 E0.01377
G1 X118.011 Y41.015 E0.05006
G1 X117.588 Y41.126 E0.01376
G1 X116.461 Y40.000 E0.05007
G1 X116.038 Y40.111 E0.01377
G1 X117.164 Y41.238 E0.05009
G1 X116.741 Y41.349 E0.01376
G1 X115.614 Y40.222 E0.05010
G1 X115.190 Y40.333 E0.01377
G1 X116.318 Y41.460 E0.05012
G1 X115.894 Y41.571 E0.01376
G1 X114.766 Y40.444 E0.05013
G1 X114.343 Y40.555 E0.01377
G1 X115.471 Y41.683 E0.05014
G1 X115.047 Y41.794 E0.01376
G1 X113.919 Y40.666 E0.05016
G1 X113.495 Y40.776 E0.01377
G1 X114.624 Y41.905 E0.05017
G1 X114.201 Y42.016 E0.01376
G1 X113.077 Y40.892 E0.04996
G1 X112.708 Y41.058 E0.01271
G1 X113.777 Y42.128 E0.04754
G1 X113.499 Y42.201 E0.00903
G1 X113.373 Y42.258 E0.00436
G1 X112.339 Y41.224 E0.04596
G1 X111.970 Y41.389 E0.01271
G1 X113.004 Y42.424 E0.04598
G1 X112.636 Y42.590 E0.01271
G1 X111.601 Y41.555 E0.04600
G1 X111.232 Y41.721 E0.01271
G1 X112.267 Y42.756 E0.04602
G1 X111.899 Y42.922 E0.01271
G1 X110.863 Y41.886 E0.04604
G1 X110.494 Y42.052 E0.01271
G1 X111.530 Y43.088 E0.04606
G1 X111.162 Y43.254 E0.01271
