; generated by PrusaSlicer 2.3.3+win64 on 2022-05-04 at 12:17:36 UTC


;
;

;
;
; 

; external perimeters extrusion width = 0.45mm
; perimeters extrusion width = 0.45mm
; infill extrusion width = 0.45mm
; solid infill extrusion width = 0.45mm
; top infill extrusion width = 0.40mm
; first layer extrusion width = 0.42mm

M73 P0 R105
M201 X1250 Y1250 Z400 E5000 ; sets maximum accelerations, mm/sec^2
M203 X180 Y180 Z12 E80 ; sets maximum feedrates, mm/sec
M204 P1250 R1250 T1250 ; sets acceleration (P, T) and retract acceleration (R), mm/sec^2
M205 X8.00 Y8.00 Z2.00 E10.00 ; sets the jerk limits, mm/sec
M205 S0 T0 ; sets the minimum extruding and travel feed rate, mm/sec
M107
;TYPE:Custom
G90 ; use absolute coordinates
M83 ; extruder relative mode
M104 S170 ; set extruder temp for bed leveling
M140 S85 ; set bed temp
M109 R170 ; wait for bed leveling temp
M190 S85 ; wait for bed temp
G28 ; home all without mesh bed level
G29 ; mesh bed leveling 
M104 S230 ; set extruder temp
G92 E0.0
G1 Y-2.0 X179 F2400
G1 Z3 F720
M109 S230 ; wait for extruder temp

; intro line
G1 X170 F1000
G1 Z0.2 F720
G1 X110.0 E8.0 F900
G1 X40.0 E10.0 F700
G92 E0.0

M221 S95 ; set flow
G21 ; set units to millimeters
G90 ; use absolute coordinates
M83 ; use relative distances for extrusion
M900 K0.2 ; Filament gcode
;LAYER_CHANGE
;Z:0.2
;HEIGHT:0.2
;BEFORE_LAYER_CHANGE
G92 E0.0
;0.2


G1 E-3.20000 F2400.000
G1 Z0.200 F9000.000
;AFTER_LAYER_CHANGE
;0.2
G1 Z0.400
G1 X64.699 Y45.742
G1 Z0.200
G1 E3.20000 F1500.000
M204 S800
;TYPE:Skirt
;WIDTH:0.42
G1 F1200.000
G1 X66.043 Y44.233 E0.06337
G1 X67.067 Y43.248 E0.04454
G1 X68.363 Y42.270 E0.05092
G1 X69.572 Y41.547 E0.04415
G1 X70.901 Y40.923 E0.04605
G1 X72.517 Y40.338 E0.05388
G1 X74.185 Y39.895 E0.05412
G1 X76.005 Y39.558 E0.05801
G1 X79.734 Y39.208 E0.11746
G1 X81.911 Y39.162 E0.06827
G1 X85.299 Y39.258 E0.10625
G1 X88.472 Y39.491 E0.09977
G1 X108.640 Y41.661 E0.63601
G1 X110.846 Y42.035 E0.07013
G1 X112.891 Y42.550 E0.06615
G1 X114.882 Y43.223 E0.06586
G1 X116.980 Y44.125 E0.07162
G1 X118.886 Y45.140 E0.06773
G1 X120.862 Y46.413 E0.07368
G1 X122.564 Y47.710 E0.06711
G1 X124.258 Y49.220 E0.07112
G1 X125.834 Y50.855 E0.07122
G1 X127.274 Y52.584 E0.07055
G1 X129.072 Y55.053 E0.09577
G1 X130.778 Y57.729 E0.09948
G1 X132.369 Y60.571 E0.10214
G1 X133.789 Y63.448 E0.10060
G1 X135.088 Y66.440 E0.10226
G1 X136.317 Y69.687 E0.10887
G1 X137.350 Y72.856 E0.10452
G1 X138.252 Y76.135 E0.10661
G1 X138.997 Y79.450 E0.10653
G1 X139.568 Y82.734 E0.10451
G1 X139.942 Y85.877 E0.09926
G1 X140.099 Y88.790 E0.09146
G1 X140.080 Y91.659 E0.08995
G1 X139.891 Y94.664 E0.09441
G1 X139.572 Y97.474 E0.08867
G1 X139.118 Y100.342 E0.09103
G1 X137.934 Y105.973 E0.18044
G1 X136.486 Y111.658 E0.18392
G1 X135.967 Y113.271 E0.05313
G1 X135.130 Y115.289 E0.06851
G1 X134.028 Y117.487 E0.07708
G1 X132.486 Y120.066 E0.09420
G1 X130.696 Y122.597 E0.09722
G1 X128.554 Y125.151 E0.10451
G1 X125.952 Y127.742 E0.11513
G1 X122.860 Y130.249 E0.12481
G1 X119.434 Y132.447 E0.12763
G1 X115.538 Y134.346 E0.13589
G1 X113.269 Y135.178 E0.07578
G1 X110.057 Y136.131 E0.10504
G1 X108.102 Y136.618 E0.06319
G1 X103.729 Y137.468 E0.13965
G1 X101.315 Y137.791 E0.07636
G1 X98.906 Y137.997 E0.07582
G1 X96.327 Y138.077 E0.08089
G1 X92.527 Y137.874 E0.11932
G1 X68.840 Y135.213 E0.74736
G1 X67.327 Y134.989 E0.04795
G1 X65.484 Y134.496 E0.05982
G1 X63.633 Y133.678 E0.06347
G1 X61.859 Y132.590 E0.06523
G1 X60.137 Y131.224 E0.06893
G1 X58.688 Y129.807 E0.06354
G1 X57.377 Y128.247 E0.06390
G1 X56.142 Y126.452 E0.06832
G1 X55.061 Y124.460 E0.07104
G1 X54.252 Y122.442 E0.06817
G1 X49.054 Y105.260 E0.56285
G1 X48.362 Y102.622 E0.08552
G1 X48.008 Y99.710 E0.09196
G1 X48.040 Y96.661 E0.09560
G1 X50.063 Y74.962 E0.68331
G1 X50.434 Y72.458 E0.07938
G1 X51.149 Y69.985 E0.08070
G1 X52.269 Y67.424 E0.08766
G1 X63.305 Y47.739 E0.70758
G1 X64.665 Y45.791 E0.07448
M204 S1250
; printing object Smooth Uusam (2).stl_1 id:0 copy 0
G1 E-2.24000 F2400.000
;WIPE_START
G1 F7200.000
G1 X66.043 Y44.233 E-0.65889
G1 X66.619 Y43.678 E-0.25311
;WIPE_END
G1 E-0.04800 F2400.000
G1 Z0.400 F9000.000
G1 X131.312 Y94.752
G1 Z0.200
G1 E3.20000 F1500.000
M204 S800
;TYPE:Perimeter
G1 F1200.000
G1 X131.103 Y96.542 E0.05650
G1 X130.703 Y99.039 E0.07930
G1 X130.206 Y101.575 E0.08101
G1 X129.621 Y104.162 E0.08318
G1 X128.965 Y106.815 E0.08570
G1 X128.242 Y109.570 E0.08930
G1 X128.009 Y110.272 E0.02320
G1 X127.534 Y111.434 E0.03935
G1 X126.797 Y112.964 E0.05323
G1 X126.029 Y114.326 E0.04906
G1 X84.106 Y114.315 E1.31444
G1 X83.531 Y114.251 E0.01816
G1 X82.798 Y114.055 E0.02378
G1 X82.067 Y114.251 E0.02375
G1 X81.497 Y114.315 E0.01796
G1 X80.966 Y114.325 E0.01666
G1 X63.145 Y114.326 E0.55876
G1 X64.047 Y112.753 E0.05686
G1 X64.919 Y111.505 E0.04773
G1 X65.848 Y110.350 E0.04649
G1 X66.769 Y109.315 E0.04342
G1 X67.637 Y108.424 E0.03900
G1 X68.070 Y108.070 E0.01755
G1 X68.467 Y107.828 E0.01457
G1 X68.316 Y107.803 E0.00480
G1 X68.085 Y107.831 E0.00731
G1 X67.849 Y107.771 E0.00764
G1 X67.743 Y107.768 E0.00332
G1 X67.139 Y107.811 E0.01900
G1 X66.445 Y107.831 E0.02177
G1 X65.718 Y107.822 E0.02279
G1 X64.965 Y107.779 E0.02364
G1 X64.193 Y107.696 E0.02434
G1 X63.408 Y107.570 E0.02495
G1 X62.616 Y107.395 E0.02542
G1 X61.845 Y107.171 E0.02518
G1 X60.704 Y106.640 E0.03945
G1 X59.452 Y105.750 E0.04818
G1 X58.339 Y104.553 E0.05125
G1 X57.995 Y103.944 E0.02192
G1 X57.674 Y103.127 E0.02753
G1 X57.384 Y102.106 E0.03329
G1 X57.150 Y100.898 E0.03857
G1 X57.004 Y99.527 E0.04323
G1 X56.981 Y98.021 E0.04723
G1 X57.113 Y96.407 E0.05076
G1 X57.432 Y94.752 E0.05285
G1 X81.032 Y94.753 E0.73996
G1 X81.563 Y94.763 E0.01666
G1 X82.132 Y94.827 E0.01796
G1 X82.912 Y95.036 E0.02531
G1 X83.671 Y94.827 E0.02468
G1 X84.233 Y94.763 E0.01773
G1 X85.239 Y94.752 E0.03157
G1 X98.876 Y94.753 E0.42755
G1 X99.396 Y94.763 E0.01631
G1 X99.954 Y94.827 E0.01764
G1 X100.713 Y95.036 E0.02466
G1 X101.489 Y94.827 E0.02519
G1 X102.057 Y94.763 E0.01791
G1 X102.586 Y94.753 E0.01661
G1 X131.252 Y94.752 E0.89878
M204 S1250
M73 P0 R104
G1 X130.888 Y95.129 F9000.000
M204 S800
;TYPE:External perimeter
G1 F1200.000
G1 X130.730 Y96.490 E0.04297
G1 X130.332 Y98.973 E0.07884
G1 X129.837 Y101.497 E0.08064
G1 X129.254 Y104.075 E0.08289
G1 X128.600 Y106.722 E0.08549
G1 X127.881 Y109.463 E0.08884
G1 X127.655 Y110.141 E0.02242
G1 X127.189 Y111.281 E0.03859
G1 X126.463 Y112.789 E0.05248
G1 X125.808 Y113.949 E0.04177
G1 X84.127 Y113.938 E1.30688
G1 X83.601 Y113.880 E0.01661
G1 X82.933 Y113.701 E0.02167
G1 X82.713 Y100.237 E0.42220
G1 X82.768 Y97.920 E0.07268
G1 X82.994 Y95.918 E0.06317
G1 X83.119 Y95.370 E0.01762
G1 X83.743 Y95.199 E0.02027
G1 X84.256 Y95.140 E0.01621
G1 X85.241 Y95.129 E0.03090
G1 X98.872 Y95.130 E0.42736
G1 X99.370 Y95.140 E0.01564
G1 X99.883 Y95.199 E0.01617
G1 X100.484 Y95.364 E0.01954
G1 X100.581 Y95.597 E0.00791
G1 X100.888 Y96.673 E0.03511
G1 X101.076 Y97.769 E0.03486
G1 X101.189 Y98.965 E0.03764
G1 X101.480 Y103.568 E0.14463
G1 X101.518 Y104.803 E0.03875
G1 X101.513 Y105.763 E0.03007
G1 X101.435 Y108.575 E0.08821
G1 X101.587 Y108.911 E0.01156
G1 X101.654 Y108.935 E0.00224
G1 X101.783 Y108.713 E0.00807
G1 X101.810 Y108.447 E0.00838
G1 X101.852 Y107.376 E0.03360
G1 X101.849 Y106.052 E0.04152
G1 X101.554 Y99.516 E0.20513
G1 X101.460 Y98.009 E0.04735
G1 X101.329 Y96.924 E0.03427
G1 X101.253 Y96.594 E0.01062
G1 X100.827 Y95.395 E0.03989
G1 X101.559 Y95.198 E0.02376
G1 X102.081 Y95.140 E0.01648
G1 X102.590 Y95.130 E0.01595
G1 X130.828 Y95.129 E0.88538
M204 S1250
G1 X131.287 Y95.160 F9000.000
G1 E-2.24000 F2400.000
;WIPE_START
G1 F7200.000
G1 X130.730 Y96.490 E-0.43216
G1 X130.490 Y97.986 E-0.47984
;WIPE_END
G1 E-0.04800 F2400.000
G1 Z0.400 F9000.000
G1 X82.577 Y104.924
G1 Z0.200
G1 E3.20000 F1500.000
M204 S800
G1 F1200.000
G1 X82.610 Y106.977 E0.06436
G1 X82.570 Y110.025 E0.09557
G1 X82.671 Y113.699 E0.11525
G1 X81.997 Y113.880 E0.02188
G1 X81.473 Y113.938 E0.01653
G1 X80.962 Y113.948 E0.01600
G1 X63.796 Y113.949 E0.53823
G1 X64.366 Y112.955 E0.03592
G1 X65.221 Y111.732 E0.04680
G1 X66.136 Y110.593 E0.04580
G1 X67.045 Y109.572 E0.04285
G1 X67.892 Y108.702 E0.03807
G1 X68.288 Y108.378 E0.01606
G1 X68.781 Y108.078 E0.01809
G1 X68.880 Y107.925 E0.00572
G1 X69.868 Y108.007 E0.03107
G1 X70.509 Y108.006 E0.02011
G1 X71.331 Y107.966 E0.02581
G1 X72.544 Y107.873 E0.03813
G1 X74.053 Y107.689 E0.04769
G1 X76.479 Y107.262 E0.07721
G1 X77.884 Y106.925 E0.04533
G1 X78.308 Y106.806 E0.01379
G1 X78.846 Y106.621 E0.01783
G1 X80.639 Y105.870 E0.06097
G1 X81.009 Y105.697 E0.01279
G1 X82.104 Y105.130 E0.03867
G1 X82.522 Y104.948 E0.01428
M204 S1250
G1 X82.971 Y104.859 F9000.000
G1 E-2.24000 F2400.000
;WIPE_START
G1 F7200.000
G1 X82.610 Y106.977 E-0.64295
G1 X82.599 Y107.826 E-0.26905
;WIPE_END
G1 E-0.04800 F2400.000
G1 Z0.400 F9000.000
G1 X57.743 Y95.129
G1 Z0.200
G1 E3.20000 F1500.000
M204 S800
G1 F1200.000
G1 X81.028 Y95.130 E0.73007
G1 X81.538 Y95.140 E0.01601
G1 X82.062 Y95.198 E0.01653
G1 X82.759 Y95.385 E0.02262
G1 X82.519 Y96.891 E0.04780
G1 X82.426 Y97.763 E0.02751
G1 X82.371 Y98.696 E0.02930
G1 X82.340 Y99.842 E0.03595
G1 X82.336 Y100.901 E0.03320
G1 X82.386 Y103.351 E0.07682
G1 X82.442 Y104.381 E0.03235
G1 X82.276 Y104.540 E0.00723
G1 X81.609 Y104.951 E0.02455
G1 X80.540 Y105.519 E0.03796
G1 X79.937 Y105.825 E0.02120
G1 X79.324 Y106.104 E0.02111
G1 X78.732 Y106.330 E0.01987
G1 X77.668 Y106.652 E0.03486
G1 X76.094 Y107.028 E0.05075
G1 X75.138 Y107.215 E0.03053
G1 X74.086 Y107.386 E0.03344
G1 X72.947 Y107.533 E0.03601
G1 X71.731 Y107.645 E0.03829
G1 X71.069 Y107.687 E0.02078
G1 X70.030 Y107.708 E0.03258
G1 X68.798 Y107.644 E0.03869
G1 X68.738 Y107.534 E0.00394
G1 X68.705 Y107.509 E0.00129
G1 X68.455 Y107.428 E0.00826
G1 X68.109 Y107.448 E0.01085
G1 X67.901 Y107.395 E0.00674
G1 X67.734 Y107.391 E0.00523
G1 X67.120 Y107.435 E0.01932
G1 X66.442 Y107.454 E0.02127
G1 X65.731 Y107.445 E0.02228
G1 X64.996 Y107.403 E0.02309
G1 X64.243 Y107.323 E0.02374
G1 X63.478 Y107.200 E0.02428
G1 X62.710 Y107.029 E0.02469
G1 X61.978 Y106.817 E0.02390
G1 X60.894 Y106.313 E0.03746
G1 X59.702 Y105.465 E0.04589
G1 X58.645 Y104.329 E0.04864
G1 X58.336 Y103.782 E0.01970
G1 X58.031 Y103.006 E0.02612
G1 X57.751 Y102.018 E0.03221
G1 X57.524 Y100.842 E0.03756
G1 X57.381 Y99.504 E0.04219
G1 X57.358 Y98.033 E0.04612
G1 X57.488 Y96.458 E0.04955
G1 X57.732 Y95.188 E0.04056
M204 S1250
G1 X57.761 Y94.729 F9000.000
G1 E-2.24000 F2400.000
;WIPE_START
G1 F7200.000
G1 X60.612 Y95.181 E-0.91200
;WIPE_END
G1 E-0.04800 F2400.000
G1 Z0.400 F9000.000
G1 X63.013 Y114.752
G1 Z0.200
G1 E3.20000 F1500.000
M204 S800
;TYPE:Perimeter
G1 F1200.000
G1 X81.035 Y114.753 E0.56507
G1 X81.567 Y114.763 E0.01669
G1 X82.137 Y114.827 E0.01799
G1 X82.874 Y115.024 E0.02391
G1 X83.603 Y114.827 E0.02369
G1 X84.172 Y114.763 E0.01795
G1 X85.195 Y114.752 E0.03209
G1 X124.794 Y114.752 E1.24158
G1 X125.239 Y115.582 E0.02954
G1 X124.439 Y116.786 E0.04532
G1 X122.768 Y118.896 E0.08441
G1 X120.738 Y121.018 E0.09205
G1 X118.326 Y123.058 E0.09905
G1 X115.509 Y124.922 E0.10593
G1 X112.275 Y126.510 E0.11294
G1 X110.927 Y127.010 E0.04508
G1 X109.131 Y127.575 E0.05903
G1 X106.961 Y128.157 E0.07047
G1 X104.500 Y128.703 E0.07901
G1 X101.840 Y129.160 E0.08464
G1 X99.067 Y129.470 E0.08750
G1 X96.268 Y129.579 E0.08781
M73 P1 R104
G1 X93.530 Y129.428 E0.08599
G1 X90.935 Y128.953 E0.08271
G1 X88.606 Y128.094 E0.07783
G1 X87.503 Y127.512 E0.03910
G1 X86.540 Y126.917 E0.03549
G1 X85.694 Y126.319 E0.03249
G1 X84.962 Y125.736 E0.02933
G1 X84.339 Y125.180 E0.02618
G1 X83.833 Y124.647 E0.02304
G1 X83.377 Y124.040 E0.02382
G1 X83.186 Y124.196 E0.00775
G1 X82.831 Y124.403 E0.01289
G1 X82.182 Y124.715 E0.02258
G1 X80.919 Y125.221 E0.04266
G1 X79.389 Y125.741 E0.05064
G1 X77.624 Y126.221 E0.05735
G1 X75.659 Y126.605 E0.06278
G1 X73.531 Y126.835 E0.06712
G1 X71.275 Y126.852 E0.07073
G1 X69.306 Y126.640 E0.06210
G1 X68.760 Y126.533 E0.01743
G1 X67.199 Y125.708 E0.05537
G1 X66.417 Y125.126 E0.03056
G1 X65.659 Y124.459 E0.03166
G1 X64.855 Y123.617 E0.03652
G1 X64.067 Y122.599 E0.04035
G1 X63.363 Y121.402 E0.04354
G1 X62.812 Y120.030 E0.04638
G1 X62.486 Y118.488 E0.04940
G1 X62.459 Y116.782 E0.05350
G1 X62.738 Y115.419 E0.04362
G1 X62.990 Y114.807 E0.02075
M204 S1250
G1 E-2.24000 F2400.000
;WIPE_START
G1 F7200.000
G1 X65.870 Y114.799 E-0.91200
;WIPE_END
G1 E-0.04800 F2400.000
G1 Z0.400 F9000.000
G1 X82.996 Y115.381
G1 Z0.200
G1 E3.20000 F1500.000
M204 S800
;TYPE:External perimeter
G1 F1200.000
G1 X83.674 Y115.198 E0.02200
G1 X84.195 Y115.140 E0.01646
G1 X85.198 Y115.129 E0.03143
G1 X124.568 Y115.129 E1.23443
G1 X124.800 Y115.562 E0.01539
G1 X124.133 Y116.564 E0.03775
G1 X122.483 Y118.649 E0.08336
G1 X120.480 Y120.743 E0.09087
G1 X118.100 Y122.756 E0.09773
G1 X115.321 Y124.594 E0.10448
G1 X112.126 Y126.163 E0.11158
G1 X110.805 Y126.653 E0.04418
G1 X109.026 Y127.213 E0.05848
G1 X106.871 Y127.790 E0.06996
G1 X104.428 Y128.332 E0.07847
G1 X101.787 Y128.786 E0.08401
G1 X99.038 Y129.094 E0.08673
G1 X96.271 Y129.201 E0.08683
G1 X93.574 Y129.053 E0.08469
G1 X91.035 Y128.588 E0.08094
G1 X88.760 Y127.749 E0.07602
G1 X87.691 Y127.184 E0.03792
G1 X86.748 Y126.602 E0.03473
G1 X85.920 Y126.017 E0.03179
G1 X85.205 Y125.448 E0.02866
G1 X84.602 Y124.909 E0.02536
G1 X84.121 Y124.403 E0.02189
G1 X83.755 Y123.919 E0.01903
G1 X83.761 Y123.313 E0.01900
G1 X83.644 Y122.123 E0.03749
G1 X83.466 Y120.761 E0.04306
G1 X83.147 Y117.566 E0.10069
G1 X83.000 Y115.441 E0.06677
M204 S1250
G1 X82.915 Y114.990 F9000.000
G1 X82.733 Y115.457
M204 S800
G1 F1200.000
G1 X82.843 Y117.332 E0.05890
G1 X83.099 Y119.814 E0.07822
G1 X83.264 Y122.121 E0.07253
G1 X83.407 Y123.527 E0.04432
G1 X82.970 Y123.886 E0.01773
G1 X82.654 Y124.070 E0.01147
G1 X82.030 Y124.370 E0.02171
G1 X80.788 Y124.868 E0.04195
G1 X79.279 Y125.380 E0.04995
G1 X77.539 Y125.854 E0.05656
G1 X75.603 Y126.232 E0.06184
G1 X73.509 Y126.458 E0.06603
G1 X71.294 Y126.475 E0.06946
G1 X69.362 Y126.267 E0.06092
G1 X68.887 Y126.174 E0.01517
G1 X67.401 Y125.388 E0.05271
G1 X66.655 Y124.833 E0.02917
G1 X65.920 Y124.187 E0.03066
G1 X65.141 Y123.371 E0.03538
G1 X64.380 Y122.387 E0.03899
G1 X63.702 Y121.235 E0.04191
G1 X63.174 Y119.920 E0.04446
G1 X62.862 Y118.446 E0.04723
G1 X62.837 Y116.818 E0.05106
G1 X63.101 Y115.530 E0.04122
G1 X63.265 Y115.129 E0.01359
G1 X81.031 Y115.130 E0.55703
G1 X81.542 Y115.140 E0.01604
G1 X82.067 Y115.198 E0.01656
G1 X82.729 Y115.375 E0.02147
G1 X82.730 Y115.397 E0.00067
M204 S1250
G1 X83.132 Y115.490 F9000.000
G1 E-2.24000 F2400.000
;WIPE_START
G1 F7200.000
G1 X82.843 Y117.332 E-0.61390
G1 X82.939 Y118.269 E-0.29810
;WIPE_END
G1 E-0.04800 F2400.000
G1 Z0.400 F9000.000
G1 X58.888 Y76.752
G1 Z0.200
G1 E3.20000 F1500.000
M204 S800
;TYPE:Perimeter
G1 F1200.000
G1 X97.194 Y76.753 E1.20107
G1 X97.724 Y76.763 E0.01663
G1 X98.293 Y76.827 E0.01793
G1 X99.055 Y77.032 E0.02474
G1 X99.808 Y76.827 E0.02447
G1 X100.375 Y76.763 E0.01787
G1 X101.392 Y76.752 E0.03190
G1 X129.559 Y76.752 E0.88314
G1 X129.964 Y78.215 E0.04759
G1 X130.633 Y81.163 E0.09481
G1 X131.160 Y84.148 E0.09503
G1 X131.451 Y86.655 E0.07914
G1 X131.579 Y89.138 E0.07794
G1 X131.554 Y91.604 E0.07733
G1 X131.374 Y94.326 E0.08554
G1 X101.734 Y94.326 E0.92934
G1 X101.209 Y94.317 E0.01647
G1 X100.655 Y94.266 E0.01745
G1 X99.798 Y94.085 E0.02748
G1 X99.778 Y94.037 E0.00162
G1 X99.003 Y94.251 E0.02520
G1 X98.446 Y94.315 E0.01759
G1 X97.927 Y94.325 E0.01626
G1 X84.792 Y94.315 E0.41187
G1 X84.231 Y94.251 E0.01768
G1 X83.504 Y94.050 E0.02365
G1 X82.624 Y94.259 E0.02835
G1 X82.064 Y94.316 E0.01766
G1 X81.536 Y94.325 E0.01654
G1 X57.561 Y94.326 E0.75173
G1 X58.085 Y92.646 E0.05520
G1 X58.881 Y90.887 E0.06053
G1 X59.793 Y89.410 E0.05443
G1 X60.787 Y88.184 E0.04947
G1 X61.825 Y87.176 E0.04537
G1 X62.868 Y86.353 E0.04166
G1 X63.878 Y85.673 E0.03816
G1 X64.870 Y85.095 E0.03600
G1 X65.186 Y84.960 E0.01078
G1 X65.320 Y84.880 E0.00489
G1 X65.343 Y84.836 E0.00156
G1 X65.321 Y84.741 E0.00306
G1 X65.256 Y84.671 E0.00298
G1 X65.035 Y84.510 E0.00859
G1 X64.232 Y84.200 E0.02698
G1 X63.663 Y83.886 E0.02038
G1 X63.072 Y83.517 E0.02184
G1 X62.774 Y83.307 E0.01145
