; generated by PrusaSlicer 2.3.3+win64 on 2022-05-10 at 11:56:03 UTC


;
;

;
;
; 

; external perimeters extrusion width = 0.45mm
; perimeters extrusion width = 0.45mm
; infill extrusion width = 0.45mm
; solid infill extrusion width = 0.45mm
; top infill extrusion width = 0.40mm
; first layer extrusion width = 0.42mm

M73 P0 R64
M201 X1250 Y1250 Z400 E5000 ; sets maximum accelerations, mm/sec^2
M203 X180 Y180 Z12 E80 ; sets maximum feedrates, mm/sec
M204 P1250 R1250 T1250 ; sets acceleration (P, T) and retract acceleration (R), mm/sec^2
M205 X8.00 Y8.00 Z2.00 E10.00 ; sets the jerk limits, mm/sec
M205 S0 T0 ; sets the minimum extruding and travel feed rate, mm/sec
M107
;TYPE:Custom
G90 ; use absolute coordinates
M83 ; extruder relative mode
M104 S170 ; set extruder temp for bed leveling
M140 S85 ; set bed temp
M109 R170 ; wait for bed leveling temp
M190 S85 ; wait for bed temp
G28 ; home all without mesh bed level
G29 ; mesh bed leveling 
M104 S230 ; set extruder temp
G92 E0.0
G1 Y-2.0 X179 F2400
G1 Z3 F720
M109 S230 ; wait for extruder temp

; intro line
G1 X170 F1000
G1 Z0.2 F720
G1 X110.0 E8.0 F900
G1 X40.0 E10.0 F700
G92 E0.0

M221 S95 ; set flow
G21 ; set units to millimeters
G90 ; use absolute coordinates
M83 ; use relative distances for extrusion
M900 K0.2 ; Filament gcode
;LAYER_CHANGE
;Z:0.2
;HEIGHT:0.2
;BEFORE_LAYER_CHANGE
G92 E0.0
;0.2


G1 E-3.20000 F2400.000
G1 Z0.200 F9000.000
;AFTER_LAYER_CHANGE
;0.2
G1 Z0.400
G1 X60.647 Y47.123
G1 Z0.200
G1 E3.20000 F1500.000
M204 S800
;TYPE:Skirt
;WIDTH:0.42
G1 F1200.000
G1 X61.991 Y45.613 E0.06337
G1 X63.015 Y44.628 E0.04454
G1 X64.311 Y43.650 E0.05092
G1 X65.520 Y42.928 E0.04415
G1 X66.849 Y42.303 E0.04605
G1 X68.465 Y41.719 E0.05388
G1 X70.133 Y41.276 E0.05413
G1 X71.949 Y40.939 E0.05789
G1 X75.683 Y40.589 E0.11758
G1 X77.859 Y40.542 E0.06827
G1 X81.247 Y40.638 E0.10626
G1 X84.420 Y40.872 E0.09976
G1 X104.588 Y43.042 E0.63601
G1 X106.791 Y43.415 E0.07005
G1 X108.840 Y43.931 E0.06623
G1 X110.830 Y44.603 E0.06586
G1 X112.928 Y45.506 E0.07162
G1 X114.835 Y46.521 E0.06773
G1 X116.810 Y47.793 E0.07368
G1 X118.512 Y49.091 E0.06711
G1 X120.206 Y50.600 E0.07113
G1 X121.782 Y52.236 E0.07122
G1 X123.222 Y53.964 E0.07055
G1 X125.020 Y56.434 E0.09577
G1 X126.726 Y59.109 E0.09948
G1 X128.317 Y61.952 E0.10214
G1 X129.735 Y64.825 E0.10048
G1 X131.038 Y67.824 E0.10249
G1 X132.265 Y71.067 E0.10875
G1 X133.298 Y74.237 E0.10452
G1 X134.200 Y77.515 E0.10661
G1 X134.945 Y80.830 E0.10653
G1 X135.516 Y84.114 E0.10451
G1 X135.890 Y87.258 E0.09926
G1 X136.047 Y90.171 E0.09146
G1 X136.028 Y93.039 E0.08995
G1 X135.839 Y96.045 E0.09441
G1 X135.520 Y98.854 E0.08867
G1 X135.066 Y101.722 E0.09103
G1 X133.882 Y107.354 E0.18044
G1 X132.434 Y113.038 E0.18392
G1 X131.915 Y114.651 E0.05313
G1 X131.079 Y116.670 E0.06851
G1 X129.976 Y118.867 E0.07708
G1 X128.435 Y121.446 E0.09420
G1 X126.644 Y123.978 E0.09722
G1 X124.502 Y126.532 E0.10451
G1 X121.900 Y129.122 E0.11513
G1 X118.808 Y131.630 E0.12481
G1 X115.382 Y133.828 E0.12763
G1 X111.486 Y135.726 E0.13589
G1 X109.217 Y136.559 E0.07578
G1 X106.005 Y137.512 E0.10504
G1 X104.050 Y137.999 E0.06319
G1 X99.677 Y138.849 E0.13965
G1 X97.263 Y139.171 E0.07636
G1 X94.854 Y139.378 E0.07582
G1 X92.276 Y139.458 E0.08089
G1 X88.475 Y139.254 E0.11932
G1 X64.788 Y136.593 E0.74736
G1 X63.275 Y136.370 E0.04795
G1 X61.432 Y135.876 E0.05982
G1 X59.581 Y135.058 E0.06347
G1 X57.810 Y133.973 E0.06511
G1 X56.085 Y132.605 E0.06905
G1 X54.636 Y131.187 E0.06354
G1 X53.325 Y129.627 E0.06390
G1 X52.090 Y127.832 E0.06832
G1 X51.010 Y125.841 E0.07104
G1 X50.200 Y123.823 E0.06817
G1 X45.002 Y106.640 E0.56285
G1 X44.310 Y104.002 E0.08552
G1 X43.957 Y101.094 E0.09184
G1 X43.988 Y98.042 E0.09571
G1 X46.011 Y76.343 E0.68331
G1 X46.382 Y73.838 E0.07938
G1 X47.097 Y71.366 E0.08070
G1 X48.217 Y68.804 E0.08766
G1 X59.253 Y49.120 E0.70758
G1 X60.613 Y47.172 E0.07448
M204 S1250
; printing object Grand Blad.stl id:0 copy 0
G1 E-2.24000 F2400.000
;WIPE_START
G1 F7200.000
G1 X61.991 Y45.613 E-0.65889
G1 X62.567 Y45.059 E-0.25311
;WIPE_END
G1 E-0.04800 F2400.000
G1 Z0.400 F9000.000
G1 X62.792 Y110.283
M73 P0 R63
G1 Z0.200
G1 E3.20000 F1500.000
M204 S800
;TYPE:Perimeter
G1 F1200.000
G1 X124.412 Y110.283 E1.93206
G1 X123.957 Y111.653 E0.04525
G1 X123.482 Y112.814 E0.03935
G1 X122.746 Y114.344 E0.05323
G1 X121.722 Y116.158 E0.06532
G1 X120.387 Y118.166 E0.07561
G1 X118.716 Y120.277 E0.08441
G1 X116.687 Y122.399 E0.09205
G1 X114.274 Y124.438 E0.09905
G1 X111.457 Y126.303 E0.10593
G1 X108.224 Y127.891 E0.11294
G1 X106.876 Y128.390 E0.04508
G1 X105.080 Y128.955 E0.05903
G1 X102.909 Y129.537 E0.07047
G1 X100.448 Y130.083 E0.07901
G1 X97.788 Y130.540 E0.08464
G1 X95.015 Y130.851 E0.08750
G1 X92.216 Y130.959 E0.08781
G1 X89.478 Y130.809 E0.08599
G1 X86.883 Y130.333 E0.08271
G1 X84.554 Y129.475 E0.07783
G1 X83.451 Y128.892 E0.03910
G1 X82.488 Y128.297 E0.03549
M73 P1 R63
G1 X81.642 Y127.699 E0.03249
G1 X80.911 Y127.117 E0.02931
G1 X80.295 Y126.569 E0.02584
G1 X79.790 Y126.076 E0.02213
G1 X79.308 Y125.548 E0.02244
G1 X78.124 Y126.098 E0.04094
G1 X76.867 Y126.602 E0.04247
G1 X75.338 Y127.122 E0.05063
G1 X73.572 Y127.602 E0.05735
G1 X71.607 Y127.985 E0.06278
G1 X69.479 Y128.215 E0.06712
G1 X67.223 Y128.233 E0.07073
G1 X64.854 Y127.977 E0.07471
G1 X64.109 Y127.750 E0.02444
G1 X63.321 Y127.345 E0.02778
G1 X62.519 Y126.796 E0.03045
G1 X61.716 Y126.119 E0.03292
G1 X60.931 Y125.331 E0.03490
G1 X60.184 Y124.444 E0.03634
G1 X59.503 Y123.473 E0.03719
G1 X58.915 Y122.431 E0.03750
G1 X58.448 Y121.332 E0.03746
G1 X58.136 Y120.196 E0.03695
G1 X58.038 Y119.431 E0.02417
G1 X58.035 Y118.627 E0.02521
G1 X58.130 Y117.792 E0.02634
G1 X58.319 Y116.933 E0.02758
G1 X58.604 Y116.055 E0.02895
G1 X58.984 Y115.166 E0.03030
G1 X59.460 Y114.272 E0.03176
G1 X60.035 Y113.379 E0.03328
G1 X60.708 Y112.495 E0.03484
G1 X61.473 Y111.637 E0.03605
G1 X62.750 Y110.326 E0.05738
M204 S1250
G1 X62.951 Y110.661 F9000.000
M204 S800
;TYPE:External perimeter
G1 F1200.000
G1 X123.889 Y110.661 E1.91068
G1 X123.603 Y111.522 E0.02846
G1 X123.137 Y112.661 E0.03859
G1 X122.411 Y114.169 E0.05248
G1 X121.400 Y115.961 E0.06450
G1 X120.082 Y117.945 E0.07469
G1 X118.431 Y120.029 E0.08336
G1 X116.428 Y122.124 E0.09087
G1 X114.048 Y124.136 E0.09773
G1 X111.269 Y125.975 E0.10448
G1 X108.075 Y127.544 E0.11158
G1 X106.753 Y128.034 E0.04418
G1 X104.974 Y128.593 E0.05848
G1 X102.819 Y129.171 E0.06996
G1 X100.376 Y129.713 E0.07847
G1 X97.735 Y130.167 E0.08401
G1 X94.986 Y130.475 E0.08673
G1 X92.219 Y130.582 E0.08683
G1 X89.522 Y130.433 E0.08469
G1 X86.983 Y129.968 E0.08094
G1 X84.708 Y129.130 E0.07602
G1 X83.639 Y128.565 E0.03792
G1 X82.696 Y127.983 E0.03473
G1 X81.868 Y127.398 E0.03179
G1 X81.153 Y126.828 E0.02865
G1 X80.552 Y126.294 E0.02524
G1 X80.060 Y125.813 E0.02156
G1 X79.404 Y125.076 E0.03092
G1 X78.910 Y125.326 E0.01737
G1 X77.976 Y125.752 E0.03218
G1 X76.736 Y126.248 E0.04188
G1 X75.227 Y126.761 E0.04995
G1 X73.487 Y127.234 E0.05656
G1 X71.551 Y127.612 E0.06184
G1 X69.457 Y127.838 E0.06603
G1 X67.242 Y127.856 E0.06946
G1 X64.930 Y127.606 E0.07291
G1 X64.251 Y127.399 E0.02226
G1 X63.514 Y127.020 E0.02597
G1 X62.748 Y126.495 E0.02912
G1 X61.972 Y125.842 E0.03182
G1 X61.209 Y125.076 E0.03389
G1 X60.483 Y124.214 E0.03533
G1 X59.822 Y123.271 E0.03609
G1 X59.254 Y122.264 E0.03626
G1 X58.804 Y121.208 E0.03600
G1 X58.507 Y120.121 E0.03532
G1 X58.415 Y119.406 E0.02260
G1 X58.412 Y118.648 E0.02378
G1 X58.503 Y117.854 E0.02505
G1 X58.683 Y117.032 E0.02640
G1 X58.957 Y116.187 E0.02784
G1 X59.324 Y115.329 E0.02927
G1 X59.786 Y114.463 E0.03077
G1 X60.344 Y113.596 E0.03232
G1 X60.999 Y112.735 E0.03392
G1 X61.749 Y111.894 E0.03534
G1 X62.909 Y110.703 E0.05213
M204 S1250
G1 X63.051 Y110.273 F9000.000
G1 E-2.24000 F2400.000
;WIPE_START
G1 F7200.000
G1 X65.789 Y110.701 E-0.91200
;WIPE_END
G1 E-0.04800 F2400.000
G1 Z0.400 F9000.000
G1 X64.032 Y109.858
G1 Z0.200
G1 E3.20000 F1500.000
M204 S800
;TYPE:Perimeter
G1 F1200.000
G1 X63.816 Y109.195 E0.02185
G1 X63.771 Y109.155 E0.00191
G1 X62.393 Y109.212 E0.04325
G1 X61.666 Y109.202 E0.02279
G1 X60.913 Y109.159 E0.02364
G1 X60.141 Y109.077 E0.02434
G1 X59.356 Y108.951 E0.02495
G1 X58.564 Y108.775 E0.02542
G1 X57.773 Y108.545 E0.02585
G1 X56.989 Y108.255 E0.02621
G1 X56.186 Y107.883 E0.02774
G1 X55.095 Y107.112 E0.04188
G1 X54.181 Y106.040 E0.04417
G1 X53.479 Y104.750 E0.04606
G1 X52.976 Y103.284 E0.04858
G1 X52.672 Y101.678 E0.05126
G1 X52.567 Y99.964 E0.05384
G1 X52.665 Y98.176 E0.05613
G1 X52.973 Y96.347 E0.05815
G1 X53.498 Y94.511 E0.05989
G1 X54.247 Y92.712 E0.06110
G1 X54.764 Y91.757 E0.03404
G1 X55.348 Y90.879 E0.03309
G1 X55.817 Y90.283 E0.02374
G1 X127.529 Y90.283 E2.24849
G1 X127.502 Y92.984 E0.08469
G1 X127.340 Y95.448 E0.07741
G1 X127.051 Y97.922 E0.07810
G1 X126.651 Y100.420 E0.07930
G1 X126.154 Y102.955 E0.08101
G1 X125.569 Y105.544 E0.08322
G1 X124.482 Y109.858 E0.13948
G1 X64.092 Y109.858 E1.89347
M204 S1250
G1 X64.306 Y109.481 F9000.000
M204 S800
;TYPE:External perimeter
G1 F1200.000
G1 X64.161 Y109.037 E0.01462
G1 X64.105 Y108.944 E0.00341
G1 X64.030 Y108.868 E0.00336
G1 X63.941 Y108.812 E0.00330
G1 X63.835 Y108.780 E0.00347
G1 X63.678 Y108.773 E0.00493
G1 X63.067 Y108.815 E0.01918
G1 X62.390 Y108.835 E0.02126
G1 X61.679 Y108.825 E0.02228
G1 X60.944 Y108.783 E0.02309
G1 X60.191 Y108.703 E0.02374
G1 X59.427 Y108.580 E0.02428
G1 X58.658 Y108.410 E0.02469
G1 X57.891 Y108.187 E0.02504
G1 X57.134 Y107.906 E0.02532
G1 X56.375 Y107.555 E0.02621
G1 X55.351 Y106.832 E0.03932
G1 X54.494 Y105.825 E0.04145
G1 X53.825 Y104.597 E0.04383
G1 X53.341 Y103.188 E0.04673
G1 X53.047 Y101.631 E0.04966
G1 X52.945 Y99.963 E0.05241
G1 X53.040 Y98.218 E0.05479
G1 X53.341 Y96.431 E0.05683
G1 X53.855 Y94.636 E0.05854
G1 X54.588 Y92.875 E0.05982
G1 X55.088 Y91.952 E0.03290
G1 X55.654 Y91.100 E0.03208
G1 X56.000 Y90.661 E0.01753
G1 X127.148 Y90.661 E2.23081
G1 X127.125 Y92.970 E0.07242
G1 X126.964 Y95.414 E0.07679
G1 X126.678 Y97.871 E0.07756
G1 X126.280 Y100.353 E0.07884
G1 X125.785 Y102.877 E0.08064
G1 X125.202 Y105.456 E0.08290
G1 X124.188 Y109.481 E0.13012
G1 X64.366 Y109.481 E1.87568
M204 S1250
G1 X63.917 Y109.573 F9000.000
G1 E-2.24000 F2400.000
;WIPE_START
G1 F7200.000
G1 X64.161 Y109.037 E-0.15461
G1 X64.105 Y108.944 E-0.03439
G1 X64.030 Y108.868 E-0.03394
G1 X63.941 Y108.812 E-0.03334
G1 X63.835 Y108.780 E-0.03503
G1 X63.678 Y108.773 E-0.04980
G1 X63.067 Y108.815 E-0.19371
G1 X62.390 Y108.835 E-0.21471
G1 X61.877 Y108.828 E-0.16245
;WIPE_END
G1 E-0.04800 F2400.000
G1 Z0.400 F9000.000
G1 X122.775 Y70.283
G1 Z0.200
G1 E3.20000 F1500.000
M204 S800
;TYPE:Perimeter
G1 F1200.000
G1 X123.142 Y71.129 E0.02890
G1 X124.182 Y73.869 E0.09189
G1 X125.109 Y76.698 E0.09333
G1 X125.912 Y79.595 E0.09427
G1 X126.581 Y82.544 E0.09481
G1 X127.108 Y85.529 E0.09503
G1 X127.399 Y88.036 E0.07914
G1 X127.493 Y89.858 E0.05720
G1 X57.544 Y89.858 E2.19320
G1 X57.165 Y88.827 E0.03443
G1 X58.061 Y88.064 E0.03689
G1 X58.764 Y87.528 E0.02773
G1 X59.452 Y87.053 E0.02623
G1 X60.784 Y86.240 E0.04892
G1 X60.839 Y86.128 E0.00389
G1 X60.837 Y86.015 E0.00357
G1 X60.763 Y85.891 E0.00452
G1 X59.615 Y85.268 E0.04094
G1 X59.020 Y84.898 E0.02197
G1 X58.420 Y84.474 E0.02304
G1 X57.816 Y83.989 E0.02428
G1 X57.221 Y83.436 E0.02547
G1 X56.644 Y82.810 E0.02671
G1 X56.096 Y82.104 E0.02802
G1 X55.587 Y81.314 E0.02946
G1 X55.114 Y80.415 E0.03187
G1 X54.714 Y79.223 E0.03941
G1 X54.560 Y77.922 E0.04109
G1 X54.634 Y76.574 E0.04231
G1 X54.915 Y75.208 E0.04374
G1 X55.385 Y73.848 E0.04510
G1 X56.032 Y72.522 E0.04627
G1 X56.841 Y71.256 E0.04711
G1 X57.636 Y70.283 E0.03939
G1 X122.715 Y70.283 E2.04050
M204 S1250
G1 X122.528 Y70.661 F9000.000
M204 S800
;TYPE:External perimeter
G1 F1200.000
G1 X122.792 Y71.271 E0.02087
G1 X123.826 Y73.995 E0.09134
G1 X124.748 Y76.807 E0.09279
M73 P2 R63
G1 X125.546 Y79.687 E0.09372
G1 X126.212 Y82.618 E0.09424
G1 X126.734 Y85.583 E0.09439
G1 X127.023 Y88.067 E0.07841
G1 X127.096 Y89.481 E0.04437
G1 X57.807 Y89.481 E2.17251
G1 X57.609 Y88.944 E0.01793
G1 X58.297 Y88.358 E0.02832
G1 X58.986 Y87.834 E0.02714
G1 X59.658 Y87.369 E0.02562
G1 X61.027 Y86.533 E0.05031
G1 X61.112 Y86.439 E0.00397
G1 X61.175 Y86.324 E0.00409
G1 X61.212 Y86.197 E0.00416
G1 X61.223 Y86.063 E0.00422
G1 X61.206 Y85.929 E0.00424
G1 X61.162 Y85.803 E0.00417
G1 X61.094 Y85.691 E0.00412
G1 X61.002 Y85.596 E0.00414
G1 X59.804 Y84.942 E0.04281
G1 X59.229 Y84.583 E0.02124
G1 X58.647 Y84.173 E0.02233
G1 X58.063 Y83.704 E0.02348
G1 X57.489 Y83.170 E0.02459
G1 X56.932 Y82.566 E0.02576
G1 X56.404 Y81.886 E0.02700
G1 X55.913 Y81.124 E0.02841
G1 X55.462 Y80.266 E0.03039
G1 X55.084 Y79.140 E0.03725
G1 X54.938 Y77.910 E0.03885
G1 X55.009 Y76.623 E0.04041
G1 X55.279 Y75.308 E0.04209
G1 X55.734 Y73.993 E0.04362
G1 X56.361 Y72.707 E0.04487
G1 X57.147 Y71.477 E0.04574
G1 X57.815 Y70.661 E0.03309
G1 X122.468 Y70.661 E2.02713
M204 S1250
G1 X122.912 Y70.551 F9000.000
G1 X122.468 Y69.858
M204 S800
;TYPE:Perimeter
G1 F1200.000
G1 X59.714 Y69.858 E1.96758
G1 X59.337 Y68.706 E0.03800
G1 X60.132 Y68.123 E0.03092
G1 X61.118 Y67.536 E0.03598
G1 X62.127 Y67.011 E0.03565
G1 X63.154 Y66.539 E0.03542
G1 X64.185 Y66.118 E0.03492
G1 X65.202 Y65.744 E0.03399
G1 X66.197 Y65.411 E0.03288
G1 X68.037 Y64.876 E0.06011
G1 X69.549 Y64.497 E0.04886
G1 X69.636 Y64.466 E0.00291
G1 X69.690 Y64.415 E0.00234
G1 X69.694 Y64.327 E0.00275
G1 X69.633 Y64.249 E0.00312
G1 X69.210 Y63.859 E0.01802
G1 X68.730 Y63.378 E0.02133
G1 X68.248 Y62.849 E0.02241
G1 X67.777 Y62.278 E0.02322
G1 X67.329 Y61.668 E0.02372
G1 X66.912 Y61.025 E0.02404
G1 X66.540 Y60.350 E0.02416
G1 X66.224 Y59.647 E0.02419
G1 X65.979 Y58.917 E0.02413
G1 X65.821 Y58.173 E0.02385
G1 X65.726 Y57.154 E0.03210
G1 X65.755 Y56.219 E0.02932
G1 X65.895 Y55.368 E0.02704
G1 X66.127 Y54.600 E0.02516
G1 X66.432 Y53.913 E0.02358
G1 X66.786 Y53.303 E0.02210
G1 X67.168 Y52.763 E0.02073
G1 X67.559 Y52.285 E0.01938
G1 X68.335 Y51.427 E0.03625
G1 X69.866 Y50.354 E0.05863
G1 X71.952 Y49.660 E0.06893
G1 X74.368 Y49.275 E0.07672
G1 X76.989 Y49.122 E0.08230
G1 X79.674 Y49.145 E0.08421
G1 X82.279 Y49.288 E0.08178
G1 X84.653 Y49.504 E0.07474
G1 X86.642 Y49.741 E0.06282
G1 X88.099 Y49.950 E0.04615
G1 X88.872 Y50.085 E0.02459
G1 X89.462 Y50.213 E0.01893
G1 X90.066 Y50.371 E0.01959
G1 X91.256 Y50.753 E0.03918
G1 X91.855 Y50.976 E0.02003
G1 X92.983 Y51.452 E0.03838
G1 X93.525 Y51.706 E0.01879
G1 X94.276 Y52.097 E0.02653
G1 X96.702 Y51.864 E0.07642
G1 X99.165 Y51.676 E0.07746
G1 X100.433 Y51.605 E0.03983
G1 X101.629 Y51.565 E0.03751
G1 X102.693 Y51.567 E0.03336
G1 X103.561 Y51.627 E0.02728
G1 X105.190 Y51.907 E0.05180
G1 X106.744 Y52.316 E0.05041
G1 X108.230 Y52.850 E0.04951
G1 X109.645 Y53.500 E0.04880
G1 X110.987 Y54.258 E0.04832
G1 X112.255 Y55.114 E0.04799
G1 X113.449 Y56.062 E0.04778
G1 X114.568 Y57.093 E0.04772
M73 P2 R62
G1 X115.612 Y58.199 E0.04769
G1 X116.580 Y59.372 E0.04769
G1 X118.043 Y61.404 E0.07849
G1 X119.439 Y63.613 E0.08195
G1 X120.761 Y65.983 E0.08506
G1 X121.999 Y68.494 E0.08779
G1 X122.590 Y69.858 E0.04661
G1 X122.528 Y69.858 E0.00197
M204 S1250
G1 X122.016 Y69.481 F9000.000
M204 S800
;TYPE:External perimeter
G1 F1200.000
G1 X59.988 Y69.481 E1.94485
G1 X59.781 Y68.848 E0.02086
G1 X60.341 Y68.437 E0.02178
G1 X61.302 Y67.865 E0.03507
G1 X62.293 Y67.350 E0.03503
G1 X63.304 Y66.885 E0.03489
G1 X64.321 Y66.469 E0.03445
G1 X65.327 Y66.100 E0.03360
G1 X66.309 Y65.771 E0.03247
G1 X68.136 Y65.240 E0.05965
G1 X69.658 Y64.858 E0.04920
G1 X69.802 Y64.807 E0.00478
G1 X69.898 Y64.747 E0.00356
G1 X70.029 Y64.585 E0.00653
G1 X70.080 Y64.389 E0.00636
G1 X70.074 Y64.286 E0.00324
G1 X69.996 Y64.091 E0.00657
G1 X69.003 Y63.117 E0.04361
G1 X68.534 Y62.602 E0.02185
G1 X68.075 Y62.046 E0.02261
G1 X67.639 Y61.454 E0.02305
G1 X67.236 Y60.831 E0.02326
G1 X66.877 Y60.182 E0.02326
G1 X66.575 Y59.509 E0.02312
G1 X66.343 Y58.818 E0.02287
G1 X66.194 Y58.116 E0.02248
G1 X66.104 Y57.142 E0.03067
G1 X66.132 Y56.256 E0.02781
G1 X66.263 Y55.454 E0.02549
G1 X66.481 Y54.732 E0.02365
G1 X66.769 Y54.084 E0.02221
G1 X67.103 Y53.507 E0.02092
G1 X67.468 Y52.992 E0.01979
G1 X67.845 Y52.531 E0.01868
