; generated by PrusaSlicer 2.5.0+win64 on 2022-09-26 at 10:24:30 UTC


;
;

;
;
; 

; external perimeters extrusion width = 0.45mm
; perimeters extrusion width = 0.45mm
; infill extrusion width = 0.45mm
; solid infill extrusion width = 0.45mm
; top infill extrusion width = 0.40mm
; first layer extrusion width = 0.42mm

M73 P0 R56
M201 X2500 Y2500 Z400 E5000 ; sets maximum accelerations, mm/sec^2
M203 X180 Y180 Z12 E80 ; sets maximum feedrates, mm / sec
M204 P1250 R1250 T2500 ; sets acceleration (P, T) and retract acceleration (R), mm/sec^2
M205 X8.00 Y8.00 Z2.00 E10.00 ; sets the jerk limits, mm/sec
M205 S0 T0 ; sets the minimum extruding and travel feed rate, mm/sec
M107
;TYPE:Custom
M862.3 P "MINI" ; printer model check
G90 ; use absolute coordinates
M83 ; extruder relative mode
M104 S170 ; set extruder temp for bed leveling
M140 S85 ; set bed temp
M109 R170 ; wait for bed leveling temp
M190 S85 ; wait for bed temp
M204 T1250 ; set travel acceleration
G28 ; home all without mesh bed level
G29 ; mesh bed leveling 
M204 T2500 ; restore travel acceleration
M104 S230 ; set extruder temp
G92 E0
G1 Y-2 X179 F2400
G1 Z3 F720
M109 S230 ; wait for extruder temp

; intro line
G1 X170 F1000
G1 Z0.2 F720
G1 X110 E8 F900
G1 X40 E10 F700
G92 E0

M221 S95 ; set flow
G21 ; set units to millimeters
G90 ; use absolute coordinates
M83 ; use relative distances for extrusion
M900 K0.2 ; Filament gcode
M107
;LAYER_CHANGE
;Z:0.2
;HEIGHT:0.2
;BEFORE_LAYER_CHANGE
G92 E0.0
;0.2


G1 E-3.2 F2700
M73 P0 R55
G1 Z.2 F720
;AFTER_LAYER_CHANGE
;0.2
G1 Z.4
G1 X70.537 Y63.259 F9000
G1 Z.2 F720
G1 E3.2 F1500
M204 P800
;TYPE:Skirt/Brim
;WIDTH:0.42
G1 F1200
G1 X71.767 Y62.192 E.05105
G1 X73.181 Y61.294 E.05252
G1 X74.294 Y60.788 E.03832
G1 X75.386 Y60.428 E.03606
G1 X77.212 Y60.081 E.05829
G1 X78.351 Y60.009 E.03578
G1 X103.066 Y61.538 E.7764
G1 X104.952 Y61.777 E.05961
G1 X107.098 Y62.343 E.06958
G1 X109.063 Y63.216 E.06745
G1 X110.389 Y64.084 E.04966
G1 X111.412 Y64.98 E.04264
G1 X112.039 Y65.693 E.02976
G1 X113.202 Y67.455 E.0662
G1 X113.875 Y68.881 E.04946
G1 X125.389 Y100.708 E1.0612
G1 X125.845 Y102.486 E.05756
G1 X126.072 Y104.134 E.05216
G1 X126.096 Y105.84 E.05347
G1 X125.902 Y107.569 E.05456
G1 X125.546 Y109.119 E.04986
G1 X125.096 Y110.468 E.04459
G1 X124.258 Y112.292 E.06296
G1 X123.288 Y113.838 E.05723
G1 X122.07 Y115.279 E.05914
G1 X120.933 Y116.289 E.04768
G1 X119.262 Y117.347 E.06201
G1 X117.319 Y118.095 E.06529
G1 X115.557 Y118.48 E.05653
G1 X113.886 Y118.689 E.05283
G1 X66.901 Y119.99 E1.47372
G1 X65.067 Y119.898 E.05758
G1 X63.33 Y119.588 E.05534
G1 X62.348 Y119.289 E.03218
G1 X60.415 Y118.421 E.06644
G1 X59.93 Y118.129 E.01774
G1 X58.314 Y116.873 E.06417
G1 X56.639 Y114.939 E.08021
G1 X55.391 Y112.751 E.07898
G1 X54.445 Y110.07 E.08914
G1 X54.006 Y107.662 E.07675
G1 X53.895 Y105.551 E.06628
G1 X54.072 Y103.165 E.07502
G1 X54.231 Y102.261 E.02878
G1 X54.585 Y100.973 E.04187
G1 X60.855 Y82.891 E.60009
G1 X68.172 Y66.723 E.55644
G1 X69.237 Y64.824 E.06826
G1 X70.499 Y63.305 E.0619
M204 P1000
; printing object Fantabulous Gaaris-Hillar.stl id:0 copy 0
G1 E-2.24 F2700
;WIPE_START
G1 F7200
G1 X71.767 Y62.192 E-.60119
G1 X72.503 Y61.724 E-.31081
;WIPE_END
G1 E-.048 F2700
G1 Z.4 F720
G1 X99.965 Y65.106 F9000
G1 Z.2 F720
G1 E3.2 F1500
M204 P800
;TYPE:Perimeter
;WIDTH:0.419999
G1 F1200
G1 X100.074 Y65.104 E.00341
G1 X100.851 Y64.831 E.02581
G1 X101.485 Y64.706 E.02028
G1 X102.027 Y64.666 E.01704
G1 X103.134 Y64.716 E.03475
G1 X103.727 Y64.782 E.01871
G1 X104.42 Y64.896 E.02199
G1 X105.18 Y65.065 E.02444
G1 X105.982 Y65.304 E.02623
G1 X106.799 Y65.621 E.02747
G1 X107.606 Y66.025 E.02831
G1 X108.378 Y66.528 E.02888
G1 X109.098 Y67.14 E.02963
G1 X109.513 Y67.599 E.01939
G1 X109.986 Y68.243 E.02506
G1 X110.466 Y69.045 E.02931
G1 X110.909 Y69.987 E.03263
G1 X111.274 Y71.05 E.03524
G1 X111.522 Y72.216 E.03737
G1 X111.616 Y73.469 E.03943
G1 X111.522 Y74.763 E.04065
G1 X111.441 Y75.242 E.01524
G1 X111.327 Y75.732 E.01576
G1 X110.872 Y77.227 E.04902
G1 X110.817 Y77.799 E.01802
G1 X110.856 Y78.366 E.01779
G1 X110.989 Y78.915 E.01774
G1 X111.21 Y79.432 E.01764
G1 X111.519 Y79.913 E.01789
G1 X111.918 Y80.344 E.01842
G1 X113.26 Y81.365 E.05289
G1 X114.022 Y82.106 E.03333
G1 X114.654 Y82.874 E.03117
G1 X115.167 Y83.642 E.02897
G1 X115.575 Y84.379 E.02639
G1 X115.889 Y85.055 E.02337
G1 X116.122 Y85.634 E.0196
G1 X116.462 Y86.629 E.03296
G1 X116.601 Y87.14 E.01659
G1 X116.705 Y87.63 E.01571
G1 X116.795 Y88.306 E.02138
G1 X116.845 Y88.858 E.0174
G1 X116.883 Y90.121 E.0396
G1 X116.93 Y90.677 E.01751
G1 X117.063 Y91.428 E.02389
G1 X117.235 Y91.983 E.01823
G1 X117.726 Y92.897 E.03252
G1 X118.812 Y94.533 E.06159
G1 X119.536 Y95.706 E.04321
G1 X120.076 Y96.66 E.03439
G1 X120.771 Y97.96 E.0462
G1 X121.403 Y99.235 E.04462
G1 X121.951 Y100.493 E.04303
G1 X122.397 Y101.74 E.04153
G1 X122.73 Y103.05 E.04236
G1 X122.911 Y104.324 E.04035
G1 X122.943 Y105.566 E.03897
G1 X122.803 Y106.93 E.04298
G1 X122.532 Y108.156 E.03939
G1 X122.108 Y109.426 E.04198
G1 X121.533 Y110.683 E.04334
G1 X120.805 Y111.876 E.04381
G1 X119.922 Y112.955 E.04371
G1 X118.885 Y113.875 E.04348
G1 X117.69 Y114.599 E.04381
G1 X116.296 Y115.1 E.04646
G1 X115.661 Y115.242 E.0204
G1 X114.995 Y115.366 E.02123
G1 X114.332 Y115.462 E.02099
G1 X113.675 Y115.532 E.02072
G1 X113.021 Y115.572 E.02053
G1 X112.372 Y115.585 E.02038
G1 X111.728 Y115.572 E.02017
G1 X111.101 Y115.531 E.01971
G1 X109.643 Y115.33 E.04614
G1 X108.289 Y115.006 E.04367
G1 X107.028 Y114.575 E.04177
G1 X105.857 Y114.054 E.04019
G1 X104.775 Y113.462 E.03868
G1 X103.781 Y112.817 E.03714
G1 X102.878 Y112.136 E.03547
G1 X102.044 Y111.42 E.03447
G1 X101.602 Y111.078 E.01752
G1 X101.136 Y110.81 E.01686
G1 X100.641 Y110.607 E.01678
G1 X100.126 Y110.475 E.01666
G1 X99.598 Y110.412 E.01667
G1 X99.062 Y110.422 E.01679
G1 X98.507 Y110.512 E.01763
G1 X96.232 Y111.248 E.07498
G1 X95.271 Y111.508 E.03123
G1 X94.283 Y111.731 E.03174
G1 X93.278 Y111.906 E.03201
G1 X92.263 Y112.027 E.03204
G1 X91.246 Y112.082 E.03191
G1 X90.226 Y112.066 E.03201
G1 X89.711 Y112.031 E.01617
G1 X88.856 Y111.94 E.02695
G1 X88.094 Y111.827 E.02415
G1 X87.353 Y111.689 E.02364
G1 X85.915 Y111.348 E.04633
G1 X85.245 Y111.157 E.02184
G1 X83.934 Y110.726 E.04329
G1 X83.45 Y110.593 E.01571
G1 X82.955 Y110.519 E.01572
G1 X82.333 Y110.516 E.0195
G1 X81.805 Y110.585 E.0167
G1 X81.061 Y110.798 E.02426
G1 X80.604 Y111.015 E.01586
G1 X80.164 Y111.295 E.01635
G1 X78.407 Y112.528 E.0673
G1 X77.766 Y112.95 E.02405
G1 X76.377 Y113.814 E.0513
G1 X74.877 Y114.673 E.05419
G1 X73.982 Y115.124 E.03143
G1 X72.979 Y115.556 E.03425
G1 X71.88 Y115.953 E.03663
G1 X70.71 Y116.296 E.03821
G1 X69.488 Y116.567 E.03927
G1 X68.235 Y116.749 E.0397
M73 P1 R55
G1 X66.973 Y116.827 E.03963
G1 X65.712 Y116.783 E.03957
G1 X64.879 Y116.679 E.0263
G1 X64.098 Y116.517 E.02502
G1 X63.591 Y116.379 E.01647
G1 X61.797 Y115.573 E.06166
G1 X60.324 Y114.428 E.0585
G1 X59.125 Y112.979 E.05896
G1 X58.197 Y111.287 E.06051
G1 X57.542 Y109.417 E.06213
G1 X57.163 Y107.442 E.06305
G1 X57.057 Y105.439 E.06291
G1 X57.217 Y103.518 E.06043
G1 X57.31 Y102.988 E.01685
G1 X57.43 Y102.495 E.01592
G1 X57.581 Y101.992 E.01648
G1 X57.99 Y100.863 E.03765
G1 X60.294 Y95.387 E.18626
G1 X62.007 Y91.2 E.14185
G1 X62.635 Y89.509 E.05657
G1 X62.866 Y88.585 E.02986
G1 X63.249 Y86.281 E.07321
G1 X63.469 Y85.145 E.03629
G1 X63.611 Y84.611 E.01734
G1 X63.79 Y84.074 E.01775
G1 X64.015 Y83.529 E.01849
G1 X64.299 Y82.968 E.01971
G1 X64.644 Y82.399 E.02086
G1 X65.09 Y81.84 E.02241
G1 X65.655 Y81.316 E.02417
G1 X66.33 Y80.819 E.02626
G1 X67.084 Y80.359 E.02771
G1 X67.88 Y79.941 E.02818
G1 X68.686 Y79.571 E.02783
G1 X69.47 Y79.249 E.02655
G1 X70.217 Y78.974 E.02495
G1 X70.609 Y78.787 E.01364
G1 X71.011 Y78.484 E.01578
G1 X71.333 Y78.108 E.01551
G1 X71.599 Y77.597 E.01808
G1 X71.719 Y77.094 E.0162
G1 X71.725 Y76.568 E.0165
G1 X71.618 Y76.074 E.01586
G1 X71.201 Y75.211 E.03005
G1 X70.652 Y73.767 E.04844
G1 X70.381 Y72.31 E.04646
G1 X70.364 Y70.842 E.04604
G1 X70.593 Y69.4 E.04579
G1 X71.06 Y68.022 E.04562
G1 X71.754 Y66.743 E.04561
G1 X72.665 Y65.602 E.04578
G1 X73.794 Y64.622 E.04687
G1 X74.567 Y64.139 E.02857
G1 X75.358 Y63.768 E.02739
G1 X76.143 Y63.5 E.02602
G1 X76.907 Y63.322 E.02462
G1 X77.633 Y63.217 E.023
G1 X78.313 Y63.173 E.02135
G1 X78.902 Y63.174 E.01847
G1 X79.404 Y63.203 E.01576
G1 X80.075 Y63.288 E.02121
G1 X81.245 Y63.57 E.03775
G1 X82.038 Y63.887 E.02676
G1 X82.501 Y64.135 E.01649
G1 X82.804 Y64.201 E.00972
G1 X83.818 Y64.125 E.03185
G1 X84.544 Y63.932 E.02356
G1 X85.18 Y63.867 E.02004
G1 X85.847 Y63.922 E.02098
G1 X86.363 Y63.989 E.01633
G1 X86.978 Y63.904 E.01945
G1 X87.628 Y63.909 E.02038
G1 X88.187 Y64.005 E.01781
G1 X88.806 Y64.214 E.02048
G1 X89.072 Y64.237 E.00835
G1 X90.097 Y64.081 E.03251
G1 X90.672 Y64.076 E.01804
G1 X91.322 Y64.13 E.02043
G1 X91.956 Y64.277 E.02041
G1 X92.494 Y64.444 E.01766
G1 X92.745 Y64.468 E.00791
G1 X93.663 Y64.348 E.02904
G1 X94.359 Y64.401 E.02188
G1 X94.906 Y64.473 E.01728
G1 X95.674 Y64.372 E.02429
G1 X96.407 Y64.41 E.02302
G1 X97.15 Y64.569 E.02382
G1 X97.713 Y64.784 E.0189
G1 X97.906 Y64.821 E.00617
G1 X98.431 Y64.837 E.01648
G1 X98.931 Y64.902 E.0158
G1 X99.717 Y65.11 E.02549
G1 X99.905 Y65.107 E.00589
M204 P1000
G1 X99.992 Y64.733 F9000
M204 P800
;TYPE:External perimeter
G1 F1200
G1 X100.751 Y64.466 E.02522
G1 X101.505 Y64.318 E.02408
G1 X102.025 Y64.289 E.01634
G1 X103.164 Y64.34 E.03574
G1 X103.779 Y64.409 E.0194
G1 X104.491 Y64.525 E.02263
G1 X105.275 Y64.7 E.02519
G1 X106.105 Y64.947 E.02713
G1 X106.952 Y65.276 E.02851
G1 X107.794 Y65.698 E.02953
G1 X108.604 Y66.225 E.0303
G1 X109.361 Y66.868 E.03116
G1 X109.805 Y67.36 E.02077
G1 X110.301 Y68.034 E.02621
G1 X110.799 Y68.867 E.03046
G1 X111.259 Y69.845 E.03386
G1 X111.638 Y70.949 E.0366
G1 X111.896 Y72.162 E.03888
G1 X111.994 Y73.469 E.0411
G1 X111.898 Y74.79 E.04153
G1 X111.813 Y75.309 E.01649
G1 X111.691 Y75.831 E.01681
G1 X111.247 Y77.269 E.04718
G1 X111.193 Y77.779 E.01607
G1 X111.224 Y78.282 E.01581
G1 X111.337 Y78.772 E.01576
G1 X111.531 Y79.233 E.0157
G1 X111.8 Y79.661 E.01585
G1 X112.146 Y80.044 E.01618
G1 X113.507 Y81.079 E.0536
G1 X114.3 Y81.851 E.0347
G1 X114.957 Y82.649 E.03242
G1 X115.489 Y83.446 E.03005
G1 X115.911 Y84.208 E.02729
G1 X116.235 Y84.905 E.0241
G1 X116.476 Y85.503 E.02023
G1 X116.834 Y86.551 E.03473
G1 X116.965 Y87.042 E.01594
G1 X117.077 Y87.566 E.01679
G1 X117.176 Y88.311 E.02356
G1 X117.222 Y88.84 E.01664
G1 X117.258 Y90.09 E.03923
G1 X117.302 Y90.614 E.01647
G1 X117.424 Y91.316 E.02235
G1 X117.603 Y91.886 E.01873
G1 X118.04 Y92.688 E.02864
G1 X119.13 Y94.33 E.06178
G1 X119.86 Y95.514 E.04362
G1 X120.407 Y96.478 E.03476
G1 X121.106 Y97.787 E.04652
G1 X121.745 Y99.076 E.04509
G1 X122.302 Y100.354 E.04372
G1 X122.758 Y101.629 E.04247
G1 X123.103 Y102.994 E.04414
G1 X123.288 Y104.314 E.04179
G1 X123.321 Y105.581 E.03973
G1 X123.176 Y106.99 E.04442
G1 X122.896 Y108.257 E.04069
G1 X122.46 Y109.565 E.04323
G1 X121.867 Y110.861 E.04468
G1 X121.113 Y112.095 E.04533
G1 X120.195 Y113.217 E.04546
G1 X119.11 Y114.18 E.04549
G1 X117.853 Y114.942 E.04608
G1 X116.401 Y115.463 E.04838
G1 X115.736 Y115.612 E.02136
G1 X115.057 Y115.738 E.02168
G1 X114.379 Y115.837 E.02146
G1 X113.706 Y115.908 E.02122
G1 X113.037 Y115.949 E.02104
G1 X112.372 Y115.962 E.02086
G1 X111.712 Y115.949 E.02068
G1 X111.063 Y115.906 E.0204
G1 X109.573 Y115.701 E.04714
G1 X108.184 Y115.368 E.0448
G1 X106.89 Y114.926 E.04286
G1 X105.689 Y114.393 E.0412
G1 X104.581 Y113.786 E.03962
G1 X103.565 Y113.126 E.038
G1 X102.642 Y112.43 E.03625
G1 X101.798 Y111.706 E.03484
G1 X101.433 Y111.417 E.01461
G1 X101.137 Y111.242 E.01078
G1 X100.567 Y110.98 E.01966
G1 X100.103 Y110.854 E.01509
G1 X99.688 Y110.799 E.01314
G1 X99.143 Y110.793 E.01707
G1 X98.626 Y110.87 E.0164
G1 X96.338 Y111.61 E.07541
G1 X95.362 Y111.874 E.03171
G1 X94.357 Y112.101 E.03229
G1 X93.332 Y112.28 E.03262
G1 X92.295 Y112.403 E.03274
G1 X91.254 Y112.459 E.0327
G1 X90.21 Y112.443 E.03273
G1 X89.678 Y112.407 E.01671
G1 X88.809 Y112.314 E.02742
G1 X88.032 Y112.199 E.02461
G1 X87.275 Y112.058 E.02415
G1 X85.82 Y111.713 E.04689
G1 X85.135 Y111.517 E.02234
G1 X83.415 Y110.97 E.05659
G1 X82.941 Y110.896 E.01504
G1 X82.365 Y110.891 E.01804
G1 X81.591 Y111.017 E.02459
G1 X81.047 Y111.219 E.0182
G1 X80.38 Y111.603 E.02413
G1 X78.619 Y112.84 E.06747
G1 X77.97 Y113.268 E.02438
G1 X76.57 Y114.138 E.05167
G1 X75.056 Y115.005 E.05472
G1 X74.142 Y115.466 E.0321
G1 X73.118 Y115.907 E.03497
G1 X71.997 Y116.312 E.03735
G1 X70.804 Y116.661 E.03897
G1 X69.556 Y116.938 E.04011
G1 X68.273 Y117.124 E.04063
G1 X66.978 Y117.204 E.04069
G1 X65.682 Y117.159 E.04067
G1 X64.818 Y117.051 E.0273
G1 X63.977 Y116.877 E.02691
G1 X63.463 Y116.734 E.01673
G1 X61.601 Y115.899 E.06398
G1 X60.06 Y114.7 E.06122
G1 X58.811 Y113.192 E.06139
G1 X57.851 Y111.441 E.06261
G1 X57.176 Y109.515 E.06397
G1 X56.787 Y107.488 E.06473
G1 X56.679 Y105.433 E.06452
G1 X56.847 Y103.417 E.06342
G1 X56.942 Y102.909 E.01619
G1 X57.066 Y102.397 E.01655
G1 X57.222 Y101.873 E.01712
G1 X57.638 Y100.725 E.0383
G1 X59.947 Y95.241 E.18656
G1 X61.653 Y91.069 E.14133
G1 X62.27 Y89.416 E.0553
G1 X62.494 Y88.523 E.02889
G1 X62.877 Y86.215 E.07336
G1 X63.101 Y85.061 E.03685
G1 X63.249 Y84.502 E.01812
G1 X63.437 Y83.942 E.01853
G1 X63.672 Y83.372 E.01935
G1 X63.969 Y82.785 E.02062
G1 X64.334 Y82.183 E.02207
G1 X64.813 Y81.583 E.02405
G1 X65.414 Y81.025 E.02573
G1 X66.119 Y80.506 E.02744
G1 X66.898 Y80.03 E.02861
G1 X67.713 Y79.603 E.02888
G1 X68.536 Y79.225 E.02838
G1 X69.333 Y78.898 E.02701
G1 X70.086 Y78.62 E.02517
G1 X70.445 Y78.448 E.01247
G1 X70.777 Y78.189 E.01319
G1 X71.04 Y77.871 E.01295
G1 X71.229 Y77.508 E.01284
G1 X71.337 Y77.115 E.01279
G1 X71.361 Y76.704 E.01289
G1 X71.278 Y76.238 E.01485
G1 X70.854 Y75.361 E.03056
G1 X70.288 Y73.869 E.05001
G1 X70.004 Y72.347 E.04854
G1 X69.987 Y70.815 E.04806
G1 X70.226 Y69.309 E.04779
G1 X70.714 Y67.87 E.04764
G1 X71.439 Y66.534 E.04767
G1 X72.392 Y65.34 E.04791
G1 X73.569 Y64.318 E.04887
G1 X74.386 Y63.807 E.03021
G1 X75.216 Y63.418 E.02875
G1 X76.039 Y63.137 E.02725
G1 X76.837 Y62.951 E.02572
G1 X77.594 Y62.842 E.02397
G1 X78.301 Y62.796 E.02221
G1 X78.913 Y62.796 E.01919
G1 X79.439 Y62.827 E.0165
G1 X80.143 Y62.917 E.02227
G1 X81.265 Y63.187 E.03617
G1 X82.264 Y63.581 E.03366
G1 X82.78 Y63.825 E.01791
G1 X83.721 Y63.76 E.02956
G1 X84.476 Y63.56 E.02448
G1 X85.171 Y63.489 E.0219
G1 X85.743 Y63.52 E.01798
G1 X86.252 Y63.614 E.01623
G1 X86.741 Y63.556 E.01544
G1 X87.416 Y63.531 E.02118
G1 X87.902 Y63.574 E.01531
G1 X88.501 Y63.713 E.01925
G1 X89.015 Y63.864 E.01681
G1 X90.067 Y63.704 E.03335
G1 X90.865 Y63.697 E.02504
G1 X91.386 Y63.758 E.01644
G1 X92.18 Y63.943 E.02556
G1 X92.696 Y64.094 E.01685
G1 X93.646 Y63.97 E.03002
G1 X94.204 Y63.99 E.01752
G1 X94.857 Y64.099 E.02075
G1 X95.659 Y63.994 E.02536
G1 X96.457 Y64.035 E.02505
G1 X97.257 Y64.207 E.02567
G1 X97.911 Y64.444 E.02182
G1 X98.474 Y64.462 E.01766
G1 X99.013 Y64.534 E.01703
G1 X99.71 Y64.713 E.02256
G1 X99.935 Y64.748 E.00715
M204 P1000
G1 X100.245 Y65.043 F9000
G1 E-2.24 F2700
;WIPE_START
G1 F7200
G1 X100.751 Y64.466 E-.30745
G1 X101.505 Y64.318 E-.27361
G1 X102.025 Y64.289 E-.18566
G1 X102.432 Y64.307 E-.14528
;WIPE_END
G1 E-.048 F2700
G1 Z.4 F720
G1 X89.377 Y103.973 F9000
G1 Z.2 F720
G1 E3.2 F1500
M204 P800
;TYPE:Perimeter
;WIDTH:0.586634
G1 F1200
G1 X89.523 Y103.852 E.00857
G1 X89.685 Y103.825 E.00742
;WIDTH:0.555986
G1 X89.847 Y103.797 E.007
;WIDTH:0.553003
G1 X90.001 Y103.822 E.00662
;WIDTH:0.580668
G1 X90.155 Y103.847 E.00698
G1 X90.279 Y103.902 E.00606
G1 X90.524 Y103.834 E.01138
;WIDTH:0.584563
G1 X90.893 Y103.863 E.01669
G1 X91.017 Y103.937 E.0065
G1 X91.133 Y103.852 E.0065
G1 X91.381 Y103.809 E.01132
;WIDTH:0.549502
G1 X91.629 Y103.766 E.01059
;WIDTH:0.514441
G1 X91.876 Y103.723 E.00985
;WIDTH:0.479379
G1 X92.439 Y103.683 E.02047
;WIDTH:0.45032
G1 X92.491 Y103.682 E.00177
;WIDTH:0.448723
G1 X120.035 Y103.675 E.9294
;WIDTH:0.444427
G1 X120.344 Y103.679 E.01032
;WIDTH:0.437062
G1 X120.664 Y103.787 E.01108
;WIDTH:0.419999
