; generated by PrusaSlicer 2.3.3+win64 on 2022-05-16 at 10:17:01 UTC


;
;

;
;
; 

; external perimeters extrusion width = 0.45mm
; perimeters extrusion width = 0.45mm
; infill extrusion width = 0.45mm
; solid infill extrusion width = 0.45mm
; top infill extrusion width = 0.40mm
; first layer extrusion width = 0.42mm

M73 P0 R68
M201 X1250 Y1250 Z400 E5000 ; sets maximum accelerations, mm/sec^2
M203 X180 Y180 Z12 E80 ; sets maximum feedrates, mm/sec
M204 P1250 R1250 T1250 ; sets acceleration (P, T) and retract acceleration (R), mm/sec^2
M205 X8.00 Y8.00 Z2.00 E10.00 ; sets the jerk limits, mm/sec
M205 S0 T0 ; sets the minimum extruding and travel feed rate, mm/sec
M107
;TYPE:Custom
G90 ; use absolute coordinates
M83 ; extruder relative mode
M104 S170 ; set extruder temp for bed leveling
M140 S85 ; set bed temp
M109 R170 ; wait for bed leveling temp
M190 S85 ; wait for bed temp
G28 ; home all without mesh bed level
G29 ; mesh bed leveling 
M104 S230 ; set extruder temp
G92 E0.0
G1 Y-2.0 X179 F2400
G1 Z3 F720
M109 S230 ; wait for extruder temp

; intro line
G1 X170 F1000
G1 Z0.2 F720
M73 P0 R67
G1 X110.0 E8.0 F900
G1 X40.0 E10.0 F700
G92 E0.0

M221 S95 ; set flow
G21 ; set units to millimeters
G90 ; use absolute coordinates
M83 ; use relative distances for extrusion
M900 K0.2 ; Filament gcode
;LAYER_CHANGE
;Z:0.2
;HEIGHT:0.2
;BEFORE_LAYER_CHANGE
G92 E0.0
;0.2


G1 E-3.20000 F2400.000
G1 Z0.200 F9000.000
;AFTER_LAYER_CHANGE
;0.2
G1 Z0.400
G1 X64.145 Y75.862
G1 Z0.200
G1 E3.20000 F1500.000
M204 S800
;TYPE:Skirt
;WIDTH:0.42
G1 F1200.000
G1 X64.642 Y74.914 E0.03358
G1 X83.449 Y51.368 E0.94486
G1 X84.422 Y50.373 E0.04361
G1 X85.474 Y49.504 E0.04282
G1 X86.865 Y48.608 E0.05186
G1 X88.043 Y48.063 E0.04069
G1 X88.809 Y47.829 E0.02511
G1 X89.836 Y47.639 E0.03275
G1 X90.868 Y47.576 E0.03242
G1 X92.397 Y47.714 E0.04815
G1 X93.605 Y47.994 E0.03887
G1 X94.855 Y48.446 E0.04169
G1 X96.215 Y49.137 E0.04782
G1 X97.236 Y49.814 E0.03841
G1 X98.142 Y50.582 E0.03723
G1 X116.097 Y68.974 E0.80590
G1 X116.798 Y69.996 E0.03887
G1 X117.134 Y71.065 E0.03515
G1 X123.995 Y121.081 E1.58290
G1 X123.826 Y122.954 E0.05895
G1 X123.165 Y125.790 E0.09131
G1 X121.783 Y130.097 E0.14182
G1 X120.325 Y133.888 E0.12733
G1 X119.002 Y136.810 E0.10059
G1 X117.439 Y139.662 E0.10197
G1 X116.516 Y141.032 E0.05180
G1 X114.038 Y144.066 E0.12282
G1 X111.464 Y146.672 E0.11484
G1 X108.692 Y148.939 E0.11228
G1 X105.765 Y150.816 E0.10901
G1 X102.817 Y152.234 E0.10260
G1 X99.330 Y153.382 E0.11508
G1 X96.129 Y153.986 E0.10216
G1 X92.731 Y154.198 E0.10674
G1 X89.945 Y154.065 E0.08744
G1 X87.084 Y153.695 E0.09048
G1 X80.873 Y151.870 E0.20298
G1 X75.582 Y149.007 E0.18863
G1 X71.235 Y145.458 E0.17595
G1 X67.658 Y141.419 E0.16916
G1 X65.017 Y137.523 E0.14759
G1 X63.024 Y133.813 E0.13205
G1 X61.598 Y130.528 E0.11227
G1 X60.718 Y128.047 E0.08254
G1 X59.972 Y125.393 E0.08644
G1 X59.751 Y124.211 E0.03771
G1 X59.653 Y123.042 E0.03678
G1 X61.300 Y98.497 E0.77133
G1 X63.928 Y76.878 E0.68285
G1 X64.133 Y75.921 E0.03068
M204 S1250
; printing object kotopoulaki_se_augo1s.stl id:2 copy 0
G1 E-2.24000 F2400.000
;WIPE_START
G1 F7200.000
G1 X64.642 Y74.914 E-0.35746
G1 X65.735 Y73.545 E-0.55454
;WIPE_END
G1 E-0.04800 F2400.000
G1 Z0.400 F9000.000
G1 X100.922 Y118.590
G1 Z0.200
G1 E3.20000 F1500.000
M204 S800
;TYPE:Perimeter
G1 F1200.000
G1 X101.934 Y118.995 E0.03420
G1 X103.053 Y119.744 E0.04220
G1 X104.358 Y120.742 E0.05151
G1 X107.077 Y122.940 E0.10963
G1 X106.705 Y123.988 E0.03489
G1 X95.298 Y123.988 E0.35765
G1 X94.923 Y122.953 E0.03452
G1 X97.506 Y120.769 E0.10604
G1 X98.736 Y119.763 E0.04982
G1 X99.839 Y118.996 E0.04214
G1 X100.865 Y118.611 E0.03437
M204 S1250
G1 X100.917 Y118.994 F9000.000
M204 S800
;TYPE:External perimeter
G1 F1200.000
G1 X101.758 Y119.330 E0.02838
G1 X102.833 Y120.051 E0.04059
G1 X104.125 Y121.039 E0.05098
G1 X106.633 Y123.065 E0.10110
G1 X106.439 Y123.611 E0.01817
G1 X95.563 Y123.611 E0.34101
G1 X95.367 Y123.071 E0.01800
G1 X97.747 Y121.059 E0.09771
G1 X98.963 Y120.065 E0.04926
G1 X100.015 Y119.332 E0.04020
G1 X100.861 Y119.015 E0.02831
M204 S1250
G1 X101.146 Y118.667 F9000.000
G1 E-2.24000 F2400.000
;WIPE_START
G1 F7200.000
G1 X101.758 Y119.330 E-0.30093
G1 X102.833 Y120.051 E-0.40992
G1 X103.338 Y120.437 E-0.20116
;WIPE_END
G1 E-0.04800 F2400.000
G1 Z0.400 F9000.000
G1 X110.023 Y120.088
G1 Z0.200
G1 E3.20000 F1500.000
M204 S800
;TYPE:Perimeter
G1 F1200.000
G1 X114.341 Y120.124 E0.13541
G1 X117.101 Y120.171 E0.08653
G1 X117.351 Y121.284 E0.03576
G1 X118.144 Y120.892 E0.02774
G1 X118.922 Y121.492 E0.03081
G1 X118.551 Y123.296 E0.05773
G1 X118.356 Y123.988 E0.02257
G1 X114.884 Y123.988 E0.10885
G1 X114.611 Y122.877 E0.03588
G1 X112.544 Y123.988 E0.07356
G1 X109.299 Y123.988 E0.10175
G1 X110.012 Y120.147 E0.12250
M204 S1250
G1 X110.340 Y120.468 F9000.000
M204 S800
;TYPE:External perimeter
G1 F1200.000
G1 X114.336 Y120.501 E0.12532
G1 X116.798 Y120.543 E0.07719
G1 X116.955 Y121.243 E0.02249
G1 X114.575 Y122.468 E0.08392
G1 X112.449 Y123.611 E0.07569
G1 X109.754 Y123.611 E0.08451
G1 X110.329 Y120.527 E0.09838
M204 S1250
G1 X110.263 Y120.075 F9000.000
G1 E-2.24000 F2400.000
;WIPE_START
G1 F7200.000
G1 X113.209 Y120.508 E-0.91200
;WIPE_END
G1 E-0.04800 F2400.000
G1 Z0.400 F9000.000
G1 X115.007 Y122.911
G1 Z0.200
G1 E3.20000 F1500.000
M204 S800
G1 F1200.000
G1 X118.100 Y121.334 E0.10885
G1 X118.505 Y121.647 E0.01605
G1 X118.185 Y123.206 E0.04991
G1 X118.070 Y123.611 E0.01319
G1 X115.180 Y123.611 E0.09064
G1 X115.022 Y122.969 E0.02072
M204 S1250
G1 X114.731 Y122.622 F9000.000
G1 E-2.24000 F2400.000
;WIPE_START
G1 F7200.000
G1 X117.565 Y121.618 E-0.91200
;WIPE_END
G1 E-0.04800 F2400.000
G1 Z0.400 F9000.000
G1 X87.020 Y122.729
G1 Z0.200
G1 E3.20000 F1500.000
M204 S800
;TYPE:Perimeter
G1 F1200.000
G1 X86.704 Y123.988 E0.04069
G1 X76.244 Y123.988 E0.32798
G1 X75.854 Y122.864 E0.03730
G1 X77.080 Y121.896 E0.04899
G1 X78.350 Y120.967 E0.04934
G1 X79.583 Y120.202 E0.04551
G1 X80.887 Y119.664 E0.04424
G1 X81.804 Y119.904 E0.02971
G1 X82.967 Y120.484 E0.04074
G1 X86.968 Y122.700 E0.14340
M204 S1250
G1 X86.584 Y122.919 F9000.000
M204 S800
;TYPE:External perimeter
G1 F1200.000
G1 X86.410 Y123.611 E0.02238
G1 X76.512 Y123.611 E0.31035
G1 X76.298 Y122.994 E0.02048
G1 X77.308 Y122.197 E0.04036
G1 X78.561 Y121.280 E0.04867
G1 X79.756 Y120.539 E0.04408
M73 P1 R67
G1 X80.914 Y120.060 E0.03930
G1 X81.670 Y120.259 E0.02452
G1 X82.791 Y120.818 E0.03927
G1 X86.531 Y122.890 E0.13406
M204 S1250
G1 X86.962 Y123.048 F9000.000
G1 E-2.24000 F2400.000
;WIPE_START
G1 F7200.000
G1 X86.410 Y123.611 E-0.23162
G1 X84.262 Y123.611 E-0.68038
;WIPE_END
G1 E-0.04800 F2400.000
G1 Z0.400 F9000.000
G1 X72.421 Y123.988
G1 Z0.200
G1 E3.20000 F1500.000
M204 S800
;TYPE:Perimeter
G1 F1200.000
G1 X68.706 Y123.988 E0.11648
G1 X67.691 Y123.546 E0.03472
G1 X66.317 Y123.003 E0.04634
G1 X66.434 Y121.734 E0.03995
G1 X70.536 Y121.028 E0.13049
G1 X71.544 Y120.802 E0.03242
G1 X72.013 Y121.555 E0.02780
G1 X72.133 Y122.167 E0.01957
G1 X72.412 Y123.929 E0.05593
M204 S1250
G1 X71.980 Y123.611 F9000.000
M204 S800
;TYPE:External perimeter
G1 F1200.000
G1 X68.785 Y123.611 E0.10018
G1 X67.836 Y123.198 E0.03246
G1 X66.718 Y122.756 E0.03768
G1 X66.783 Y122.056 E0.02202
G1 X70.609 Y121.398 E0.12172
G1 X71.366 Y121.228 E0.02432
G1 X71.656 Y121.695 E0.01724
G1 X71.762 Y122.233 E0.01718
G1 X71.970 Y123.552 E0.04187
M204 S1250
G1 X72.002 Y124.010 F9000.000
G1 E-2.24000 F2400.000
;WIPE_START
G1 F7200.000
G1 X69.091 Y123.605 E-0.91200
;WIPE_END
G1 E-0.04800 F2400.000
G1 Z0.400 F9000.000
G1 X72.372 Y124.853
G1 Z0.200
G1 E3.20000 F1500.000
M204 S800
;TYPE:Perimeter
G1 F1200.000
G1 X72.794 Y125.106 E0.01542
G1 X72.911 Y125.071 E0.00385
G1 X73.907 Y124.414 E0.03741
G1 X90.668 Y124.414 E0.52553
G1 X90.974 Y124.532 E0.01028
G1 X91.989 Y124.729 E0.03240
G1 X92.608 Y124.556 E0.02016
G1 X92.843 Y124.414 E0.00860
G1 X108.983 Y124.414 E0.50605
G1 X109.325 Y124.662 E0.01324
G1 X110.111 Y125.060 E0.02764
G1 X110.158 Y125.140 E0.00290
G1 X111.437 Y124.414 E0.04609
G1 X118.288 Y124.414 E0.21482
G1 X117.134 Y127.953 E0.11670
G1 X116.011 Y130.988 E0.10147
G1 X67.360 Y130.988 E1.52544
G1 X67.008 Y130.298 E0.02429
G1 X65.606 Y126.590 E0.12429
G1 X65.022 Y124.414 E0.07064
G1 X70.014 Y124.414 E0.15651
G1 X71.525 Y125.195 E0.05334
G1 X71.995 Y125.463 E0.01698
G1 X72.341 Y124.905 E0.02058
M204 S1250
G1 X72.497 Y125.368 F9000.000
M204 S800
;TYPE:External perimeter
G1 F1200.000
G1 X72.743 Y125.516 E0.00899
G1 X73.073 Y125.416 E0.01081
G1 X74.020 Y124.791 E0.03558
G1 X90.598 Y124.791 E0.51979
G1 X90.870 Y124.895 E0.00912
G1 X92.004 Y125.116 E0.03624
G1 X92.759 Y124.905 E0.02457
G1 X92.948 Y124.791 E0.00692
G1 X108.860 Y124.791 E0.49892
G1 X109.128 Y124.985 E0.01035
G1 X109.842 Y125.346 E0.02511
G1 X110.021 Y125.651 E0.01107
G1 X111.536 Y124.791 E0.05461
G1 X117.768 Y124.791 E0.19540
G1 X116.778 Y127.829 E0.10018
G1 X115.749 Y130.611 E0.09301
G1 X67.591 Y130.611 E1.50996
G1 X67.354 Y130.145 E0.01640
G1 X65.966 Y126.474 E0.12306
G1 X65.514 Y124.791 E0.05464
G1 X69.922 Y124.791 E0.13822
G1 X71.345 Y125.527 E0.05023
G1 X72.125 Y125.970 E0.02814
G1 X72.466 Y125.419 E0.02031
M204 S1250
G1 X72.711 Y125.176 F9000.000
G1 E-2.24000 F2400.000
;WIPE_START
G1 F7200.000
G1 X72.743 Y125.516 E-0.09305
G1 X73.073 Y125.416 E-0.10921
G1 X74.020 Y124.791 E-0.35931
G1 X75.127 Y124.791 E-0.35043
;WIPE_END
G1 E-0.04800 F2400.000
G1 Z0.400 F9000.000
G1 X67.576 Y131.414
G1 Z0.200
G1 E3.20000 F1500.000
M204 S800
;TYPE:Perimeter
G1 F1200.000
G1 X115.815 Y131.414 E1.51249
G1 X114.983 Y133.381 E0.06697
G1 X113.744 Y135.869 E0.08713
G1 X112.451 Y137.927 E0.07621
G1 X110.720 Y139.988 E0.08439
G1 X73.193 Y139.988 E1.17663
G1 X72.292 Y139.075 E0.04022
G1 X69.202 Y134.611 E0.17023
G1 X67.603 Y131.467 E0.11058
M204 S1250
G1 X68.191 Y131.791 F9000.000
M204 S800
;TYPE:External perimeter
G1 F1200.000
G1 X115.246 Y131.791 E1.47538
G1 X114.640 Y133.223 E0.04876
G1 X113.415 Y135.684 E0.08618
G1 X112.145 Y137.704 E0.07481
G1 X110.544 Y139.611 E0.07807
G1 X73.351 Y139.611 E1.16618
M73 P1 R66
G1 X72.583 Y138.834 E0.03425
G1 X69.526 Y134.418 E0.16840
G1 X68.218 Y131.845 E0.09051
M204 S1250
G1 X68.117 Y131.398 F9000.000
G1 E-2.24000 F2400.000
;WIPE_START
G1 F7200.000
G1 X71.098 Y131.841 E-0.91200
;WIPE_END
G1 E-0.04800 F2400.000
G1 Z0.400 F9000.000
G1 X74.973 Y140.414
G1 Z0.200
G1 E3.20000 F1500.000
M204 S800
;TYPE:Perimeter
G1 F1200.000
G1 X109.125 Y140.414 E1.07080
G1 X109.515 Y141.418 E0.03377
G1 X106.539 Y144.142 E0.12649
G1 X103.473 Y146.222 E0.11616
G1 X100.362 Y147.690 E0.10787
G1 X97.233 Y148.604 E0.10221
G1 X94.114 Y149.024 E0.09868
G1 X91.030 Y149.016 E0.09669
G1 X87.970 Y148.641 E0.09668
G1 X81.596 Y146.579 E0.21003
G1 X76.389 Y143.224 E0.19423
G1 X74.569 Y141.381 E0.08121
G1 X74.950 Y140.469 E0.03099
M204 S1250
G1 X75.224 Y140.791 F9000.000
M204 S800
;TYPE:External perimeter
G1 F1200.000
G1 X108.867 Y140.791 E1.05484
G1 X109.070 Y141.314 E0.01759
G1 X106.305 Y143.846 E0.11754
G1 X103.286 Y145.893 E0.11438
G1 X100.228 Y147.337 E0.10602
G1 X97.155 Y148.234 E0.10040
G1 X94.089 Y148.647 E0.09698
G1 X91.054 Y148.639 E0.09518
G1 X88.051 Y148.271 E0.09484
G1 X81.759 Y146.236 E0.20736
G1 X76.628 Y142.929 E0.19139
G1 X75.014 Y141.295 E0.07203
G1 X75.201 Y140.846 E0.01524
M204 S1250
G1 X75.147 Y140.399 F9000.000
G1 E-2.24000 F2400.000
;WIPE_START
G1 F7200.000
G1 X78.081 Y140.842 E-0.91200
;WIPE_END
G1 E-0.04800 F2400.000
G1 Z0.400 F9000.000
G1 X107.885 Y121.060
G1 Z0.200
G1 E3.20000 F1500.000
M204 S800
;TYPE:Perimeter
G1 F1200.000
G1 X108.384 Y118.112 E0.09373
G1 X113.421 Y118.175 E0.15795
G1 X116.953 Y118.251 E0.11077
G1 X117.967 Y118.305 E0.03182
G1 X118.605 Y118.376 E0.02013
G1 X118.966 Y118.461 E0.01164
G1 X119.202 Y118.562 E0.00805
G1 X119.733 Y118.900 E0.01972
G1 X119.952 Y119.086 E0.00902
G1 X120.149 Y119.292 E0.00895
G1 X120.322 Y119.518 E0.00892
G1 X120.472 Y119.764 E0.00903
G1 X120.599 Y120.028 E0.00919
G1 X120.701 Y120.313 E0.00948
G1 X120.779 Y120.617 E0.00984
G1 X120.830 Y121.130 E0.01616
G1 X120.808 Y121.644 E0.01614
G1 X120.707 Y122.414 E0.02435
G1 X120.491 Y123.491 E0.03445
G1 X120.122 Y124.923 E0.04637
G1 X119.569 Y126.761 E0.06016
G1 X118.797 Y129.050 E0.07575
G1 X117.951 Y131.325 E0.07611
G1 X117.418 Y132.640 E0.04449
G1 X116.820 Y134.015 E0.04699
G1 X116.169 Y135.399 E0.04796
G1 X115.476 Y136.743 E0.04742
G1 X114.748 Y137.997 E0.04545
G1 X114.002 Y139.109 E0.04200
G1 X111.724 Y141.908 E0.11315
G1 X109.331 Y144.332 E0.10679
G1 X106.829 Y146.380 E0.10138
G1 X104.219 Y148.053 E0.09720
G1 X101.502 Y149.355 E0.09448
G1 X98.677 Y150.285 E0.09326
G1 X95.740 Y150.845 E0.09373
G1 X92.676 Y151.033 E0.09626
G1 X91.474 Y151.003 E0.03771
G1 X90.228 Y150.913 E0.03915
G1 X88.956 Y150.772 E0.04012
G1 X87.710 Y150.591 E0.03948
G1 X82.070 Y148.936 E0.18430
G1 X77.338 Y146.371 E0.16877
G1 X73.410 Y143.157 E0.15913
G1 X70.224 Y139.566 E0.15053
G1 X67.722 Y135.879 E0.13971
G1 X65.846 Y132.380 E0.12448
G1 X64.537 Y129.356 E0.10332
G1 X63.734 Y127.090 E0.07537
G1 X63.352 Y125.829 E0.04133
G1 X63.066 Y124.727 E0.03571
G1 X62.887 Y123.785 E0.03006
G1 X62.818 Y122.991 E0.02499
G1 X62.857 Y122.334 E0.02061
G1 X62.998 Y121.786 E0.01776
G1 X63.244 Y121.300 E0.01709
G1 X63.635 Y120.818 E0.01944
G1 X63.869 Y120.598 E0.01006
G1 X64.086 Y120.433 E0.00856
G1 X64.311 Y120.308 E0.00808
G1 X64.614 Y120.193 E0.01015
G1 X65.048 Y120.076 E0.01408
G1 X65.644 Y119.952 E0.01911
G1 X69.917 Y119.216 E0.13593
G1 X70.799 Y119.021 E0.02833
G1 X71.515 Y119.047 E0.02246
G1 X71.878 Y119.120 E0.01160
G1 X72.244 Y119.248 E0.01217
G1 X72.602 Y119.432 E0.01263
G1 X72.940 Y119.675 E0.01305
M73 P2 R66
G1 X73.250 Y119.984 E0.01372
G1 X73.525 Y120.362 E0.01467
G1 X74.216 Y121.748 E0.04854
G1 X75.756 Y120.527 E0.06160
G1 X77.202 Y119.453 E0.05649
G1 X77.866 Y119.011 E0.02500
G1 X78.503 Y118.632 E0.02324
G1 X79.111 Y118.320 E0.02142
G1 X79.689 Y118.079 E0.01964
G1 X80.343 Y117.885 E0.02138
G1 X80.873 Y117.824 E0.01673
G1 X81.370 Y117.847 E0.01559
G1 X81.754 Y117.917 E0.01226
G1 X82.178 Y118.045 E0.01389
G1 X82.663 Y118.238 E0.01635
G1 X83.225 Y118.503 E0.01948
G1 X84.667 Y119.269 E0.05121
G1 X87.643 Y120.919 E0.10671
G1 X89.300 Y121.781 E0.05854
G1 X90.106 Y122.169 E0.02805
G1 X90.852 Y122.492 E0.02549
G1 X91.860 Y122.853 E0.03357
G1 X92.932 Y122.087 E0.04132
G1 X93.809 Y121.394 E0.03505
G1 X95.079 Y120.333 E0.05190
G1 X97.153 Y118.531 E0.08614
G1 X97.889 Y117.944 E0.02949
G1 X98.563 Y117.469 E0.02587
G1 X99.186 Y117.107 E0.02257
G1 X99.769 Y116.857 E0.01991
G1 X100.334 Y116.710 E0.01831
G1 X100.916 Y116.661 E0.01829
G1 X101.412 Y116.698 E0.01560
G1 X101.911 Y116.819 E0.01611
G1 X102.456 Y117.040 E0.01843
G1 X103.080 Y117.383 E0.02233
G1 X103.809 Y117.864 E0.02737
G1 X104.660 Y118.491 E0.03315
G1 X107.838 Y121.022 E0.12740
M204 S1250
G1 X107.620 Y120.366 F9000.000
M204 S800
;TYPE:External perimeter
G1 F1200.000
G1 X108.066 Y117.731 E0.08380
G1 X113.428 Y117.798 E0.16812
G1 X116.967 Y117.874 E0.11101
G1 X117.998 Y117.929 E0.03235
G1 X118.669 Y118.004 E0.02117
G1 X119.084 Y118.101 E0.01339
G1 X119.374 Y118.226 E0.00989
G1 X119.961 Y118.599 E0.02179
G1 X120.212 Y118.811 E0.01031
G1 X120.436 Y119.047 E0.01022
G1 X120.634 Y119.304 E0.01017
G1 X120.804 Y119.584 E0.01027
G1 X120.947 Y119.883 E0.01040
G1 X121.062 Y120.202 E0.01064
G1 X121.148 Y120.540 E0.01094
G1 X121.184 Y120.766 E0.00716
G1 X121.208 Y121.126 E0.01131
G1 X121.184 Y121.677 E0.01729
G1 X121.080 Y122.476 E0.02527
G1 X120.858 Y123.575 E0.03517
G1 X120.485 Y125.025 E0.04693
G1 X119.929 Y126.875 E0.06059
G1 X119.152 Y129.176 E0.07613
G1 X118.302 Y131.462 E0.07647
G1 X117.765 Y132.786 E0.04481
G1 X117.164 Y134.170 E0.04731
G1 X116.507 Y135.566 E0.04836
G1 X115.807 Y136.924 E0.04792
G1 X115.068 Y138.197 E0.04613
G1 X114.305 Y139.334 E0.04294
G1 X112.005 Y142.160 E0.11426
G1 X109.586 Y144.612 E0.10798
G1 X107.051 Y146.686 E0.10269
G1 X104.403 Y148.383 E0.09861
G1 X101.643 Y149.706 E0.09597
G1 X98.771 Y150.651 E0.09479
G1 X95.787 Y151.219 E0.09525
G1 X92.683 Y151.411 E0.09752
G1 X91.455 Y151.379 E0.03850
G1 X90.194 Y151.289 E0.03966
G1 X88.908 Y151.146 E0.04055
