; generated by PrusaSlicer 2.3.3+win64 on 2022-06-15 at 10:15:36 UTC


;
;

;
;
; 

; external perimeters extrusion width = 0.45mm
; perimeters extrusion width = 0.45mm
; infill extrusion width = 0.45mm
; solid infill extrusion width = 0.45mm
; top infill extrusion width = 0.40mm
; first layer extrusion width = 0.42mm

M73 P0 R86
M201 X1250 Y1250 Z400 E5000 ; sets maximum accelerations, mm/sec^2
M203 X180 Y180 Z12 E80 ; sets maximum feedrates, mm/sec
M204 P1250 R1250 T1250 ; sets acceleration (P, T) and retract acceleration (R), mm/sec^2
M205 X8.00 Y8.00 Z2.00 E10.00 ; sets the jerk limits, mm/sec
M205 S0 T0 ; sets the minimum extruding and travel feed rate, mm/sec
M107
;TYPE:Custom
G90 ; use absolute coordinates
M83 ; extruder relative mode
M104 S170 ; set extruder temp for bed leveling
M140 S85 ; set bed temp
M109 R170 ; wait for bed leveling temp
M190 S85 ; wait for bed temp
G28 ; home all without mesh bed level
G29 ; mesh bed leveling 
M104 S230 ; set extruder temp
G92 E0.0
G1 Y-2.0 X179 F2400
G1 Z3 F720
M109 S230 ; wait for extruder temp

; intro line
G1 X170 F1000
G1 Z0.2 F720
G1 X110.0 E8.0 F900
G1 X40.0 E10.0 F700
G92 E0.0

M221 S95 ; set flow
G21 ; set units to millimeters
G90 ; use absolute coordinates
M83 ; use relative distances for extrusion
M900 K0.2 ; Filament gcode
;LAYER_CHANGE
;Z:0.2
;HEIGHT:0.2
;BEFORE_LAYER_CHANGE
G92 E0.0
;0.2


G1 E-3.20000 F2400.000
G1 Z0.200 F9000.000
;AFTER_LAYER_CHANGE
;0.2
G1 Z0.400
G1 X41.992 Y39.175
G1 Z0.200
G1 E3.20000 F1500.000
M204 S800
;TYPE:Skirt
;WIDTH:0.42
G1 F1200.000
G1 X43.610 Y37.679 E0.06909
G1 X45.584 Y36.567 E0.07104
G1 X46.854 Y36.086 E0.04257
G1 X49.699 Y35.417 E0.09164
G1 X54.230 Y34.845 E0.14320
G1 X57.374 Y34.603 E0.09889
G1 X65.829 Y34.251 E0.26532
G1 X77.675 Y34.121 E0.37146
G1 X87.733 Y34.187 E0.31535
G1 X102.607 Y34.470 E0.46646
G1 X128.768 Y35.287 E0.82066
G1 X130.837 Y35.436 E0.06504
G1 X132.795 Y35.844 E0.06271
G1 X134.534 Y36.495 E0.05823
G1 X135.551 Y37.041 E0.03619
G1 X136.946 Y38.067 E0.05428
G1 X137.737 Y38.843 E0.03476
G1 X138.601 Y39.945 E0.04390
G1 X139.228 Y41.012 E0.03880
G1 X139.649 Y41.959 E0.03249
G1 X139.979 Y42.985 E0.03382
G1 X140.314 Y44.881 E0.06035
G1 X140.365 Y46.523 E0.05150
G1 X140.242 Y48.917 E0.07516
G1 X140.059 Y50.044 E0.03582
G1 X139.780 Y51.133 E0.03525
G1 X113.927 Y138.846 E2.86715
G1 X113.342 Y140.326 E0.04988
G1 X112.681 Y141.535 E0.04322
G1 X111.671 Y142.896 E0.05313
G1 X110.655 Y143.882 E0.04439
G1 X109.580 Y144.638 E0.04119
G1 X107.927 Y145.397 E0.05706
G1 X106.647 Y145.720 E0.04136
G1 X105.191 Y145.842 E0.04582
G1 X78.787 Y145.871 E0.82787
G1 X77.604 Y145.724 E0.03740
G1 X76.541 Y145.450 E0.03440
G1 X75.244 Y144.915 E0.04399
G1 X74.227 Y144.294 E0.03735
G1 X73.388 Y143.607 E0.03403
G1 X72.391 Y142.519 E0.04625
G1 X71.674 Y141.441 E0.04059
G1 X71.168 Y140.446 E0.03499
G1 X70.752 Y139.336 E0.03716
G1 X40.628 Y52.966 E2.86808
M73 P0 R85
G1 X40.135 Y50.897 E0.06670
G1 X39.711 Y48.058 E0.08998
G1 X39.633 Y46.482 E0.04947
G1 X39.718 Y44.815 E0.05235
G1 X40.097 Y42.806 E0.06410
G1 X40.810 Y40.962 E0.06196
G1 X41.959 Y39.225 E0.06531
M204 S1250
; printing object Glorious Curcan-Blorr.stl id:0 copy 0
G1 E-2.24000 F2400.000
;WIPE_START
G1 F7200.000
G1 X43.610 Y37.679 E-0.71629
G1 X44.148 Y37.375 E-0.19571
;WIPE_END
G1 E-0.04800 F2400.000
G1 Z0.400 F9000.000
G1 X99.844 Y100.318
G1 Z0.200
G1 E3.20000 F1500.000
M204 S800
;TYPE:Perimeter
G1 F1200.000
G1 X114.066 Y100.318 E0.44592
G1 X112.935 Y106.097 E0.18463
G1 X112.339 Y109.292 E0.10191
G1 X111.853 Y112.078 E0.08866
G1 X111.459 Y114.557 E0.07871
G1 X111.274 Y115.893 E0.04227
G1 X94.581 Y115.893 E0.52341
G1 X94.191 Y114.888 E0.03378
G1 X94.943 Y114.201 E0.03195
G1 X95.201 Y113.905 E0.01231
G1 X95.427 Y113.576 E0.01250
G1 X95.625 Y113.206 E0.01318
G1 X95.923 Y112.520 E0.02343
G1 X96.243 Y111.701 E0.02758
G1 X96.939 Y109.733 E0.06543
G1 X97.685 Y107.430 E0.07592
G1 X99.827 Y100.376 E0.23115
M204 S1250
G1 X100.124 Y100.695 F9000.000
M204 S800
;TYPE:External perimeter
G1 F1200.000
G1 X113.608 Y100.695 E0.42279
G1 X112.564 Y106.026 E0.17032
G1 X111.968 Y109.225 E0.10203
G1 X111.481 Y112.016 E0.08882
G1 X111.086 Y114.502 E0.07892
G1 X110.946 Y115.515 E0.03209
G1 X94.839 Y115.515 E0.50502
G1 X94.636 Y114.992 E0.01760
G1 X95.213 Y114.464 E0.02452
G1 X95.499 Y114.137 E0.01365
G1 X95.750 Y113.773 E0.01385
G1 X95.965 Y113.370 E0.01432
G1 X96.271 Y112.664 E0.02413
G1 X96.597 Y111.833 E0.02800
G1 X97.296 Y109.854 E0.06579
G1 X98.044 Y107.543 E0.07619
G1 X100.106 Y100.753 E0.22249
M204 S1250
G1 X100.164 Y100.297 F9000.000
G1 X100.106 Y99.893
M204 S800
;TYPE:Perimeter
G1 F1200.000
G1 X99.968 Y99.893 E0.00435
G1 X101.063 Y96.374 E0.11554
G1 X102.289 Y92.625 E0.12368
G1 X106.208 Y80.318 E0.40495
G1 X119.953 Y80.318 E0.43098
G1 X119.062 Y82.486 E0.07348
G1 X117.801 Y85.757 E0.10993
G1 X116.778 Y88.646 E0.09607
G1 X116.017 Y91.092 E0.08032
G1 X115.531 Y93.048 E0.06321
G1 X114.153 Y99.893 E0.21891
G1 X100.166 Y99.893 E0.43853
M204 S1250
G1 X100.480 Y99.515 F9000.000
M204 S800
;TYPE:External perimeter
G1 F1200.000
G1 X101.422 Y96.489 E0.09939
G1 X102.648 Y92.741 E0.12364
G1 X106.484 Y80.695 E0.39636
G1 X119.391 Y80.695 E0.40468
G1 X118.711 Y82.346 E0.05597
G1 X117.447 Y85.627 E0.11023
G1 X116.421 Y88.527 E0.09646
G1 X115.654 Y90.990 E0.08089
G1 X115.163 Y92.965 E0.06382
G1 X113.844 Y99.515 E0.20949
G1 X100.540 Y99.515 E0.41713
M204 S1250
G1 X100.081 Y99.491 F9000.000
G1 E-2.24000 F2400.000
;WIPE_START
G1 F7200.000
G1 X101.346 Y96.750 E-0.91200
;WIPE_END
G1 E-0.04800 F2400.000
G1 Z0.400 F9000.000
G1 X106.343 Y79.893
G1 Z0.200
G1 E3.20000 F1500.000
M204 S800
;TYPE:Perimeter
G1 F1200.000
G1 X107.644 Y75.973 E0.12947
G1 X108.536 Y73.434 E0.08439
G1 X111.312 Y66.138 E0.24476
G1 X111.823 Y64.897 E0.04208
G1 X112.324 Y63.792 E0.03804
G1 X112.760 Y62.929 E0.03033
G1 X113.681 Y61.207 E0.06122
G1 X114.097 Y60.318 E0.03077
G1 X129.277 Y60.318 E0.47595
G1 X128.228 Y62.357 E0.07187
G1 X126.082 Y66.701 E0.15194
G1 X124.072 Y70.942 E0.14713
G1 X122.219 Y75.022 E0.14052
G1 X120.122 Y79.893 E0.16627
M73 P1 R85
G1 X106.403 Y79.893 E0.43013
M204 S1250
G1 X106.866 Y79.515 F9000.000
M204 S800
;TYPE:External perimeter
G1 F1200.000
G1 X108.000 Y76.095 E0.11299
G1 X108.890 Y73.564 E0.08413
G1 X111.662 Y66.277 E0.24444
G1 X112.169 Y65.047 E0.04171
G1 X112.664 Y63.955 E0.03758
G1 X113.095 Y63.103 E0.02995
G1 X114.018 Y61.376 E0.06140
G1 X114.337 Y60.696 E0.02356
G1 X128.659 Y60.696 E0.44906
G1 X127.892 Y62.187 E0.05259
G1 X125.743 Y66.537 E0.15213
G1 X123.730 Y70.783 E0.14732
G1 X121.874 Y74.870 E0.14073
G1 X119.874 Y79.515 E0.15860
G1 X106.926 Y79.515 E0.40597
M204 S1250
G1 X106.468 Y79.470 F9000.000
G1 E-2.24000 F2400.000
;WIPE_START
G1 F7200.000
G1 X107.789 Y76.768 E-0.91200
;WIPE_END
G1 E-0.04800 F2400.000
G1 Z0.400 F9000.000
G1 X114.295 Y59.893
G1 Z0.200
G1 E3.20000 F1500.000
M204 S800
;TYPE:Perimeter
G1 F1200.000
G1 X114.338 Y58.819 E0.03369
G1 X114.283 Y58.348 E0.01486
G1 X114.141 Y57.866 E0.01575
G1 X113.896 Y57.365 E0.01749
G1 X113.570 Y56.908 E0.01759
G1 X113.206 Y56.548 E0.01606
G1 X112.812 Y56.266 E0.01519
G1 X112.394 Y56.051 E0.01475
G1 X111.962 Y55.893 E0.01443
G1 X111.529 Y55.784 E0.01398
G1 X111.114 Y55.717 E0.01319
G1 X110.742 Y55.682 E0.01171
G1 X99.771 Y55.610 E0.34400
G1 X75.288 Y55.349 E0.76767
G1 X74.645 Y55.378 E0.02019
G1 X74.094 Y55.459 E0.01746
G1 X73.616 Y55.582 E0.01548
G1 X73.203 Y55.739 E0.01387
G1 X72.849 Y55.922 E0.01249
G1 X72.547 Y56.126 E0.01141
G1 X72.292 Y56.344 E0.01052
G1 X72.078 Y56.570 E0.00976
G1 X71.903 Y56.801 E0.00908
G1 X71.765 Y57.022 E0.00818
G1 X71.517 Y57.538 E0.01793
G1 X71.377 Y58.021 E0.01578
G1 X71.319 Y58.495 E0.01496
G1 X71.329 Y58.964 E0.01471
G1 X71.466 Y59.893 E0.02943
G1 X51.190 Y59.893 E0.63576
G1 X51.190 Y60.186 E0.00920
G1 X50.692 Y60.318 E0.01615
G1 X71.647 Y60.318 E0.65704
G1 X72.210 Y61.385 E0.03783
G1 X74.120 Y65.973 E0.15582
G1 X75.572 Y69.391 E0.11643
G1 X76.594 Y72.039 E0.08900
G1 X77.572 Y74.773 E0.09103
G1 X78.504 Y77.548 E0.09179
G1 X79.249 Y79.893 E0.07714
G1 X59.497 Y79.893 E0.61931
G1 X58.914 Y78.606 E0.04429
G1 X56.769 Y74.067 E0.15742
G1 X54.069 Y68.551 E0.19253
G1 X50.727 Y61.911 E0.23310
G1 X49.968 Y60.511 E0.04993
G1 X49.942 Y60.518 E0.00087
G1 X48.134 Y57.272 E0.11649
G1 X47.433 Y55.934 E0.04737
G1 X46.764 Y54.574 E0.04751
G1 X46.165 Y53.235 E0.04599
G1 X45.672 Y51.959 E0.04287
G1 X45.334 Y50.805 E0.03773
G1 X45.101 Y49.744 E0.03406
G1 X44.904 Y48.671 E0.03421
G1 X44.761 Y47.583 E0.03439
G1 X44.700 Y46.498 E0.03408
G1 X44.743 Y45.427 E0.03359
G1 X44.927 Y44.388 E0.03311
G1 X45.286 Y43.401 E0.03291
G1 X45.858 Y42.504 E0.03337
G1 X46.661 Y41.745 E0.03464
G1 X47.719 Y41.151 E0.03805
G1 X52.162 Y40.184 E0.14257
G1 X59.238 Y39.587 E0.22265
G1 X68.270 Y39.279 E0.28336
G1 X78.553 Y39.199 E0.32243
G1 X89.575 Y39.288 E0.34560
G1 X100.419 Y39.492 E0.34007
G1 X110.450 Y39.752 E0.31461
G1 X125.236 Y40.212 E0.46384
G1 X128.604 Y40.299 E0.10562
G1 X130.576 Y40.480 E0.06211
G1 X132.176 Y40.965 E0.05241
G1 X133.404 Y41.714 E0.04510
G1 X134.266 Y42.653 E0.03996
G1 X134.807 Y43.690 E0.03669
G1 X135.090 Y44.733 E0.03386
G1 X135.192 Y45.709 E0.03078
G1 X135.188 Y46.560 E0.02668
G1 X135.056 Y48.621 E0.06477
G1 X134.805 Y49.681 E0.03413
G1 X134.422 Y50.750 E0.03561
G1 X133.938 Y51.828 E0.03704
G1 X133.384 Y52.909 E0.03810
G1 X132.784 Y53.984 E0.03860
G1 X130.993 Y57.044 E0.11119
G1 X130.488 Y57.965 E0.03292
G1 X129.496 Y59.893 E0.06797
G1 X114.355 Y59.893 E0.47472
M204 S1250
G1 E-2.24000 F2400.000
;WIPE_START
G1 F7200.000
G1 X114.338 Y58.819 E-0.34001
G1 X114.283 Y58.348 E-0.15011
G1 X114.141 Y57.866 E-0.15908
G1 X113.896 Y57.365 E-0.17668
G1 X113.738 Y57.144 E-0.08611
;WIPE_END
G1 E-0.04800 F2400.000
G1 Z0.400 F9000.000
G1 X50.497 Y60.696
G1 Z0.200
G1 E3.20000 F1500.000
M204 S800
;TYPE:External perimeter
G1 F1200.000
G1 X71.420 Y60.696 E0.65600
G1 X71.869 Y61.546 E0.03016
G1 X73.772 Y66.120 E0.15532
G1 X75.223 Y69.533 E0.11627
G1 X76.241 Y72.171 E0.08866
G1 X77.216 Y74.896 E0.09076
G1 X78.145 Y77.665 E0.09158
G1 X78.734 Y79.515 E0.06088
G1 X59.740 Y79.515 E0.59552
G1 X59.256 Y78.448 E0.03676
G1 X57.109 Y73.903 E0.15760
G1 X54.407 Y68.384 E0.19268
G1 X51.061 Y61.736 E0.23334
G1 X50.526 Y60.748 E0.03523
M204 S1250
G1 X50.435 Y60.300 F9000.000
G1 E-2.24000 F2400.000
;WIPE_START
G1 F7200.000
G1 X53.406 Y60.741 E-0.91200
;WIPE_END
G1 E-0.04800 F2400.000
G1 Z0.400 F9000.000
G1 X129.266 Y59.515
G1 Z0.200
G1 E3.20000 F1500.000
M204 S800
G1 F1200.000
G1 X114.688 Y59.515 E0.45709
G1 X114.716 Y58.804 E0.02231
G1 X114.653 Y58.273 E0.01679
G1 X114.494 Y57.729 E0.01775
G1 X114.221 Y57.171 E0.01948
G1 X113.858 Y56.663 E0.01957
G1 X113.450 Y56.259 E0.01801
G1 X113.009 Y55.943 E0.01700
G1 X112.546 Y55.705 E0.01635
G1 X112.073 Y55.532 E0.01579
G1 X111.606 Y55.414 E0.01511
G1 X111.162 Y55.342 E0.01410
G1 X110.761 Y55.305 E0.01263
G1 X99.774 Y55.232 E0.34449
G1 X75.282 Y54.972 E0.76798
G1 X74.609 Y55.002 E0.02112
G1 X74.020 Y55.089 E0.01867
G1 X73.502 Y55.222 E0.01676
G1 X73.048 Y55.394 E0.01521
G1 X72.656 Y55.598 E0.01385
G1 X72.318 Y55.825 E0.01277
G1 X72.032 Y56.071 E0.01183
G1 X71.791 Y56.326 E0.01101
G1 X71.592 Y56.587 E0.01026
G1 X71.434 Y56.840 E0.00938
G1 X71.164 Y57.402 E0.01956
G1 X71.006 Y57.945 E0.01772
G1 X70.941 Y58.476 E0.01677
G1 X70.953 Y58.996 E0.01630
G1 X71.029 Y59.515 E0.01647
G1 X50.812 Y59.515 E0.63389
G1 X50.812 Y59.896 E0.01194
G1 X50.128 Y60.078 E0.02219
G1 X48.465 Y57.093 E0.10714
G1 X47.769 Y55.763 E0.04706
G1 X47.105 Y54.414 E0.04715
G1 X46.513 Y53.090 E0.04547
G1 X46.030 Y51.838 E0.04207
G1 X45.699 Y50.711 E0.03683
G1 X45.471 Y49.669 E0.03344
G1 X45.276 Y48.612 E0.03371
G1 X45.137 Y47.548 E0.03366
G1 X45.077 Y46.495 E0.03307
G1 X45.119 Y45.468 E0.03222
G1 X45.293 Y44.486 E0.03128
G1 X45.627 Y43.569 E0.03059
G1 X46.151 Y42.745 E0.03062
G1 X46.886 Y42.051 E0.03171
G1 X47.854 Y41.508 E0.03482
G1 X52.218 Y40.557 E0.14004
G1 X59.260 Y39.963 E0.22158
G1 X68.278 Y39.656 E0.28291
G1 X78.553 Y39.576 E0.32218
G1 X89.570 Y39.666 E0.34544
G1 X100.411 Y39.869 E0.33996
G1 X110.439 Y40.129 E0.31454
G1 X125.225 Y40.589 E0.46384
G1 X128.582 Y40.676 E0.10527
G1 X130.504 Y40.852 E0.06051
G1 X132.020 Y41.312 E0.04970
G1 X133.162 Y42.009 E0.04194
G1 X133.955 Y42.871 E0.03673
G1 X134.454 Y43.828 E0.03385
G1 X134.718 Y44.802 E0.03163
G1 X134.815 Y45.728 E0.02919
G1 X134.811 Y46.547 E0.02568
G1 X134.682 Y48.566 E0.06342
G1 X134.443 Y49.573 E0.03248
G1 X134.072 Y50.609 E0.03449
G1 X133.598 Y51.664 E0.03627
G1 X133.051 Y52.731 E0.03759
G1 X132.457 Y53.797 E0.03827
G1 X130.664 Y56.858 E0.11123
G1 X130.155 Y57.788 E0.03324
G1 X129.293 Y59.462 E0.05903
M204 S1250
G1 X129.202 Y59.910 F9000.000
G1 E-2.24000 F2400.000
;WIPE_START
G1 F7200.000
G1 X126.413 Y59.473 E-0.91200
;WIPE_END
G1 E-0.04800 F2400.000
G1 Z0.400 F9000.000
G1 X111.968 Y58.112
G1 Z0.200
G1 E3.20000 F1500.000
M204 S800
;TYPE:Perimeter
G1 F1200.000
G1 X112.307 Y58.728 E0.02206
G1 X112.287 Y59.364 E0.01995
G1 X112.110 Y59.909 E0.01796
G1 X111.855 Y60.452 E0.01881
G1 X110.770 Y62.473 E0.07194
G1 X110.398 Y63.215 E0.02600
G1 X109.634 Y64.948 E0.05941
G1 X108.859 Y66.894 E0.06565
G1 X106.437 Y73.311 E0.21506
G1 X105.764 Y75.242 E0.06412
G1 X104.178 Y80.034 E0.15827
G1 X99.532 Y94.525 E0.47713
G1 X98.387 Y98.196 E0.12057
G1 X95.936 Y106.312 E0.26581
G1 X95.347 Y108.172 E0.06118
G1 X94.787 Y109.853 E0.05556
G1 X94.263 Y111.301 E0.04828
G1 X93.774 Y112.486 E0.04019
G1 X93.615 Y112.762 E0.00999
G1 X93.376 Y113.017 E0.01097
G1 X93.091 Y113.203 E0.01066
G1 X92.783 Y113.315 E0.01029
G1 X92.474 Y113.357 E0.00975
G1 X92.161 Y113.327 E0.00987
G1 X91.852 Y113.230 E0.01017
G1 X91.563 Y113.063 E0.01045
G1 X91.315 Y112.831 E0.01066
G1 X91.131 Y112.559 E0.01029
G1 X90.652 Y111.506 E0.03626
G1 X90.165 Y110.254 E0.04211
G1 X89.656 Y108.803 E0.04823
G1 X89.127 Y107.184 E0.05339
M73 P1 R84
G1 X88.583 Y105.429 E0.05762
G1 X87.469 Y101.660 E0.12324
G1 X85.805 Y95.876 E0.18871
G1 X83.886 Y88.874 E0.22764
G1 X83.045 Y85.869 E0.09782
G1 X82.112 Y82.657 E0.10489
G1 X81.094 Y79.310 E0.10968
G1 X79.996 Y75.908 E0.11208
G1 X78.824 Y72.526 E0.11222
G1 X77.584 Y69.244 E0.11002
G1 X73.997 Y60.708 E0.29032
G1 X73.494 Y59.704 E0.03519
G1 X73.336 Y59.287 E0.01401
G1 X73.244 Y58.852 E0.01393
G1 X73.270 Y58.367 E0.01522
G1 X73.498 Y57.889 E0.01661
G1 X73.899 Y57.562 E0.01622
G1 X74.345 Y57.395 E0.01493
G1 X74.841 Y57.320 E0.01575
G1 X75.292 Y57.302 E0.01415
G1 X99.709 Y57.567 E0.76560
G1 X107.278 Y57.620 E0.23734
G1 X110.018 Y57.620 E0.08591
G1 X110.744 Y57.653 E0.02280
G1 X111.382 Y57.782 E0.02040
G1 X111.916 Y58.082 E0.01921
M204 S1250
G1 X111.690 Y58.388 F9000.000
M204 S800
;TYPE:External perimeter
G1 F1200.000
G1 X111.927 Y58.819 E0.01545
G1 X111.911 Y59.299 E0.01503
G1 X111.759 Y59.770 E0.01555
G1 X111.518 Y60.283 E0.01775
G1 X110.435 Y62.300 E0.07179
G1 X110.057 Y63.054 E0.02645
G1 X109.286 Y64.803 E0.05991
G1 X108.508 Y66.757 E0.06597
G1 X106.082 Y73.182 E0.21532
G1 X105.407 Y75.121 E0.06437
G1 X103.819 Y79.917 E0.15841
G1 X99.172 Y94.411 E0.47723
G1 X98.027 Y98.085 E0.12067
G1 X95.576 Y106.200 E0.26578
G1 X94.988 Y108.055 E0.06101
G1 X94.431 Y109.729 E0.05532
G1 X93.911 Y111.165 E0.04787
G1 X93.434 Y112.319 E0.03917
G1 X93.310 Y112.536 E0.00784
G1 X93.132 Y112.726 E0.00817
G1 X92.921 Y112.864 E0.00789
G1 X92.692 Y112.947 E0.00765
G1 X92.467 Y112.977 E0.00713
G1 X92.236 Y112.956 E0.00727
G1 X92.005 Y112.883 E0.00759
G1 X91.790 Y112.758 E0.00781
G1 X91.603 Y112.584 E0.00800
G1 X91.461 Y112.374 E0.00796
G1 X91.000 Y111.360 E0.03493
G1 X90.519 Y110.124 E0.04158
G1 X90.013 Y108.682 E0.04790
G1 X89.487 Y107.070 E0.05317
G1 X88.944 Y105.320 E0.05745
G1 X87.831 Y101.554 E0.12312
G1 X86.168 Y95.774 E0.18859
G1 X84.249 Y88.773 E0.22760
G1 X83.407 Y85.766 E0.09791
G1 X82.473 Y82.549 E0.10502
G1 X81.454 Y79.197 E0.10986
G1 X80.354 Y75.789 E0.11230
G1 X79.179 Y72.398 E0.11251
G1 X77.935 Y69.104 E0.11040
G1 X74.340 Y60.550 E0.29093
G1 X73.840 Y59.553 E0.03498
G1 X73.699 Y59.180 E0.01249
G1 X73.623 Y58.823 E0.01146
G1 X73.642 Y58.462 E0.01131
G1 X73.802 Y58.128 E0.01161
G1 X74.089 Y57.893 E0.01163
G1 X74.440 Y57.762 E0.01174
