; generated by PrusaSlicer 2.3.3+win64 on 2022-06-16 at 07:22:49 UTC


;
;

;
;
; 

; external perimeters extrusion width = 0.45mm
; perimeters extrusion width = 0.45mm
; infill extrusion width = 0.45mm
; solid infill extrusion width = 0.45mm
; top infill extrusion width = 0.40mm
; first layer extrusion width = 0.42mm

M73 P0 R92
M201 X1250 Y1250 Z400 E5000 ; sets maximum accelerations, mm/sec^2
M203 X180 Y180 Z12 E80 ; sets maximum feedrates, mm/sec
M204 P1250 R1250 T1250 ; sets acceleration (P, T) and retract acceleration (R), mm/sec^2
M205 X8.00 Y8.00 Z2.00 E10.00 ; sets the jerk limits, mm/sec
M205 S0 T0 ; sets the minimum extruding and travel feed rate, mm/sec
M107
;TYPE:Custom
G90 ; use absolute coordinates
M83 ; extruder relative mode
M104 S170 ; set extruder temp for bed leveling
M140 S85 ; set bed temp
M109 R170 ; wait for bed leveling temp
M190 S85 ; wait for bed temp
G28 ; home all without mesh bed level
G29 ; mesh bed leveling 
M104 S230 ; set extruder temp
G92 E0.0
G1 Y-2.0 X179 F2400
G1 Z3 F720
M109 S230 ; wait for extruder temp

; intro line
G1 X170 F1000
G1 Z0.2 F720
G1 X110.0 E8.0 F900
G1 X40.0 E10.0 F700
G92 E0.0

M221 S95 ; set flow
G21 ; set units to millimeters
G90 ; use absolute coordinates
M83 ; use relative distances for extrusion
M900 K0.2 ; Filament gcode
;LAYER_CHANGE
;Z:0.2
;HEIGHT:0.2
;BEFORE_LAYER_CHANGE
G92 E0.0
;0.2


M73 P0 R91
G1 E-3.20000 F2400.000
G1 Z0.200 F9000.000
;AFTER_LAYER_CHANGE
;0.2
G1 Z0.400
G1 X60.405 Y34.835
G1 Z0.200
G1 E3.20000 F1500.000
M204 S800
;TYPE:Skirt
;WIDTH:0.42
G1 F1200.000
G1 X61.898 Y34.447 E0.04837
G1 X63.360 Y34.317 E0.04603
G1 X78.594 Y34.103 E0.47769
G1 X101.760 Y34.281 E0.72639
G1 X117.119 Y34.457 E0.48158
G1 X118.728 Y34.562 E0.05057
G1 X120.215 Y34.867 E0.04758
G1 X121.071 Y35.150 E0.02827
G1 X122.391 Y35.789 E0.04601
G1 X123.178 Y36.311 E0.02958
G1 X124.279 Y37.285 E0.04609
G1 X125.085 Y38.253 E0.03951
G1 X125.749 Y39.326 E0.03956
G1 X126.217 Y40.373 E0.03594
G1 X126.566 Y41.479 E0.03636
G1 X126.780 Y42.511 E0.03306
G1 X126.963 Y44.552 E0.06426
G1 X128.649 Y136.952 E2.89760
G1 X128.511 Y138.209 E0.03965
G1 X128.051 Y140.053 E0.05957
G1 X127.615 Y141.106 E0.03576
G1 X127.072 Y142.060 E0.03443
G1 X126.444 Y142.908 E0.03308
G1 X125.388 Y143.959 E0.04671
G1 X124.216 Y144.773 E0.04473
G1 X122.939 Y145.363 E0.04410
G1 X121.407 Y145.768 E0.04968
G1 X119.879 Y145.897 E0.04810
G1 X59.865 Y145.686 E1.88170
G1 X58.134 Y145.422 E0.05491
G1 X57.173 Y145.149 E0.03132
G1 X56.238 Y144.778 E0.03152
G1 X54.866 Y144.003 E0.04942
G1 X54.077 Y143.393 E0.03126
G1 X53.368 Y142.690 E0.03130
G1 X52.506 Y141.547 E0.04489
G1 X52.047 Y140.667 E0.03113
G1 X51.748 Y139.835 E0.02772
G1 X51.429 Y138.243 E0.05090
G1 X51.324 Y135.960 E0.07167
G1 X53.336 Y47.515 E2.77384
G1 X53.536 Y44.601 E0.09159
G1 X53.806 Y43.058 E0.04909
G1 X54.135 Y41.801 E0.04074
G1 X54.593 Y40.538 E0.04212
G1 X55.157 Y39.379 E0.04042
G1 X55.906 Y38.215 E0.04340
G1 X56.669 Y37.294 E0.03748
G1 X57.804 Y36.259 E0.04818
G1 X59.040 Y35.446 E0.04639
G1 X60.350 Y34.860 E0.04499
M204 S1250
; printing object Spectacular Bojo-Kup.stl id:0 copy 0
G1 E-2.24000 F2400.000
;WIPE_START
G1 F7200.000
G1 X61.898 Y34.447 E-0.50731
G1 X63.171 Y34.334 E-0.40469
;WIPE_END
G1 E-0.04800 F2400.000
G1 Z0.400 F9000.000
G1 X100.715 Y100.230
G1 Z0.200
G1 E3.20000 F1500.000
M204 S800
;TYPE:Perimeter
G1 F1200.000
G1 X119.461 Y100.230 E0.58776
G1 X119.996 Y109.362 E0.28680
G1 X121.103 Y119.805 E0.32926
G1 X101.434 Y119.805 E0.61673
G1 X101.058 Y110.487 E0.29237
G1 X100.717 Y100.290 E0.31990
M204 S1250
G1 X101.105 Y100.608 F9000.000
M204 S800
;TYPE:External perimeter
G1 F1200.000
G1 X119.105 Y100.608 E0.56438
G1 X119.620 Y109.393 E0.27593
G1 X120.684 Y119.427 E0.31639
G1 X101.796 Y119.427 E0.59223
G1 X101.435 Y110.474 E0.28097
G1 X101.107 Y100.667 E0.30764
M204 S1250
G1 X101.100 Y100.208 F9000.000
G1 E-2.24000 F2400.000
;WIPE_START
G1 F7200.000
G1 X103.987 Y100.658 E-0.91200
;WIPE_END
G1 E-0.04800 F2400.000
G1 Z0.400 F9000.000
G1 X101.449 Y120.230
G1 Z0.200
G1 E3.20000 F1500.000
M204 S800
;TYPE:Perimeter
G1 F1200.000
G1 X121.148 Y120.230 E0.61767
G1 X121.237 Y121.061 E0.02619
G1 X123.190 Y133.333 E0.38963
G1 X123.446 Y135.247 E0.06052
G1 X123.448 Y136.878 E0.05116
G1 X123.205 Y138.232 E0.04312
G1 X122.713 Y139.327 E0.03763
G1 X121.983 Y140.144 E0.03437
G1 X121.166 Y140.597 E0.02928
G1 X120.173 Y140.801 E0.03178
G1 X119.146 Y140.761 E0.03224
G1 X118.118 Y140.530 E0.03301
G1 X117.094 Y140.140 E0.03436
G1 X116.323 Y139.698 E0.02786
G1 X115.740 Y139.177 E0.02454
G1 X115.319 Y138.637 E0.02145
G1 X114.780 Y137.733 E0.03301
G1 X114.558 Y137.426 E0.01188
G1 X114.318 Y137.206 E0.01022
G1 X113.982 Y137.032 E0.01186
G1 X113.440 Y136.904 E0.01747
G1 X112.628 Y136.865 E0.02547
G1 X112.113 Y136.928 E0.01628
G1 X111.712 Y137.108 E0.01377
G1 X111.499 Y137.292 E0.00882
G1 X111.306 Y137.568 E0.01058
G1 X110.858 Y138.469 E0.03153
G1 X110.540 Y139.019 E0.01992
G1 X110.084 Y139.579 E0.02265
G1 X109.474 Y140.055 E0.02426
G1 X108.733 Y140.383 E0.02540
G1 X108.270 Y140.507 E0.01503
G1 X107.776 Y140.599 E0.01577
G1 X107.232 Y140.662 E0.01715
G1 X106.652 Y140.684 E0.01822
G1 X106.046 Y140.656 E0.01903
G1 X105.425 Y140.565 E0.01966
G1 X104.803 Y140.396 E0.02022
G1 X104.196 Y140.131 E0.02076
G1 X103.628 Y139.753 E0.02139
G1 X103.035 Y139.161 E0.02628
G1 X102.644 Y137.639 E0.04927
G1 X102.322 Y134.819 E0.08898
G1 X102.022 Y130.894 E0.12344
G1 X101.741 Y126.165 E0.14853
G1 X101.452 Y120.290 E0.18442
M204 S1250
G1 X101.845 Y120.608 F9000.000
M204 S800
;TYPE:External perimeter
G1 F1200.000
G1 X120.809 Y120.608 E0.59462
G1 X120.863 Y121.111 E0.01586
G1 X122.817 Y133.388 E0.38980
G1 X123.069 Y135.272 E0.05959
G1 X123.071 Y136.845 E0.04932
G1 X122.842 Y138.120 E0.04061
G1 X122.393 Y139.119 E0.03436
G1 X121.744 Y139.846 E0.03053
G1 X121.034 Y140.239 E0.02547
G1 X120.142 Y140.422 E0.02855
G1 X119.195 Y140.386 E0.02972
G1 X118.227 Y140.168 E0.03109
G1 X117.256 Y139.798 E0.03259
G1 X116.545 Y139.391 E0.02570
G1 X116.016 Y138.919 E0.02223
G1 X115.631 Y138.424 E0.01965
G1 X115.096 Y137.525 E0.03280
G1 X114.841 Y137.174 E0.01361
G1 X114.535 Y136.894 E0.01300
G1 X114.114 Y136.676 E0.01488
G1 X113.492 Y136.529 E0.02001
G1 X112.614 Y136.487 E0.02757
G1 X112.011 Y136.561 E0.01907
G1 X111.507 Y136.786 E0.01729
G1 X111.217 Y137.037 E0.01203
G1 X110.981 Y137.375 E0.01293
G1 X110.525 Y138.290 E0.03205
G1 X110.229 Y138.805 E0.01861
G1 X109.819 Y139.308 E0.02036
G1 X109.279 Y139.729 E0.02147
G1 X108.608 Y140.026 E0.02301
G1 X108.187 Y140.139 E0.01366
G1 X107.719 Y140.226 E0.01491
G1 X107.203 Y140.286 E0.01628
G1 X106.653 Y140.307 E0.01726
G1 X106.082 Y140.280 E0.01794
G1 X105.502 Y140.196 E0.01836
G1 X104.928 Y140.039 E0.01865
G1 X104.377 Y139.799 E0.01886
G1 X103.868 Y139.460 E0.01917
G1 X103.375 Y138.967 E0.02187
G1 X103.016 Y137.570 E0.04523
G1 X102.698 Y134.783 E0.08794
G1 X102.398 Y130.868 E0.12312
G1 X102.118 Y126.145 E0.14836
G1 X101.848 Y120.667 E0.17195
M204 S1250
G1 X101.838 Y120.208 F9000.000
G1 E-2.24000 F2400.000
;WIPE_START
G1 F7200.000
G1 X104.728 Y120.658 E-0.91200
;WIPE_END
G1 E-0.04800 F2400.000
G1 Z0.400 F9000.000
G1 X58.898 Y119.230
G1 Z0.200
G1 E3.20000 F1500.000
M204 S800
;TYPE:Perimeter
G1 F1200.000
G1 X78.081 Y119.230 E0.60146
G1 X77.774 Y128.742 E0.29838
G1 X77.556 Y137.570 E0.27688
G1 X77.486 Y138.215 E0.02034
G1 X77.343 Y138.821 E0.01953
G1 X77.083 Y139.390 E0.01963
G1 X76.672 Y139.884 E0.02014
G1 X76.181 Y140.207 E0.01843
G1 X75.565 Y140.415 E0.02037
G1 X74.820 Y140.518 E0.02359
G1 X73.966 Y140.529 E0.02680
G1 X72.957 Y140.456 E0.03170
G1 X72.090 Y140.310 E0.02758
G1 X71.348 Y140.057 E0.02457
G1 X70.738 Y139.709 E0.02202
G1 X70.253 Y139.294 E0.02001
G1 X69.877 Y138.852 E0.01821
G1 X69.069 Y137.672 E0.04483
G1 X68.808 Y137.371 E0.01250
G1 X68.502 Y137.109 E0.01263
G1 X68.332 Y137.012 E0.00613
G1 X68.119 Y136.940 E0.00707
G1 X67.850 Y136.894 E0.00854
G1 X67.544 Y136.881 E0.00961
G1 X67.213 Y136.902 E0.01039
G1 X66.875 Y136.958 E0.01075
G1 X66.545 Y137.043 E0.01068
G1 X66.239 Y137.153 E0.01020
G1 X65.966 Y137.283 E0.00948
G1 X65.647 Y137.476 E0.01167
G1 X65.439 Y137.650 E0.00854
G1 X65.294 Y137.805 E0.00666
G1 X64.751 Y138.655 E0.03162
M73 P1 R91
G1 X64.487 Y138.985 E0.01324
G1 X64.144 Y139.335 E0.01537
G1 X63.698 Y139.713 E0.01832
G1 X63.104 Y140.147 E0.02305
G1 X62.756 Y140.325 E0.01228
G1 X62.211 Y140.492 E0.01784
G1 X61.611 Y140.596 E0.01912
G1 X60.960 Y140.640 E0.02045
G1 X60.272 Y140.618 E0.02158
G1 X59.566 Y140.517 E0.02238
G1 X58.860 Y140.323 E0.02295
G1 X58.177 Y140.022 E0.02341
G1 X57.542 Y139.592 E0.02404
G1 X56.955 Y138.973 E0.02676
G1 X56.603 Y138.060 E0.03067
G1 X56.470 Y136.854 E0.03804
G1 X56.471 Y135.434 E0.04453
G1 X56.567 Y133.848 E0.04983
G1 X56.732 Y132.177 E0.05265
G1 X56.940 Y130.512 E0.05261
G1 X57.386 Y127.586 E0.09280
G1 X58.768 Y120.215 E0.23513
G1 X58.890 Y119.290 E0.02926
M204 S1250
G1 X59.228 Y119.608 F9000.000
M204 S800
;TYPE:External perimeter
G1 F1200.000
G1 X77.691 Y119.608 E0.57889
G1 X77.397 Y128.731 E0.28621
G1 X77.179 Y137.545 E0.27643
G1 X77.114 Y138.151 E0.01911
G1 X76.985 Y138.698 E0.01763
G1 X76.761 Y139.188 E0.01688
G1 X76.418 Y139.600 E0.01681
G1 X76.014 Y139.865 E0.01515
G1 X75.479 Y140.046 E0.01774
G1 X74.792 Y140.141 E0.02174
G1 X73.977 Y140.152 E0.02556
G1 X73.002 Y140.081 E0.03064
G1 X72.182 Y139.943 E0.02607
G1 X71.504 Y139.712 E0.02248
G1 X70.956 Y139.399 E0.01977
G1 X70.521 Y139.027 E0.01796
G1 X70.176 Y138.623 E0.01665
G1 X69.368 Y137.442 E0.04488
G1 X69.074 Y137.103 E0.01405
G1 X68.720 Y136.800 E0.01461
G1 X68.488 Y136.666 E0.00841
G1 X68.211 Y136.573 E0.00915
G1 X67.890 Y136.518 E0.01021
G1 X67.540 Y136.503 E0.01100
G1 X67.171 Y136.527 E0.01160
G1 X66.797 Y136.588 E0.01186
G1 X66.434 Y136.682 E0.01177
G1 X66.093 Y136.804 E0.01135
G1 X65.787 Y136.951 E0.01065
G1 X65.428 Y137.168 E0.01315
G1 X65.179 Y137.376 E0.01016
G1 X65.002 Y137.564 E0.00810
G1 X64.869 Y137.748 E0.00711
G1 X64.442 Y138.437 E0.02544
G1 X64.204 Y138.735 E0.01193
G1 X63.887 Y139.059 E0.01423
G1 X63.465 Y139.417 E0.01735
G1 X62.906 Y139.825 E0.02169
G1 X62.613 Y139.974 E0.01030
G1 X62.124 Y140.124 E0.01607
G1 X61.565 Y140.221 E0.01777
G1 X60.953 Y140.263 E0.01923
G1 X60.305 Y140.242 E0.02033
G1 X59.642 Y140.147 E0.02099
G1 X58.986 Y139.967 E0.02133
G1 X58.360 Y139.691 E0.02147
G1 X57.787 Y139.303 E0.02168
G1 X57.280 Y138.768 E0.02313
G1 X56.972 Y137.970 E0.02679
G1 X56.847 Y136.834 E0.03585
G1 X56.848 Y135.446 E0.04352
G1 X56.943 Y133.878 E0.04925
G1 X57.107 Y132.219 E0.05227
G1 X57.314 Y130.564 E0.05230
G1 X57.758 Y127.649 E0.09245
G1 X59.140 Y120.275 E0.23525
G1 X59.220 Y119.667 E0.01922
M204 S1250
G1 X59.252 Y119.208 F9000.000
G1 E-2.24000 F2400.000
;WIPE_START
G1 F7200.000
G1 X62.100 Y119.658 E-0.91200
;WIPE_END
G1 E-0.04800 F2400.000
G1 Z0.400 F9000.000
G1 X60.503 Y100.230
G1 Z0.200
G1 E3.20000 F1500.000
M204 S800
;TYPE:Perimeter
G1 F1200.000
G1 X78.835 Y100.230 E0.57477
G1 X78.373 Y111.446 E0.35197
G1 X78.098 Y118.805 E0.23087
G1 X58.954 Y118.805 E0.60023
G1 X59.573 Y114.128 E0.14792
G1 X60.143 Y107.574 E0.20626
G1 X60.500 Y100.290 E0.22865
M204 S1250
G1 X60.862 Y100.608 F9000.000
M204 S800
;TYPE:External perimeter
G1 F1200.000
G1 X78.442 Y100.608 E0.55120
G1 X77.997 Y111.432 E0.33967
G1 X77.734 Y118.427 E0.21951
G1 X59.385 Y118.427 E0.57535
G1 X59.948 Y114.169 E0.13469
G1 X60.519 Y107.600 E0.20675
G1 X60.859 Y100.667 E0.21762
M204 S1250
G1 X60.871 Y100.208 F9000.000
G1 E-2.24000 F2400.000
;WIPE_START
G1 F7200.000
G1 X63.739 Y100.658 E-0.91200
;WIPE_END
G1 E-0.04800 F2400.000
G1 Z0.400 F9000.000
G1 X60.359 Y79.230
G1 Z0.200
G1 E3.20000 F1500.000
M204 S800
;TYPE:Perimeter
G1 F1200.000
G1 X79.269 Y79.230 E0.59291
G1 X80.623 Y79.719 E0.04513
G1 X83.041 Y80.155 E0.07704
G1 X86.041 Y80.445 E0.09450
G1 X89.333 Y80.578 E0.10330
G1 X92.639 Y80.560 E0.10367
G1 X95.685 Y80.392 E0.09564
G1 X98.186 Y80.083 E0.07901
G1 X99.826 Y79.660 E0.05309
G1 X100.361 Y79.230 E0.02153
G1 X119.352 Y79.230 E0.59546
G1 X119.177 Y88.011 E0.27536
G1 X119.349 Y98.311 E0.32300
G1 X119.436 Y99.805 E0.04691
G1 X100.894 Y99.805 E0.58138
M73 P1 R90
G1 X100.658 Y99.538 E0.01117
G1 X100.582 Y99.483 E0.00293
G1 X100.477 Y99.466 E0.00336
G1 X79.328 Y99.466 E0.66309
G1 X79.119 Y99.520 E0.00680
G1 X78.992 Y99.593 E0.00458
G1 X78.740 Y99.805 E0.01032
G1 X60.500 Y99.805 E0.57191
G1 X60.617 Y93.154 E0.20856
G1 X60.548 Y85.331 E0.24529
G1 X60.361 Y79.290 E0.18950
M204 S1250
G1 X60.748 Y79.608 F9000.000
M204 S800
;TYPE:External perimeter
G1 F1200.000
G1 X79.203 Y79.608 E0.57865
G1 X80.525 Y80.084 E0.04405
G1 X82.989 Y80.529 E0.07852
G1 X86.015 Y80.821 E0.09531
G1 X89.326 Y80.955 E0.10390
G1 X92.651 Y80.937 E0.10424
G1 X95.719 Y80.768 E0.09634
G1 X98.256 Y80.454 E0.08018
G1 X99.966 Y80.013 E0.05535
G1 X100.494 Y79.608 E0.02087
G1 X118.968 Y79.608 E0.57924
G1 X118.800 Y88.010 E0.26351
G1 X118.972 Y98.325 E0.32346
G1 X119.036 Y99.427 E0.03462
G1 X101.064 Y99.427 E0.56351
G1 X100.913 Y99.257 E0.00715
G1 X100.760 Y99.146 E0.00590
G1 X100.507 Y99.088 E0.00814
G1 X79.312 Y99.088 E0.66455
G1 X79.193 Y99.099 E0.00376
G1 X78.964 Y99.174 E0.00754
G1 X78.775 Y99.282 E0.00685
G1 X78.602 Y99.427 E0.00707
G1 X60.884 Y99.427 E0.55556
G1 X60.994 Y93.156 E0.19668
G1 X60.925 Y85.324 E0.24558
G1 X60.750 Y79.667 E0.17743
M204 S1250
G1 X60.745 Y79.208 F9000.000
G1 E-2.24000 F2400.000
;WIPE_START
G1 F7200.000
G1 X63.630 Y79.658 E-0.91200
;WIPE_END
G1 E-0.04800 F2400.000
G1 Z0.400 F9000.000
G1 X59.248 Y59.230
G1 Z0.200
G1 E3.20000 F1500.000
M204 S800
;TYPE:Perimeter
G1 F1200.000
G1 X81.428 Y59.230 E0.69542
G1 X80.621 Y62.523 E0.10629
G1 X79.635 Y67.688 E0.16487
G1 X78.992 Y73.217 E0.17452
G1 X78.858 Y78.805 E0.17526
G1 X60.346 Y78.805 E0.58044
G1 X60.294 Y77.127 E0.05261
G1 X59.865 Y68.565 E0.26880
G1 X59.252 Y59.290 E0.29144
M204 S1250
G1 X59.651 Y59.608 F9000.000
M204 S800
;TYPE:External perimeter
G1 F1200.000
G1 X80.947 Y59.608 E0.66772
G1 X80.253 Y62.443 E0.09152
G1 X79.263 Y67.631 E0.16560
G1 X78.615 Y73.190 E0.17549
G1 X78.490 Y78.427 E0.16426
G1 X60.711 Y78.427 E0.55744
G1 X60.670 Y77.112 E0.04126
G1 X60.242 Y68.543 E0.26901
G1 X59.655 Y59.667 E0.27890
M204 S1250
G1 X59.643 Y59.208 F9000.000
G1 E-2.24000 F2400.000
;WIPE_START
G1 F7200.000
G1 X62.535 Y59.659 E-0.91200
;WIPE_END
G1 E-0.04800 F2400.000
G1 Z0.400 F9000.000
G1 X81.532 Y58.805
G1 Z0.200
G1 E3.20000 F1500.000
M204 S800
;TYPE:Perimeter
G1 F1200.000
G1 X59.208 Y58.805 E0.69993
G1 X58.541 Y50.427 E0.26351
G1 X58.427 Y47.442 E0.09367
G1 X58.621 Y44.972 E0.07766
G1 X59.096 Y42.986 E0.06402
G1 X59.833 Y41.444 E0.05360
G1 X60.814 Y40.326 E0.04664
G1 X61.905 Y39.698 E0.03947
G1 X63.166 Y39.453 E0.04026
G1 X64.445 Y39.575 E0.04031
G1 X65.679 Y39.992 E0.04082
G1 X66.856 Y40.657 E0.04239
G1 X67.720 Y41.463 E0.03705
G1 X68.375 Y42.467 E0.03758
G1 X68.860 Y43.563 E0.03759
G1 X69.227 Y44.691 E0.03719
G1 X70.005 Y47.670 E0.09654
G1 X70.233 Y48.266 E0.02000
G1 X70.380 Y48.476 E0.00804
G1 X70.718 Y48.394 E0.01088
G1 X70.761 Y48.355 E0.00184
G1 X70.819 Y48.340 E0.00187
G1 X71.206 Y47.987 E0.01645
G1 X71.620 Y47.275 E0.02580
G1 X72.022 Y46.272 E0.03391
G1 X72.874 Y43.814 E0.08154
G1 X73.422 Y42.532 E0.04371
G1 X74.137 Y41.328 E0.04390
G1 X75.103 Y40.294 E0.04437
G1 X76.257 Y39.644 E0.04155
G1 X77.034 Y39.421 E0.02532
G1 X77.774 Y39.306 E0.02351
G1 X78.483 Y39.272 E0.02223
G1 X79.199 Y39.308 E0.02248
G1 X79.871 Y39.401 E0.02127
G1 X80.510 Y39.535 E0.02047
G1 X81.112 Y39.699 E0.01957
G1 X81.676 Y39.882 E0.01859
G1 X82.767 Y40.289 E0.03653
G1 X84.356 Y41.596 E0.06449
G1 X84.911 Y43.787 E0.07089
G1 X84.695 Y46.485 E0.08485
G1 X83.986 Y49.717 E0.10375
G1 X81.784 Y57.775 E0.26192
G1 X81.546 Y58.746 E0.03136
M204 S1250
G1 X81.236 Y58.427 F9000.000
M204 S800
;TYPE:External perimeter
G1 F1200.000
G1 X59.557 Y58.427 E0.67974
G1 X58.918 Y50.405 E0.25235
G1 X58.804 Y47.449 E0.09273
G1 X58.995 Y45.031 E0.07605
G1 X59.453 Y43.113 E0.06184
G1 X60.151 Y41.654 E0.05071
G1 X61.057 Y40.622 E0.04305
G1 X62.039 Y40.056 E0.03554
G1 X63.184 Y39.834 E0.03658
G1 X64.366 Y39.946 E0.03723
G1 X65.524 Y40.338 E0.03833
G1 X66.631 Y40.964 E0.03987
