; generated by PrusaSlicer 2.3.3+win64 on 2022-06-15 at 09:53:58 UTC


;
;

;
;
; 

; external perimeters extrusion width = 0.45mm
; perimeters extrusion width = 0.45mm
; infill extrusion width = 0.45mm
; solid infill extrusion width = 0.45mm
; top infill extrusion width = 0.40mm
; first layer extrusion width = 0.42mm

M73 P0 R64
M201 X1250 Y1250 Z400 E5000 ; sets maximum accelerations, mm/sec^2
M203 X180 Y180 Z12 E80 ; sets maximum feedrates, mm/sec
M204 P1250 R1250 T1250 ; sets acceleration (P, T) and retract acceleration (R), mm/sec^2
M205 X8.00 Y8.00 Z2.00 E10.00 ; sets the jerk limits, mm/sec
M205 S0 T0 ; sets the minimum extruding and travel feed rate, mm/sec
M107
;TYPE:Custom
G90 ; use absolute coordinates
M83 ; extruder relative mode
M104 S170 ; set extruder temp for bed leveling
M140 S85 ; set bed temp
M109 R170 ; wait for bed leveling temp
M190 S85 ; wait for bed temp
G28 ; home all without mesh bed level
G29 ; mesh bed leveling 
M104 S230 ; set extruder temp
G92 E0.0
G1 Y-2.0 X179 F2400
G1 Z3 F720
M109 S230 ; wait for extruder temp

; intro line
G1 X170 F1000
G1 Z0.2 F720
G1 X110.0 E8.0 F900
G1 X40.0 E10.0 F700
G92 E0.0

M221 S95 ; set flow
G21 ; set units to millimeters
G90 ; use absolute coordinates
M83 ; use relative distances for extrusion
M900 K0.2 ; Filament gcode
;LAYER_CHANGE
;Z:0.2
;HEIGHT:0.2
;BEFORE_LAYER_CHANGE
G92 E0.0
;0.2


G1 E-3.20000 F2400.000
G1 Z0.200 F9000.000
;AFTER_LAYER_CHANGE
;0.2
G1 Z0.400
G1 X45.584 Y141.908
G1 Z0.200
G1 E3.20000 F1500.000
M204 S800
;TYPE:Skirt
;WIDTH:0.42
G1 F1200.000
G1 X44.846 Y140.257 E0.05670
G1 X44.604 Y139.276 E0.03169
G1 X42.044 Y124.883 E0.45836
G1 X41.967 Y123.938 E0.02973
G1 X42.021 Y122.761 E0.03694
G1 X42.396 Y121.051 E0.05487
G1 X42.812 Y119.985 E0.03589
G1 X43.413 Y118.925 E0.03821
G1 X103.111 Y37.646 E3.16199
G1 X104.282 Y36.523 E0.05088
G1 X105.663 Y35.657 E0.05111
G1 X107.792 Y34.843 E0.07145
G1 X109.890 Y34.445 E0.06695
G1 X112.429 Y34.184 E0.08004
G1 X114.928 Y34.012 E0.07855
G1 X118.129 Y33.927 E0.10040
G1 X122.259 Y34.081 E0.12957
G1 X123.868 Y34.263 E0.05077
G1 X126.233 Y34.767 E0.07583
G1 X127.311 Y35.166 E0.03603
G1 X134.479 Y38.792 E0.25188
G1 X135.575 Y39.551 E0.04179
G1 X136.247 Y40.199 E0.02927
G1 X136.891 Y41.046 E0.03336
G1 X137.624 Y42.508 E0.05129
G1 X137.977 Y43.995 E0.04791
G1 X138.037 Y44.974 E0.03075
G1 X136.263 Y135.201 E2.82956
G1 X136.193 Y136.011 E0.02551
G1 X135.930 Y137.184 E0.03768
G1 X135.523 Y138.206 E0.03447
G1 X135.133 Y138.904 E0.02508
G1 X134.291 Y139.990 E0.04307
G1 X133.254 Y140.903 E0.04333
G1 X126.203 Y145.070 E0.25679
G1 X125.297 Y145.480 E0.03119
G1 X124.520 Y145.718 E0.02549
G1 X123.023 Y145.949 E0.04747
G1 X56.515 Y146.068 E2.08534
G1 X53.814 Y145.945 E0.08476
G1 X52.383 Y145.769 E0.04520
G1 X50.998 Y145.486 E0.04432
G1 X49.401 Y144.975 E0.05259
G1 X47.935 Y144.236 E0.05146
G1 X46.614 Y143.199 E0.05268
G1 X45.621 Y141.955 E0.04990
M204 S1250
; printing object Exquisite Allis-Fyyran.stl id:0 copy 0
G1 E-2.24000 F2400.000
;WIPE_START
G1 F7200.000
G1 X44.846 Y140.257 E-0.59111
G1 X44.604 Y139.276 E-0.32004
G1 X44.603 Y139.273 E-0.00085
;WIPE_END
G1 E-0.04800 F2400.000
G1 Z0.400 F9000.000
G1 X108.700 Y99.911
G1 Z0.200
G1 E3.20000 F1500.000
M204 S800
;TYPE:Perimeter
G1 F1200.000
G1 X108.475 Y92.223 E0.24115
G1 X108.346 Y83.639 E0.26917
G1 X108.248 Y80.336 E0.10360
G1 X129.462 Y80.336 E0.66514
G1 X129.370 Y84.173 E0.12031
G1 X129.316 Y88.684 E0.14145
G1 X129.325 Y96.592 E0.24797
G1 X129.256 Y99.911 E0.10406
M73 P1 R64
G1 X108.760 Y99.911 E0.64263
M204 S1250
G1 X109.067 Y99.534 F9000.000
M204 S800
;TYPE:External perimeter
G1 F1200.000
G1 X108.852 Y92.214 E0.22958
G1 X108.723 Y83.631 E0.26917
G1 X108.636 Y80.714 E0.09150
G1 X129.075 Y80.714 E0.64085
G1 X128.993 Y84.166 E0.10828
M73 P1 R63
G1 X128.939 Y88.682 E0.14160
G1 X128.948 Y96.589 E0.24792
G1 X128.887 Y99.534 E0.09235
G1 X109.127 Y99.534 E0.61957
M204 S1250
G1 X108.667 Y99.561 F9000.000
G1 E-2.24000 F2400.000
;WIPE_START
G1 F7200.000
G1 X109.019 Y96.656 E-0.91200
;WIPE_END
G1 E-0.04800 F2400.000
G1 Z0.400 F9000.000
G1 X107.222 Y61.336
G1 Z0.200
G1 E3.20000 F1500.000
M204 S800
;TYPE:Perimeter
G1 F1200.000
G1 X130.338 Y61.336 E0.72480
G1 X129.951 Y67.702 E0.19995
G1 X129.686 Y73.407 E0.17908
G1 X129.466 Y79.911 E0.20403
G1 X108.243 Y79.911 E0.66543
G1 X108.039 Y75.137 E0.14980
G1 X107.821 Y71.059 E0.12807
G1 X107.226 Y61.396 E0.30353
M204 S1250
G1 X107.623 Y61.713 F9000.000
M204 S800
;TYPE:External perimeter
G1 F1200.000
G1 X129.938 Y61.713 E0.69966
G1 X129.574 Y67.681 E0.18747
G1 X129.310 Y73.392 E0.17924
G1 X129.102 Y79.534 E0.19267
G1 X108.605 Y79.534 E0.64267
G1 X108.415 Y75.119 E0.13853
G1 X108.198 Y71.037 E0.12818
G1 X107.627 Y61.773 E0.29100
M204 S1250
G1 X107.615 Y61.314 F9000.000
G1 E-2.24000 F2400.000
;WIPE_START
G1 F7200.000
G1 X110.507 Y61.766 E-0.91200
;WIPE_END
G1 E-0.04800 F2400.000
G1 Z0.400 F9000.000
G1 X130.389 Y60.911
G1 Z0.200
G1 E3.20000 F1500.000
M204 S800
;TYPE:Perimeter
G1 F1200.000
G1 X107.194 Y60.911 E0.72726
G1 X106.801 Y54.215 E0.21030
G1 X106.568 Y49.515 E0.14754
G1 X106.350 Y43.787 E0.17973
G1 X106.355 Y43.123 E0.02082
G1 X106.413 Y42.480 E0.02024
G1 X106.562 Y41.850 E0.02028
G1 X106.848 Y41.247 E0.02095
G1 X107.247 Y40.773 E0.01940
G1 X107.832 Y40.357 E0.02253
G1 X108.571 Y40.032 E0.02529
G1 X109.455 Y39.790 E0.02875
G1 X110.513 Y39.617 E0.03362
G1 X112.648 Y39.405 E0.06725
G1 X114.712 Y39.265 E0.06487
G1 X116.681 Y39.192 E0.06180
G1 X118.071 Y39.181 E0.04356
G1 X120.222 Y39.218 E0.06748
G1 X121.737 Y39.310 E0.04757
G1 X123.042 Y39.450 E0.04116
G1 X124.120 Y39.636 E0.03431
G1 X124.983 Y39.887 E0.02816
G1 X125.597 Y40.245 E0.02230
G1 X126.011 Y40.742 E0.02029
G1 X126.255 Y41.152 E0.01496
G1 X126.400 Y41.544 E0.01310
G1 X126.460 Y41.882 E0.01076
G1 X126.494 Y42.295 E0.01298
G1 X126.558 Y42.480 E0.00615
G1 X126.674 Y42.640 E0.00618
G1 X126.855 Y42.821 E0.00803
G1 X127.182 Y42.987 E0.01150
G1 X127.746 Y43.068 E0.01787
G1 X130.387 Y43.032 E0.08283
G1 X131.328 Y43.153 E0.02973
G1 X132.232 Y43.567 E0.03118
G1 X132.820 Y44.460 E0.03353
G1 X132.829 Y45.641 E0.03704
G1 X132.395 Y46.947 E0.04313
G1 X131.755 Y49.150 E0.07195
G1 X131.193 Y52.582 E0.10904
G1 X130.703 Y57.011 E0.13972
G1 X130.393 Y60.851 E0.12077
M204 S1250
G1 X130.041 Y60.533 F9000.000
M204 S800
;TYPE:External perimeter
G1 F1200.000
G1 X107.549 Y60.533 E0.70520
G1 X107.178 Y54.195 E0.19909
G1 X106.944 Y49.499 E0.14742
G1 X106.727 Y43.781 E0.17939
G1 X106.732 Y43.141 E0.02007
G1 X106.786 Y42.541 E0.01892
G1 X106.920 Y41.976 E0.01819
G1 X107.168 Y41.452 E0.01818
G1 X107.504 Y41.053 E0.01637
G1 X108.019 Y40.686 E0.01982
G1 X108.697 Y40.388 E0.02320
G1 X109.536 Y40.159 E0.02726
G1 X110.563 Y39.991 E0.03263
G1 X112.679 Y39.781 E0.06668
G1 X114.731 Y39.642 E0.06450
G1 X116.690 Y39.569 E0.06144
G1 X118.069 Y39.558 E0.04324
G1 X120.208 Y39.595 E0.06707
G1 X121.705 Y39.686 E0.04704
G1 X122.990 Y39.823 E0.04051
G1 X124.035 Y40.004 E0.03327
G1 X124.833 Y40.236 E0.02604
G1 X125.350 Y40.538 E0.01877
G1 X125.703 Y40.961 E0.01728
G1 X125.914 Y41.315 E0.01293
G1 X126.034 Y41.643 E0.01095
G1 X126.085 Y41.931 E0.00916
G1 X126.120 Y42.352 E0.01326
G1 X126.155 Y42.506 E0.00493
G1 X126.231 Y42.672 E0.00573
G1 X126.386 Y42.886 E0.00828
G1 X126.631 Y43.130 E0.01085
G1 X127.067 Y43.351 E0.01534
G1 X127.719 Y43.445 E0.02064
G1 X128.546 Y43.446 E0.02593
G1 X129.453 Y43.412 E0.02846
G1 X130.364 Y43.409 E0.02857
G1 X131.223 Y43.520 E0.02716
G1 X131.977 Y43.865 E0.02599
G1 X132.444 Y44.574 E0.02664
G1 X132.451 Y45.581 E0.03158
G1 X132.035 Y46.834 E0.04140
G1 X131.387 Y49.067 E0.07289
G1 X130.819 Y52.531 E0.11006
G1 X130.327 Y56.976 E0.14020
G1 X130.045 Y60.474 E0.11004
M204 S1250
G1 X130.028 Y60.933 F9000.000
G1 E-2.24000 F2400.000
;WIPE_START
G1 F7200.000
G1 X127.165 Y60.481 E-0.91200
;WIPE_END
G1 E-0.04800 F2400.000
G1 Z0.400 F9000.000
G1 X129.253 Y100.336
G1 Z0.200
G1 E3.20000 F1500.000
M204 S800
;TYPE:Perimeter
G1 F1200.000
G1 X128.941 Y110.841 E0.32951
G1 X128.845 Y115.581 E0.14866
G1 X128.846 Y119.911 E0.13574
G1 X107.576 Y119.911 E0.66689
G1 X108.312 Y117.656 E0.07435
G1 X108.656 Y115.263 E0.07581
G1 X108.838 Y112.215 E0.09574
G1 X108.885 Y108.667 E0.11124
G1 X108.834 Y104.761 E0.12249
G1 X108.716 Y100.336 E0.13878
G1 X129.193 Y100.336 E0.64202
M204 S1250
G1 X128.864 Y100.714 F9000.000
M204 S800
;TYPE:External perimeter
G1 F1200.000
G1 X128.564 Y110.832 E0.31739
G1 X128.468 Y115.578 E0.14883
G1 X128.469 Y119.533 E0.12403
G1 X108.096 Y119.533 E0.63878
G1 X108.680 Y117.742 E0.05908
G1 X109.032 Y115.301 E0.07733
G1 X109.215 Y112.229 E0.09650
G1 X109.262 Y108.667 E0.11167
G1 X109.211 Y104.754 E0.12273
G1 X109.104 Y100.714 E0.12672
G1 X128.804 Y100.714 E0.61769
M204 S1250
G1 X129.264 Y100.694 F9000.000
G1 E-2.24000 F2400.000
;WIPE_START
G1 F7200.000
G1 X128.736 Y103.593 E-0.91200
;WIPE_END
G1 E-0.04800 F2400.000
G1 Z0.400 F9000.000
G1 X128.804 Y120.336
G1 Z0.200
G1 E3.20000 F1500.000
M204 S800
;TYPE:Perimeter
G1 F1200.000
G1 X128.854 Y120.336 E0.00156
G1 X128.990 Y124.291 E0.12406
G1 X129.322 Y128.000 E0.11677
G1 X129.882 Y131.094 E0.09857
G1 X130.723 Y133.508 E0.08018
G1 X131.003 Y134.219 E0.02395
G1 X131.130 Y134.939 E0.02292
G1 X131.076 Y135.595 E0.02066
G1 X130.861 Y136.154 E0.01877
G1 X130.573 Y136.543 E0.01517
G1 X130.248 Y136.820 E0.01340
G1 X129.902 Y137.022 E0.01255
G1 X129.604 Y137.146 E0.01013
G1 X128.837 Y137.369 E0.02504
G1 X128.262 Y137.428 E0.01812
G1 X127.722 Y137.406 E0.01697
G1 X127.226 Y137.336 E0.01569
G1 X126.046 Y137.110 E0.03767
G1 X125.810 Y137.095 E0.00743
G1 X125.671 Y137.111 E0.00438
G1 X125.593 Y137.144 E0.00266
G1 X125.216 Y137.452 E0.01527
G1 X124.955 Y137.832 E0.01445
G1 X124.834 Y138.177 E0.01146
G1 X124.765 Y138.588 E0.01308
G1 X124.715 Y139.065 E0.01505
G1 X124.616 Y139.614 E0.01749
G1 X124.368 Y140.160 E0.01879
G1 X123.825 Y140.627 E0.02248
G1 X123.054 Y140.846 E0.02513
G1 X122.156 Y140.849 E0.02816
G1 X119.637 Y140.666 E0.07918
G1 X116.640 Y140.484 E0.09413
G1 X109.680 Y140.133 E0.21851
G1 X98.985 Y139.691 E0.33563
G1 X91.442 Y139.438 E0.23662
G1 X86.624 Y139.437 E0.15107
G1 X81.450 Y139.636 E0.16235
G1 X76.106 Y139.960 E0.16786
G1 X65.699 Y140.680 E0.32707
G1 X61.022 Y140.923 E0.14684
G1 X56.946 Y140.986 E0.12782
G1 X53.635 Y140.787 E0.10402
G1 X51.165 Y140.196 E0.07964
G1 X49.861 Y138.961 E0.05631
G1 X49.713 Y138.359 E0.01942
G1 X49.673 Y137.942 E0.01314
G1 X49.674 Y137.674 E0.00842
G1 X49.750 Y137.161 E0.01625
G1 X49.847 Y136.862 E0.00985
G1 X49.991 Y136.554 E0.01068
G1 X50.382 Y136.024 E0.02065
G1 X50.833 Y135.582 E0.01979
G1 X52.487 Y134.243 E0.06674
G1 X52.998 Y133.779 E0.02163
G1 X53.507 Y133.224 E0.02360
G1 X53.856 Y132.714 E0.01938
G1 X54.098 Y132.167 E0.01877
G1 X54.214 Y131.598 E0.01821
G1 X54.097 Y130.636 E0.03039
G1 X53.634 Y129.854 E0.02847
G1 X52.835 Y129.123 E0.03397
G1 X51.776 Y128.431 E0.03966
G1 X50.582 Y127.756 E0.04302
G1 X49.379 Y127.044 E0.04382
M73 P2 R63
G1 X48.283 Y126.212 E0.04313
G1 X47.440 Y125.137 E0.04286
G1 X47.113 Y123.750 E0.04466
G1 X47.539 Y122.037 E0.05538
G1 X50.132 Y120.336 E0.09720
G1 X128.744 Y120.336 E2.46484
M204 S1250
G1 X128.490 Y120.713 F9000.000
M204 S800
;TYPE:External perimeter
G1 F1200.000
G1 X128.613 Y124.314 E0.11296
G1 X128.948 Y128.051 E0.11762
G1 X129.516 Y131.190 E0.10003
G1 X130.369 Y133.640 E0.08134
G1 X130.639 Y134.322 E0.02299
G1 X130.750 Y134.956 E0.02020
G1 X130.705 Y135.511 E0.01744
G1 X130.528 Y135.971 E0.01546
G1 X130.296 Y136.284 E0.01221
G1 X130.029 Y136.511 E0.01099
G1 X129.734 Y136.683 E0.01071
G1 X129.478 Y136.790 E0.00868
G1 X128.765 Y136.998 E0.02330
G1 X128.251 Y137.050 E0.01620
G1 X127.756 Y137.030 E0.01553
G1 X127.288 Y136.964 E0.01481
G1 X126.094 Y136.735 E0.03812
G1 X125.800 Y136.716 E0.00924
G1 X125.573 Y136.743 E0.00715
G1 X125.396 Y136.818 E0.00604
G1 X124.936 Y137.194 E0.01864
G1 X124.615 Y137.660 E0.01772
G1 X124.468 Y138.083 E0.01405
G1 X124.391 Y138.537 E0.01444
G1 X124.341 Y139.012 E0.01499
G1 X124.254 Y139.501 E0.01558
G1 X124.059 Y139.928 E0.01470
G1 X123.642 Y140.287 E0.01727
G1 X123.001 Y140.469 E0.02090
G1 X122.169 Y140.472 E0.02609
G1 X119.662 Y140.290 E0.07881
G1 X116.661 Y140.108 E0.09426
G1 X109.697 Y139.756 E0.21862
G1 X98.999 Y139.314 E0.33573
G1 X91.448 Y139.060 E0.23687
G1 X86.617 Y139.060 E0.15149
G1 X81.431 Y139.259 E0.16271
G1 X76.082 Y139.584 E0.16804
G1 X65.677 Y140.304 E0.32702
G1 X61.010 Y140.546 E0.14652
G1 X56.955 Y140.609 E0.12716
G1 X53.691 Y140.413 E0.10253
G1 X51.351 Y139.853 E0.07543
G1 X50.201 Y138.763 E0.04967
G1 X50.086 Y138.296 E0.01509
G1 X50.050 Y137.925 E0.01168
G1 X50.051 Y137.703 E0.00697
G1 X50.119 Y137.247 E0.01444
G1 X50.199 Y137.000 E0.00814
G1 X50.317 Y136.747 E0.00876
G1 X50.667 Y136.272 E0.01851
G1 X51.084 Y135.864 E0.01828
G1 X52.733 Y134.529 E0.06652
G1 X53.264 Y134.047 E0.02250
G1 X53.803 Y133.459 E0.02499
G1 X54.186 Y132.898 E0.02131
G1 X54.459 Y132.282 E0.02113
G1 X54.596 Y131.613 E0.02141
G1 X54.461 Y130.511 E0.03479
G1 X53.930 Y129.614 E0.03270
G1 X53.067 Y128.824 E0.03670
G1 X51.972 Y128.109 E0.04100
G1 X50.771 Y127.429 E0.04327
G1 X49.590 Y126.730 E0.04302
G1 X48.550 Y125.941 E0.04093
G1 X47.788 Y124.969 E0.03873
G1 X47.501 Y123.753 E0.03919
G1 X47.870 Y122.271 E0.04788
G1 X50.244 Y120.713 E0.08904
G1 X128.430 Y120.713 E2.45144
M204 S1250
G1 X128.889 Y120.702 F9000.000
G1 E-2.24000 F2400.000
;WIPE_START
G1 F7200.000
G1 X128.576 Y123.590 E-0.91200
;WIPE_END
G1 E-0.04800 F2400.000
G1 Z0.400 F9000.000
G1 X128.465 Y40.985
G1 Z0.200
G1 E3.20000 F1500.000
M204 S800
;TYPE:Perimeter
G1 F1200.000
G1 X130.052 Y40.937 E0.04980
G1 X130.700 Y40.954 E0.02031
G1 X131.111 Y40.991 E0.01293
G1 X131.567 Y41.064 E0.01450
G1 X132.046 Y41.182 E0.01545
G1 X132.530 Y41.356 E0.01614
G1 X133.005 Y41.592 E0.01662
G1 X133.456 Y41.902 E0.01716
G1 X133.875 Y42.298 E0.01807
G1 X134.261 Y42.807 E0.02004
G1 X134.479 Y43.189 E0.01380
G1 X134.650 Y43.592 E0.01371
G1 X134.772 Y44.015 E0.01380
G1 X134.846 Y44.461 E0.01416
G1 X134.872 Y44.931 E0.01478
G1 X134.846 Y45.429 E0.01562
G1 X134.768 Y45.955 E0.01666
G1 X134.635 Y46.509 E0.01788
G1 X134.446 Y47.091 E0.01917
G1 X134.172 Y47.764 E0.02279
G1 X133.628 Y49.738 E0.06421
G1 X133.140 Y52.888 E0.09993
G1 X132.706 Y56.963 E0.12849
G1 X132.325 Y61.745 E0.15042
G1 X131.999 Y67.003 E0.16518
G1 X131.733 Y72.499 E0.17252
G1 X131.529 Y77.994 E0.17241
G1 X131.394 Y83.250 E0.16487
G1 X131.332 Y88.029 E0.14985
G1 X131.363 Y94.649 E0.20756
G1 X131.339 Y97.303 E0.08322
G1 X131.243 Y101.462 E0.13043
G1 X130.919 Y111.952 E0.32908
G1 X130.860 Y115.084 E0.09820
G1 X130.841 Y118.173 E0.09687
G1 X130.878 Y121.158 E0.09361
G1 X130.985 Y123.978 E0.08846
G1 X131.179 Y126.573 E0.08160
G1 X131.475 Y128.886 E0.07312
G1 X131.899 Y130.869 E0.06357
G1 X132.457 Y132.412 E0.05145
G1 X132.737 Y133.069 E0.02241
G1 X132.919 Y133.636 E0.01867
G1 X133.034 Y134.162 E0.01688
G1 X133.091 Y134.651 E0.01542
G1 X133.099 Y135.104 E0.01421
G1 X133.066 Y135.521 E0.01311
G1 X133.000 Y135.903 E0.01218
G1 X132.906 Y136.252 E0.01133
G1 X132.665 Y136.848 E0.02014
G1 X132.461 Y137.208 E0.01299
G1 X132.234 Y137.531 E0.01237
G1 X131.985 Y137.822 E0.01200
G1 X131.716 Y138.083 E0.01176
G1 X131.431 Y138.315 E0.01151
G1 X131.134 Y138.518 E0.01127
G1 X130.829 Y138.693 E0.01103
G1 X130.521 Y138.841 E0.01073
G1 X130.216 Y138.961 E0.01027
G1 X129.535 Y139.168 E0.02230
G1 X128.843 Y139.300 E0.02212
G1 X128.483 Y139.333 E0.01134
G1 X128.031 Y139.344 E0.01418
G1 X127.726 Y139.326 E0.00956
G1 X126.689 Y139.203 E0.03274
G1 X126.208 Y140.614 E0.04675
G1 X125.883 Y141.208 E0.02123
G1 X125.506 Y141.677 E0.01886
G1 X125.088 Y142.040 E0.01735
G1 X124.640 Y142.318 E0.01655
G1 X124.172 Y142.522 E0.01600
G1 X123.700 Y142.662 E0.01545
G1 X123.244 Y142.748 E0.01455
G1 X122.832 Y142.790 E0.01299
G1 X122.093 Y142.796 E0.02315
G1 X119.439 Y142.597 E0.08347
G1 X116.508 Y142.422 E0.09204
G1 X113.207 Y142.248 E0.10365
G1 X106.041 Y141.917 E0.22492
G1 X99.047 Y141.633 E0.21946
G1 X93.333 Y141.424 E0.17928
G1 X90.642 Y141.334 E0.08443
G1 X88.983 Y141.320 E0.05203
G1 X85.723 Y141.369 E0.10222
G1 X84.032 Y141.424 E0.05304
G1 X80.576 Y141.587 E0.10848
