; generated by PrusaSlicer 2.3.3+win64 on 2022-06-08 at 14:03:40 UTC


;
;

;
;
; 

; external perimeters extrusion width = 0.45mm
; perimeters extrusion width = 0.45mm
; infill extrusion width = 0.45mm
; solid infill extrusion width = 0.45mm
; top infill extrusion width = 0.40mm
; first layer extrusion width = 0.42mm

M73 P0 R110
M201 X1250 Y1250 Z400 E5000 ; sets maximum accelerations, mm/sec^2
M203 X180 Y180 Z12 E80 ; sets maximum feedrates, mm/sec
M204 P1250 R1250 T1250 ; sets acceleration (P, T) and retract acceleration (R), mm/sec^2
M205 X8.00 Y8.00 Z2.00 E10.00 ; sets the jerk limits, mm/sec
M205 S0 T0 ; sets the minimum extruding and travel feed rate, mm/sec
M107
;TYPE:Custom
G90 ; use absolute coordinates
M83 ; extruder relative mode
M104 S170 ; set extruder temp for bed leveling
M140 S85 ; set bed temp
M109 R170 ; wait for bed leveling temp
M190 S85 ; wait for bed temp
G28 ; home all without mesh bed level
G29 ; mesh bed leveling 
M104 S230 ; set extruder temp
G92 E0.0
G1 Y-2.0 X179 F2400
G1 Z3 F720
M109 S230 ; wait for extruder temp

; intro line
G1 X170 F1000
G1 Z0.2 F720
G1 X110.0 E8.0 F900
G1 X40.0 E10.0 F700
G92 E0.0

M221 S95 ; set flow
G21 ; set units to millimeters
G90 ; use absolute coordinates
M83 ; use relative distances for extrusion
M900 K0.2 ; Filament gcode
;LAYER_CHANGE
;Z:0.2
;HEIGHT:0.2
;BEFORE_LAYER_CHANGE
G92 E0.0
;0.2


G1 E-3.20000 F2400.000
G1 Z0.200 F9000.000
;AFTER_LAYER_CHANGE
;0.2
G1 Z0.400
G1 X43.493 Y36.566
G1 Z0.200
G1 E3.20000 F1500.000
M204 S800
;TYPE:Skirt
;WIDTH:0.42
G1 F1200.000
G1 X44.504 Y35.744 E0.04084
G1 X45.538 Y35.138 E0.03760
G1 X47.466 Y34.357 E0.06520
G1 X49.301 Y33.905 E0.05927
G1 X51.113 Y33.769 E0.05696
G1 X127.638 Y34.533 E2.39952
G1 X129.088 Y34.701 E0.04576
G1 X130.528 Y35.030 E0.04631
G1 X131.904 Y35.511 E0.04571
G1 X133.193 Y36.132 E0.04486
G1 X133.943 Y36.593 E0.02761
G1 X135.876 Y38.103 E0.07689
G1 X137.502 Y39.961 E0.07742
G1 X138.743 Y42.267 E0.08209
G1 X139.331 Y44.228 E0.06421
G1 X139.593 Y46.482 E0.07114
G1 X137.718 Y133.747 E2.73678
G1 X137.534 Y135.877 E0.06702
M73 P0 R109
G1 X137.315 Y137.092 E0.03870
G1 X136.974 Y138.353 E0.04097
G1 X136.484 Y139.625 E0.04273
G1 X135.862 Y140.805 E0.04182
G1 X135.027 Y141.978 E0.04515
G1 X134.015 Y143.032 E0.04582
G1 X132.896 Y143.891 E0.04424
G1 X131.314 Y144.785 E0.05698
G1 X129.119 Y145.630 E0.07374
G1 X126.817 Y146.122 E0.07379
G1 X125.210 Y146.231 E0.05052
G1 X68.480 Y145.843 E1.77878
G1 X53.119 Y145.517 E0.48172
G1 X49.681 Y145.222 E0.10819
G1 X48.091 Y144.851 E0.05121
G1 X47.218 Y144.542 E0.02902
G1 X45.809 Y143.839 E0.04938
G1 X45.029 Y143.313 E0.02951
G1 X43.873 Y142.277 E0.04866
G1 X43.241 Y141.534 E0.03058
G1 X42.348 Y140.123 E0.05234
G1 X41.706 Y138.584 E0.05229
G1 X41.299 Y136.929 E0.05344
G1 X41.103 Y135.144 E0.05629
G1 X40.407 Y45.513 E2.81041
G1 X40.453 Y43.965 E0.04856
G1 X40.614 Y42.527 E0.04537
G1 X40.875 Y41.257 E0.04065
G1 X41.337 Y39.818 E0.04740
G1 X41.891 Y38.648 E0.04057
G1 X42.523 Y37.671 E0.03648
G1 X43.453 Y36.611 E0.04424
M204 S1250
; printing object Bodacious Densor-Wluff.stl id:0 copy 0
G1 E-2.24000 F2400.000
;WIPE_START
G1 F7200.000
G1 X44.504 Y35.744 E-0.43117
G1 X45.538 Y35.138 E-0.37973
G1 X45.834 Y35.018 E-0.10110
;WIPE_END
G1 E-0.04800 F2400.000
G1 Z0.400 F9000.000
G1 X85.658 Y100.213
G1 Z0.200
G1 E3.20000 F1500.000
M204 S800
;TYPE:Perimeter
G1 F1200.000
G1 X106.258 Y100.213 E0.64589
G1 X106.932 Y101.701 E0.05123
G1 X108.438 Y104.799 E0.10801
G1 X108.437 Y104.526 E0.00855
G1 X108.553 Y102.087 E0.07658
G1 X108.569 Y100.213 E0.05875
G1 X129.010 Y100.213 E0.64092
G1 X129.643 Y107.875 E0.24107
G1 X130.644 Y115.999 E0.25663
G1 X131.037 Y118.787 E0.08829
G1 X94.082 Y118.787 E1.15870
G1 X90.295 Y110.497 E0.28576
G1 X85.683 Y100.268 E0.35184
M204 S1250
G1 X86.242 Y100.590 F9000.000
M204 S800
;TYPE:External perimeter
G1 F1200.000
G1 X106.015 Y100.590 E0.61997
G1 X106.591 Y101.861 E0.04376
G1 X108.098 Y104.961 E0.10808
G1 X108.435 Y105.869 E0.03036
G1 X108.697 Y106.236 E0.01414
G1 X108.776 Y106.314 E0.00347
G1 X108.862 Y105.934 E0.01220
G1 X108.865 Y105.529 E0.01271
G1 X108.817 Y105.039 E0.01544
G1 X108.814 Y104.534 E0.01582
G1 X108.930 Y102.097 E0.07650
G1 X108.943 Y100.590 E0.04726
G1 X128.663 Y100.590 E0.61831
G1 X129.267 Y107.914 E0.23042
G1 X130.270 Y116.048 E0.25697
G1 X130.603 Y118.410 E0.07478
G1 X94.324 Y118.410 E1.13750
G1 X90.638 Y110.341 E0.27813
G1 X86.266 Y100.645 E0.33351
M204 S1250
G1 X86.185 Y100.194 F9000.000
G1 E-2.24000 F2400.000
;WIPE_START
G1 F7200.000
G1 X89.146 Y100.637 E-0.91200
;WIPE_END
G1 E-0.04800 F2400.000
G1 Z0.400 F9000.000
G1 X94.268 Y119.213
G1 Z0.200
G1 E3.20000 F1500.000
M204 S800
;TYPE:Perimeter
G1 F1200.000
G1 X131.097 Y119.213 E1.15475
G1 X131.629 Y122.985 E0.11945
G1 X132.343 Y128.824 E0.18443
G1 X132.525 Y133.531 E0.14770
G1 X131.862 Y137.161 E0.11569
G1 X129.991 Y139.520 E0.09441
G1 X129.279 Y139.936 E0.02584
G1 X128.582 Y140.267 E0.02419
G1 X127.816 Y140.558 E0.02570
G1 X126.992 Y140.794 E0.02687
G1 X126.124 Y140.957 E0.02768
G1 X125.224 Y141.032 E0.02832
G1 X124.307 Y140.997 E0.02879
G1 X123.388 Y140.831 E0.02928
G1 X122.488 Y140.510 E0.02995
G1 X121.644 Y140.023 E0.03055
G1 X120.929 Y139.436 E0.02900
G1 X120.431 Y138.908 E0.02278
G1 X120.039 Y138.348 E0.02142
G1 X119.754 Y137.783 E0.01983
G1 X119.548 Y137.239 E0.01827
G1 X119.213 Y136.197 E0.03429
G1 X119.010 Y135.670 E0.01773
G1 X118.734 Y135.103 E0.01978
G1 X118.354 Y134.481 E0.02284
G1 X118.050 Y134.101 E0.01526
G1 X117.789 Y133.853 E0.01130
G1 X117.533 Y133.681 E0.00966
G1 X117.292 Y133.579 E0.00821
G1 X117.059 Y133.536 E0.00742
G1 X116.826 Y133.546 E0.00732
G1 X116.574 Y133.617 E0.00821
G1 X116.291 Y133.765 E0.01000
G1 X115.981 Y134.010 E0.01240
G1 X115.639 Y134.378 E0.01575
G1 X115.153 Y135.012 E0.02504
G1 X114.745 Y135.597 E0.02237
G1 X114.409 Y136.130 E0.01975
G1 X113.346 Y137.972 E0.06669
G1 X113.046 Y138.408 E0.01659
G1 X112.701 Y138.832 E0.01716
G1 X112.263 Y139.275 E0.01952
G1 X111.591 Y139.735 E0.02554
G1 X110.771 Y140.082 E0.02793
G1 X109.869 Y140.318 E0.02921
G1 X108.918 Y140.456 E0.03016
G1 X107.943 Y140.501 E0.03057
G1 X106.982 Y140.450 E0.03019
G1 X106.063 Y140.297 E0.02920
G1 X105.215 Y140.028 E0.02791
G1 X104.461 Y139.608 E0.02705
G1 X103.956 Y139.069 E0.02315
G1 X101.757 Y134.982 E0.14554
G1 X98.569 Y128.425 E0.22860
G1 X94.293 Y119.267 E0.31687
M204 S1250
G1 X94.860 Y119.590 F9000.000
M204 S800
;TYPE:External perimeter
G1 F1200.000
G1 X130.769 Y119.590 E1.12590
G1 X131.255 Y123.034 E0.10907
G1 X131.967 Y128.854 E0.18383
G1 X132.147 Y133.504 E0.14591
G1 X131.508 Y137.000 E0.11144
G1 X129.740 Y139.230 E0.08923
G1 X129.103 Y139.602 E0.02311
G1 X128.434 Y139.919 E0.02321
G1 X127.697 Y140.199 E0.02473
G1 X126.905 Y140.426 E0.02583
G1 X126.074 Y140.583 E0.02653
G1 X125.216 Y140.655 E0.02699
G1 X124.348 Y140.622 E0.02723
G1 X123.485 Y140.465 E0.02748
G1 X122.647 Y140.167 E0.02791
G1 X121.859 Y139.712 E0.02851
G1 X121.187 Y139.160 E0.02727
G1 X120.724 Y138.669 E0.02116
G1 X120.364 Y138.154 E0.01972
G1 X120.100 Y137.631 E0.01836
G1 X119.904 Y137.114 E0.01734
G1 X119.569 Y136.072 E0.03433
G1 X119.356 Y135.520 E0.01856
G1 X119.065 Y134.921 E0.02086
G1 X118.663 Y134.264 E0.02415
G1 X118.328 Y133.846 E0.01681
G1 X118.025 Y133.558 E0.01310
G1 X117.713 Y133.348 E0.01178
G1 X117.401 Y133.216 E0.01064
G1 X117.086 Y133.158 E0.01005
G1 X116.766 Y133.172 E0.01004
G1 X116.434 Y133.265 E0.01081
G1 X116.085 Y133.448 E0.01233
G1 X115.724 Y133.732 E0.01442
G1 X115.351 Y134.135 E0.01722
G1 X114.849 Y134.789 E0.02587
G1 X114.431 Y135.389 E0.02291
G1 X114.086 Y135.935 E0.02025
G1 X113.026 Y137.770 E0.06646
G1 X112.744 Y138.182 E0.01565
G1 X112.420 Y138.580 E0.01610
G1 X112.020 Y138.984 E0.01782
G1 X111.409 Y139.403 E0.02323
G1 X110.649 Y139.724 E0.02588
G1 X109.794 Y139.947 E0.02770
G1 X108.882 Y140.081 E0.02892
G1 X107.945 Y140.124 E0.02940
G1 X107.023 Y140.074 E0.02895
G1 X106.152 Y139.930 E0.02769
G1 X105.365 Y139.680 E0.02587
G1 X104.696 Y139.307 E0.02402
G1 X104.265 Y138.847 E0.01976
G1 X102.092 Y134.810 E0.14375
G1 X98.909 Y128.262 E0.22827
G1 X94.886 Y119.644 E0.29821
M204 S1250
G1 X94.801 Y119.194 F9000.000
G1 E-2.24000 F2400.000
;WIPE_START
G1 F7200.000
G1 X97.766 Y119.640 E-0.91200
;WIPE_END
G1 E-0.04800 F2400.000
G1 Z0.400 F9000.000
G1 X76.743 Y80.213
G1 Z0.200
G1 E3.20000 F1500.000
M204 S800
;TYPE:Perimeter
G1 F1200.000
G1 X97.378 Y80.213 E0.64700
G1 X104.506 Y96.346 E0.55300
G1 X106.065 Y99.787 E0.11846
G1 X85.468 Y99.787 E0.64579
G1 X76.768 Y80.268 E0.67006
M204 S1250
M73 P1 R109
G1 X77.324 Y80.590 F9000.000
M204 S800
;TYPE:External perimeter
G1 F1200.000
G1 X97.133 Y80.590 E0.62108
G1 X104.162 Y96.500 E0.54535
G1 X105.480 Y99.410 E0.10018
G1 X85.713 Y99.410 E0.61978
G1 X77.349 Y80.645 E0.64418
M204 S1250
G1 X77.196 Y80.211 F9000.000
G1 E-2.24000 F2400.000
;WIPE_START
G1 F7200.000
G1 X80.228 Y80.637 E-0.91200
;WIPE_END
G1 E-0.04800 F2400.000
G1 Z0.400 F9000.000
G1 X108.190 Y80.213
G1 Z0.200
G1 E3.20000 F1500.000
M204 S800
;TYPE:Perimeter
G1 F1200.000
G1 X128.944 Y80.213 E0.65075
G1 X128.608 Y88.287 E0.25338
G1 X128.880 Y98.631 E0.32445
G1 X128.975 Y99.787 E0.03636
G1 X108.573 Y99.787 E0.63970
G1 X108.597 Y97.013 E0.08698
G1 X108.522 Y90.678 E0.19864
G1 X108.326 Y83.518 E0.22460
G1 X108.192 Y80.273 E0.10183
M204 S1250
G1 X108.583 Y80.590 F9000.000
M204 S800
;TYPE:External perimeter
G1 F1200.000
G1 X128.551 Y80.590 E0.62610
G1 X128.231 Y88.284 E0.24145
G1 X128.503 Y98.652 E0.32518
G1 X128.566 Y99.410 E0.02386
G1 X108.953 Y99.410 E0.61493
G1 X108.974 Y97.013 E0.07517
G1 X108.899 Y90.671 E0.19885
G1 X108.703 Y83.505 E0.22477
G1 X108.585 Y80.650 E0.08960
M204 S1250
G1 X108.578 Y80.190 F9000.000
G1 E-2.24000 F2400.000
;WIPE_START
G1 F7200.000
G1 X111.465 Y80.641 E-0.91200
;WIPE_END
G1 E-0.04800 F2400.000
G1 Z0.400 F9000.000
G1 X107.040 Y61.213
G1 Z0.200
G1 E3.20000 F1500.000
M204 S800
;TYPE:Perimeter
G1 F1200.000
G1 X131.170 Y61.213 E0.75657
G1 X130.563 Y64.384 E0.10125
G1 X129.084 Y76.865 E0.39405
G1 X128.962 Y79.787 E0.09171
G1 X108.172 Y79.787 E0.65185
G1 X108.014 Y75.963 E0.11999
G1 X107.590 Y68.447 E0.23605
G1 X107.045 Y61.273 E0.22559
M204 S1250
G1 X107.447 Y61.590 F9000.000
M204 S800
;TYPE:External perimeter
G1 F1200.000
G1 X130.714 Y61.590 E0.72952
G1 X130.190 Y64.327 E0.08737
G1 X128.707 Y76.835 E0.39492
M73 P1 R108
G1 X128.600 Y79.410 E0.08082
G1 X108.534 Y79.410 E0.62917
G1 X108.391 Y75.945 E0.10873
G1 X107.966 Y68.422 E0.23625
G1 X107.452 Y61.650 E0.21295
M204 S1250
G1 X107.438 Y61.190 F9000.000
G1 E-2.24000 F2400.000
;WIPE_START
G1 F7200.000
G1 X110.332 Y61.642 E-0.91200
;WIPE_END
G1 E-0.04800 F2400.000
G1 Z0.400 F9000.000
G1 X131.271 Y60.787
G1 Z0.200
G1 E3.20000 F1500.000
M204 S800
;TYPE:Perimeter
G1 F1200.000
G1 X106.990 Y60.787 E0.76129
G1 X106.412 Y55.259 E0.17426
G1 X105.666 Y50.455 E0.15245
G1 X105.328 Y48.912 E0.04950
G1 X105.121 Y47.800 E0.03547
G1 X104.968 Y46.556 E0.03931
G1 X104.929 Y45.243 E0.04117
G1 X105.072 Y43.921 E0.04171
G1 X105.481 Y42.647 E0.04195
G1 X106.250 Y41.518 E0.04283
G1 X107.436 Y40.678 E0.04557
G1 X108.973 Y40.257 E0.04997
G1 X109.900 Y40.155 E0.02923
G1 X110.772 Y40.124 E0.02738
G1 X111.256 Y40.156 E0.01518
G1 X111.758 Y40.230 E0.01593
G1 X112.294 Y40.351 E0.01722
G1 X112.873 Y40.525 E0.01894
G1 X113.506 Y40.758 E0.02116
G1 X114.226 Y41.063 E0.02452
G1 X115.018 Y41.492 E0.02824
G1 X115.766 Y42.036 E0.02901
G1 X116.455 Y42.625 E0.02842
G1 X117.694 Y43.757 E0.05262
G1 X118.243 Y44.207 E0.02225
G1 X118.727 Y44.520 E0.01809
G1 X119.119 Y44.671 E0.01316
G1 X119.420 Y44.685 E0.00944
G1 X119.775 Y44.557 E0.01183
G1 X120.337 Y44.189 E0.02107
G1 X120.904 Y43.734 E0.02279
G1 X121.439 Y43.231 E0.02303
G1 X121.942 Y42.704 E0.02283
G1 X123.303 Y41.138 E0.06506
G1 X123.728 Y40.683 E0.01953
G1 X124.165 Y40.286 E0.01850
G1 X124.634 Y39.976 E0.01763
G1 X125.166 Y39.769 E0.01792
G1 X125.739 Y39.637 E0.01842
G1 X126.352 Y39.568 E0.01935
G1 X126.986 Y39.556 E0.01988
G1 X127.670 Y39.601 E0.02151
G1 X128.356 Y39.702 E0.02172
G1 X129.043 Y39.862 E0.02212
G1 X129.723 Y40.083 E0.02242
G1 X130.381 Y40.369 E0.02250
G1 X131.025 Y40.738 E0.02328
G1 X132.750 Y42.202 E0.07094
G1 X133.844 Y43.928 E0.06408
G1 X134.354 Y45.888 E0.06349
G1 X134.374 Y47.996 E0.06610
G1 X134.037 Y50.250 E0.07146
G1 X133.453 Y52.671 E0.07810
G1 X131.937 Y58.097 E0.17663
G1 X131.285 Y60.729 E0.08503
M204 S1250
G1 X130.976 Y60.410 F9000.000
M204 S800
;TYPE:External perimeter
G1 F1200.000
G1 X107.330 Y60.410 E0.74139
G1 X106.786 Y55.211 E0.16391
G1 X106.037 Y50.385 E0.15311
G1 X105.698 Y48.838 E0.04968
G1 X105.494 Y47.743 E0.03492
G1 X105.344 Y46.527 E0.03840
G1 X105.307 Y45.258 E0.03981
G1 X105.442 Y43.999 E0.03969
G1 X105.823 Y42.814 E0.03904
G1 X106.523 Y41.786 E0.03899
G1 X107.599 Y41.024 E0.04136
G1 X109.044 Y40.628 E0.04695
G1 X109.927 Y40.531 E0.02786
G1 X110.767 Y40.502 E0.02635
G1 X111.216 Y40.531 E0.01411
G1 X111.689 Y40.601 E0.01499
G1 X112.198 Y40.716 E0.01637
G1 X112.753 Y40.883 E0.01818
G1 X113.367 Y41.109 E0.02051
G1 X114.062 Y41.403 E0.02367
G1 X114.817 Y41.811 E0.02689
G1 X115.533 Y42.332 E0.02776
G1 X116.205 Y42.907 E0.02775
G1 X117.447 Y44.043 E0.05275
G1 X118.020 Y44.512 E0.02324
G1 X118.555 Y44.858 E0.01997
G1 X119.040 Y45.045 E0.01629
G1 X119.477 Y45.066 E0.01372
G1 X119.944 Y44.897 E0.01557
G1 X120.559 Y44.495 E0.02303
G1 X121.151 Y44.018 E0.02383
G1 X121.705 Y43.499 E0.02380
G1 X122.221 Y42.958 E0.02343
G1 X123.583 Y41.390 E0.06512
G1 X123.993 Y40.952 E0.01884
G1 X124.397 Y40.584 E0.01711
G1 X124.808 Y40.313 E0.01545
G1 X125.278 Y40.130 E0.01580
G1 X125.802 Y40.009 E0.01688
G1 X126.377 Y39.944 E0.01812
G1 X126.977 Y39.933 E0.01882
G1 X127.630 Y39.976 E0.02053
G1 X128.285 Y40.073 E0.02076
G1 X128.942 Y40.226 E0.02113
G1 X129.589 Y40.436 E0.02135
G1 X130.212 Y40.707 E0.02129
G1 X130.808 Y41.048 E0.02154
G1 X132.463 Y42.452 E0.06804
G1 X133.494 Y44.080 E0.06042
G1 X133.977 Y45.938 E0.06019
G1 X133.997 Y47.970 E0.06371
G1 X133.666 Y50.178 E0.07000
G1 X133.088 Y52.576 E0.07736
G1 X131.572 Y58.000 E0.17659
G1 X130.990 Y60.352 E0.07595
M204 S1250
G1 X130.940 Y60.808 F9000.000
G1 E-2.24000 F2400.000
;WIPE_START
G1 F7200.000
G1 X128.110 Y60.359 E-0.91200
;WIPE_END
G1 E-0.04800 F2400.000
G1 Z0.400 F9000.000
G1 X88.395 Y60.787
G1 Z0.200
G1 E3.20000 F1500.000
M204 S800
;TYPE:Perimeter
G1 F1200.000
G1 X47.583 Y60.787 E1.27964
G1 X46.632 Y55.183 E0.17823
G1 X45.872 Y50.341 E0.15366
G1 X45.458 Y46.328 E0.12650
G1 X45.559 Y43.121 E0.10061
G1 X46.422 Y40.682 E0.08111
G1 X48.264 Y39.327 E0.07169
G1 X48.979 Y39.120 E0.02335
G1 X49.598 Y38.985 E0.01987
G1 X50.232 Y38.895 E0.02007
G1 X50.879 Y38.852 E0.02033
G1 X51.538 Y38.860 E0.02067
G1 X52.207 Y38.923 E0.02107
G1 X52.882 Y39.042 E0.02150
G1 X53.567 Y39.219 E0.02219
G1 X54.257 Y39.456 E0.02287
G1 X54.970 Y39.764 E0.02435
G1 X55.636 Y40.156 E0.02424
G1 X56.250 Y40.659 E0.02487
G1 X56.805 Y41.222 E0.02481
G1 X58.219 Y42.918 E0.06922
G1 X58.724 Y43.489 E0.02392
G1 X59.176 Y43.928 E0.01974
G1 X59.617 Y44.266 E0.01743
G1 X60.053 Y44.492 E0.01538
G1 X60.604 Y44.641 E0.01789
G1 X61.063 Y44.639 E0.01441
G1 X61.497 Y44.520 E0.01410
G1 X61.952 Y44.278 E0.01616
G1 X62.442 Y43.914 E0.01915
G1 X62.967 Y43.446 E0.02203
G1 X64.139 Y42.320 E0.05098
G1 X64.815 Y41.724 E0.02827
G1 X65.577 Y41.148 E0.02993
G1 X67.232 Y40.219 E0.05952
G1 X68.906 Y39.686 E0.05506
G1 X70.577 Y39.557 E0.05255
G1 X72.223 Y39.825 E0.05228
G1 X73.825 Y40.458 E0.05402
G1 X75.386 Y41.425 E0.05758
G1 X76.918 Y42.696 E0.06241
G1 X78.419 Y44.239 E0.06750
G1 X79.902 Y46.028 E0.07286
G1 X81.435 Y48.126 E0.08148
G1 X84.265 Y52.766 E0.17039
G1 X87.514 Y58.962 E0.21936
G1 X88.369 Y60.733 E0.06167
M204 S1250
G1 X87.794 Y60.410 F9000.000
M204 S800
;TYPE:External perimeter
G1 F1200.000
G1 X47.901 Y60.410 E1.25081
G1 X47.004 Y55.122 E0.16817
G1 X46.246 Y50.293 E0.15327
G1 X45.836 Y46.315 E0.12539
G1 X45.934 Y43.191 E0.09798
G1 X46.739 Y40.917 E0.07564
G1 X48.433 Y39.671 E0.06595
G1 X49.072 Y39.485 E0.02084
G1 X49.665 Y39.356 E0.01904
G1 X50.271 Y39.270 E0.01919
G1 X50.889 Y39.229 E0.01941
G1 X51.517 Y39.237 E0.01972
G1 X52.156 Y39.297 E0.02012
G1 X52.802 Y39.411 E0.02057
