; generated by PrusaSlicer 2.3.3+win64 on 2022-06-16 at 07:47:35 UTC


;
;

;
;
; 

; external perimeters extrusion width = 0.45mm
; perimeters extrusion width = 0.45mm
; infill extrusion width = 0.45mm
; solid infill extrusion width = 0.45mm
; top infill extrusion width = 0.40mm
; first layer extrusion width = 0.42mm

M73 P0 R105
M201 X1250 Y1250 Z400 E5000 ; sets maximum accelerations, mm/sec^2
M203 X180 Y180 Z12 E80 ; sets maximum feedrates, mm/sec
M204 P1250 R1250 T1250 ; sets acceleration (P, T) and retract acceleration (R), mm/sec^2
M205 X8.00 Y8.00 Z2.00 E10.00 ; sets the jerk limits, mm/sec
M205 S0 T0 ; sets the minimum extruding and travel feed rate, mm/sec
M107
;TYPE:Custom
G90 ; use absolute coordinates
M83 ; extruder relative mode
M104 S170 ; set extruder temp for bed leveling
M140 S85 ; set bed temp
M109 R170 ; wait for bed leveling temp
M190 S85 ; wait for bed temp
G28 ; home all without mesh bed level
G29 ; mesh bed leveling 
M104 S230 ; set extruder temp
G92 E0.0
G1 Y-2.0 X179 F2400
G1 Z3 F720
M109 S230 ; wait for extruder temp

; intro line
G1 X170 F1000
G1 Z0.2 F720
G1 X110.0 E8.0 F900
G1 X40.0 E10.0 F700
G92 E0.0

M221 S95 ; set flow
G21 ; set units to millimeters
G90 ; use absolute coordinates
M83 ; use relative distances for extrusion
M900 K0.2 ; Filament gcode
;LAYER_CHANGE
;Z:0.2
;HEIGHT:0.2
;BEFORE_LAYER_CHANGE
G92 E0.0
;0.2


G1 E-3.20000 F2400.000
G1 Z0.200 F9000.000
;AFTER_LAYER_CHANGE
;0.2
G1 Z0.400
G1 X43.041 Y38.157
G1 Z0.200
G1 E3.20000 F1500.000
M204 S800
;TYPE:Skirt
;WIDTH:0.42
G1 F1200.000
G1 X44.201 Y36.848 E0.05484
G1 X45.542 Y35.860 E0.05222
G1 X47.213 Y35.087 E0.05774
G1 X49.095 Y34.617 E0.06083
G1 X51.207 Y34.456 E0.06639
G1 X129.134 Y34.552 E2.44334
G1 X130.370 Y34.642 E0.03886
G1 X131.662 Y34.845 E0.04102
G1 X133.279 Y35.309 E0.05274
G1 X134.848 Y36.087 E0.05491
G1 X136.049 Y37.044 E0.04815
G1 X136.415 Y37.441 E0.01692
G1 X137.404 Y38.883 E0.05483
G1 X138.073 Y40.796 E0.06354
G1 X138.333 Y42.855 E0.06506
G1 X138.369 Y45.085 E0.06993
G1 X134.439 Y134.587 E2.80899
G1 X134.227 Y136.726 E0.06738
G1 X133.788 Y138.455 E0.05592
G1 X133.090 Y140.031 E0.05406
G1 X131.916 Y141.729 E0.06474
G1 X130.490 Y143.045 E0.06082
G1 X128.682 Y144.094 E0.06555
G1 X127.041 Y144.682 E0.05466
G1 X125.110 Y145.034 E0.06155
G1 X109.184 Y145.540 E0.49959
G1 X55.744 Y145.080 E1.67565
G1 X53.221 Y144.776 E0.07966
G1 X51.413 Y144.216 E0.05934
G1 X50.072 Y143.542 E0.04707
G1 X48.990 Y142.760 E0.04185
G1 X47.776 Y141.521 E0.05439
G1 X47.041 Y140.451 E0.04068
G1 X46.552 Y139.503 E0.03346
G1 X46.175 Y138.523 E0.03291
G1 X45.863 Y137.341 E0.03832
G1 X45.568 Y135.263 E0.06581
G1 X41.678 Y44.855 E2.83730
G1 X41.632 Y42.580 E0.07136
G1 X41.786 Y41.088 E0.04703
G1 X42.263 Y39.553 E0.05040
G1 X43.012 Y38.209 E0.04822
M204 S1250
; printing object Epic Curcan-Kasi.stl id:0 copy 0
G1 E-2.24000 F2400.000
;WIPE_START
G1 F7200.000
G1 X44.201 Y36.848 E-0.57240
G1 X45.065 Y36.212 E-0.33960
;WIPE_END
G1 E-0.04800 F2400.000
G1 Z0.400 F9000.000
G1 X78.361 Y80.230
G1 Z0.200
G1 E3.20000 F1500.000
M204 S800
;TYPE:Perimeter
G1 F1200.000
G1 X100.917 Y80.230 E0.70721
G1 X101.890 Y82.595 E0.08017
G1 X102.497 Y84.269 E0.05583
G1 X102.992 Y85.821 E0.05109
G1 X103.418 Y87.314 E0.04867
G1 X104.218 Y90.367 E0.09897
G1 X105.300 Y94.358 E0.12965
G1 X106.444 Y98.805 E0.14397
G1 X73.588 Y98.805 E1.03017
G1 X74.873 Y93.828 E0.16114
G1 X77.426 Y83.664 E0.32859
G1 X78.345 Y80.288 E0.10970
M204 S1250
G1 X78.649 Y80.608 F9000.000
M204 S800
;TYPE:External perimeter
G1 F1200.000
G1 X100.664 Y80.608 E0.69026
G1 X101.538 Y82.731 E0.07199
G1 X102.140 Y84.390 E0.05534
G1 X102.631 Y85.930 E0.05067
G1 X103.054 Y87.413 E0.04836
G1 X103.854 Y90.464 E0.09889
G1 X104.936 Y94.454 E0.12962
G1 X105.958 Y98.427 E0.12864
G1 X74.075 Y98.427 E0.99966
G1 X75.238 Y93.922 E0.14591
G1 X77.791 Y83.760 E0.32852
G1 X78.634 Y80.665 E0.10055
M204 S1250
G1 X78.683 Y80.209 F9000.000
G1 E-2.24000 F2400.000
;WIPE_START
G1 F7200.000
G1 X81.514 Y80.658 E-0.91200
;WIPE_END
G1 E-0.04800 F2400.000
G1 Z0.400 F9000.000
G1 X88.901 Y78.642
G1 Z0.200
G1 E3.20000 F1500.000
M204 S800
;TYPE:Perimeter
G1 F1200.000
G1 X88.536 Y79.805 E0.03819
G1 X78.305 Y79.805 E0.32078
G1 X79.488 Y77.408 E0.08379
G1 X80.493 Y76.427 E0.04405
G1 X81.684 Y75.886 E0.04098
G1 X82.928 Y75.722 E0.03934
G1 X84.141 Y75.842 E0.03822
G1 X85.266 Y76.170 E0.03675
G1 X86.255 Y76.645 E0.03441
G1 X87.010 Y77.189 E0.02917
G1 X87.751 Y77.804 E0.03021
G1 X88.852 Y78.607 E0.04272
M204 S1250
G1 X88.460 Y78.788 F9000.000
M204 S800
;TYPE:External perimeter
G1 F1200.000
G1 X88.259 Y79.427 E0.02103
G1 X78.912 Y79.427 E0.29307
M73 P0 R104
G1 X79.798 Y77.633 E0.06275
G1 X80.710 Y76.743 E0.03995
G1 X81.788 Y76.253 E0.03715
G1 X82.934 Y76.102 E0.03622
G1 X84.069 Y76.214 E0.03576
G1 X85.131 Y76.523 E0.03468
G1 X86.062 Y76.971 E0.03239
G1 X86.779 Y77.487 E0.02772
G1 X87.519 Y78.102 E0.03017
G1 X88.411 Y78.752 E0.03461
M204 S1250
G1 X88.825 Y78.952 F9000.000
G1 E-2.24000 F2400.000
;WIPE_START
G1 F7200.000
G1 X88.259 Y79.427 E-0.21917
G1 X86.071 Y79.427 E-0.69283
;WIPE_END
G1 E-0.04800 F2400.000
G1 Z0.400 F9000.000
G1 X91.480 Y78.675
G1 Z0.200
G1 E3.20000 F1500.000
M204 S800
;TYPE:Perimeter
G1 F1200.000
G1 X92.306 Y78.033 E0.03280
G1 X93.623 Y76.855 E0.05539
G1 X94.519 Y76.319 E0.03275
G1 X95.499 Y75.976 E0.03254
G1 X96.538 Y75.874 E0.03275
G1 X97.593 Y76.067 E0.03362
G1 X98.592 Y76.591 E0.03537
G1 X99.468 Y77.449 E0.03845
G1 X100.411 Y79.002 E0.05697
G1 X99.960 Y79.805 E0.02887
G1 X91.868 Y79.805 E0.25372
G1 X91.500 Y78.732 E0.03556
M204 S1250
G1 X91.924 Y78.807 F9000.000
M204 S800
;TYPE:External perimeter
G1 F1200.000
G1 X92.548 Y78.323 E0.02477
G1 X93.847 Y77.160 E0.05466
G1 X94.680 Y76.662 E0.03042
G1 X95.581 Y76.347 E0.02992
G1 X96.523 Y76.255 E0.02968
G1 X97.469 Y76.427 E0.03015
G1 X98.367 Y76.899 E0.03183
G1 X99.170 Y77.686 E0.03523
G1 X99.975 Y79.010 E0.04857
G1 X99.739 Y79.427 E0.01504
G1 X92.137 Y79.427 E0.23837
G1 X91.944 Y78.864 E0.01868
M204 S1250
G1 X91.602 Y78.571 F9000.000
G1 E-2.24000 F2400.000
;WIPE_START
G1 F7200.000
G1 X92.548 Y78.323 E-0.25691
G1 X93.847 Y77.160 E-0.55206
G1 X94.126 Y76.993 E-0.10302
;WIPE_END
G1 E-0.04800 F2400.000
G1 Z0.400 F9000.000
G1 X108.159 Y80.230
G1 Z0.200
G1 E3.20000 F1500.000
M204 S800
;TYPE:Perimeter
G1 F1200.000
G1 X128.804 Y80.230 E0.64730
G1 X128.732 Y82.003 E0.05562
G1 X128.655 Y86.797 E0.15034
G1 X128.638 Y93.044 E0.19587
G1 X128.661 Y98.805 E0.18062
G1 X108.987 Y98.805 E0.61686
G1 X108.976 Y96.899 E0.05974
G1 X108.783 Y91.312 E0.17529
G1 X108.492 Y85.596 E0.17946
G1 X108.163 Y80.290 E0.16667
M204 S1250
G1 X108.561 Y80.608 F9000.000
M204 S800
;TYPE:External perimeter
G1 F1200.000
G1 X128.411 Y80.608 E0.62241
G1 X128.355 Y81.992 E0.04345
G1 X128.277 Y86.793 E0.15056
G1 X128.261 Y93.044 E0.19599
G1 X128.282 Y98.427 E0.16879
G1 X109.362 Y98.427 E0.59324
G1 X109.353 Y96.892 E0.04815
G1 X109.160 Y91.296 E0.17556
G1 X108.868 Y85.575 E0.17962
G1 X108.564 Y80.667 E0.15416
M204 S1250
G1 X108.553 Y80.208 F9000.000
G1 E-2.24000 F2400.000
;WIPE_START
G1 F7200.000
G1 X111.444 Y80.659 E-0.91200
;WIPE_END
G1 E-0.04800 F2400.000
G1 Z0.400 F9000.000
G1 X106.525 Y60.230
G1 Z0.200
G1 E3.20000 F1500.000
M204 S800
;TYPE:Perimeter
G1 F1200.000
G1 X131.138 Y60.230 E0.77172
G1 X130.696 Y62.400 E0.06943
G1 X130.261 Y64.817 E0.07699
G1 X129.850 Y67.509 E0.08540
G1 X129.479 Y70.527 E0.09533
G1 X129.159 Y73.917 E0.10677
G1 X128.906 Y77.727 E0.11972
G1 X128.821 Y79.805 E0.06521
G1 X108.129 Y79.805 E0.64881
M73 P1 R104
G1 X107.885 Y76.302 E0.11010
G1 X107.292 Y68.800 E0.23594
G1 X106.891 Y64.132 E0.14691
G1 X106.531 Y60.290 E0.12098
M204 S1250
G1 X106.939 Y60.608 F9000.000
M204 S800
;TYPE:External perimeter
G1 F1200.000
G1 X130.677 Y60.608 E0.74426
G1 X130.325 Y62.329 E0.05508
G1 X129.889 Y64.755 E0.07728
G1 X129.477 Y67.457 E0.08572
G1 X129.104 Y70.486 E0.09567
G1 X128.783 Y73.886 E0.10710
G1 X128.529 Y77.706 E0.12004
G1 X128.459 Y79.427 E0.05401
G1 X108.480 Y79.427 E0.62643
G1 X108.261 Y76.274 E0.09912
G1 X107.668 Y68.769 E0.23603
G1 X107.266 Y64.098 E0.14700
G1 X106.945 Y60.667 E0.10804
M204 S1250
G1 X106.928 Y60.208 F9000.000
G1 E-2.24000 F2400.000
;WIPE_START
G1 F7200.000
G1 X109.825 Y60.660 E-0.91200
;WIPE_END
G1 E-0.04800 F2400.000
G1 Z0.400 F9000.000
G1 X131.225 Y59.805
G1 Z0.200
G1 E3.20000 F1500.000
M204 S800
;TYPE:Perimeter
G1 F1200.000
G1 X106.485 Y59.805 E0.77570
G1 X105.832 Y53.542 E0.19741
G1 X104.788 Y43.972 E0.30184
G1 X104.885 Y42.900 E0.03376
G1 X105.375 Y41.916 E0.03448
G1 X106.104 Y41.136 E0.03347
G1 X106.968 Y40.539 E0.03292
G1 X107.887 Y40.097 E0.03198
G1 X108.809 Y39.803 E0.03033
G1 X109.679 Y39.652 E0.02768
G1 X110.418 Y39.663 E0.02319
G1 X111.439 Y39.851 E0.03253
G1 X112.281 Y40.044 E0.02711
G1 X113.035 Y40.270 E0.02465
G1 X113.723 Y40.546 E0.02327
G1 X114.364 Y40.883 E0.02270
G1 X114.979 Y41.290 E0.02310
G1 X115.592 Y41.772 E0.02445
G1 X116.236 Y42.341 E0.02696
G1 X117.722 Y43.778 E0.06481
G1 X117.979 Y44.007 E0.01081
G1 X118.149 Y44.127 E0.00651
G1 X118.283 Y44.185 E0.00458
G1 X118.469 Y44.225 E0.00596
G1 X119.180 Y44.261 E0.02233
G1 X119.827 Y44.241 E0.02031
G1 X120.066 Y44.197 E0.00762
G1 X120.289 Y44.120 E0.00739
G1 X120.509 Y43.998 E0.00790
G1 X120.750 Y43.805 E0.00967
G1 X121.039 Y43.492 E0.01336
G1 X121.859 Y42.520 E0.03986
G1 X122.661 Y41.688 E0.03622
G1 X123.447 Y41.009 E0.03258
G1 X124.241 Y40.475 E0.03000
G1 X125.054 Y40.083 E0.02830
G1 X125.895 Y39.825 E0.02758
G1 X126.766 Y39.691 E0.02763
G1 X127.658 Y39.662 E0.02800
G1 X129.217 Y39.699 E0.04888
G1 X130.007 Y39.764 E0.02487
G1 X130.782 Y39.895 E0.02464
G1 X131.528 Y40.134 E0.02457
G1 X132.216 Y40.541 E0.02505
G1 X132.764 Y41.167 E0.02607
G1 X133.056 Y41.960 E0.02650
G1 X133.197 Y43.185 E0.03867
G1 X133.228 Y44.775 E0.04987
G1 X133.151 Y46.716 E0.06090
G1 X132.968 Y48.959 E0.07056
G1 X132.676 Y51.468 E0.07919
G1 X132.276 Y54.205 E0.08674
G1 X131.764 Y57.134 E0.09323
G1 X131.236 Y59.746 E0.08354
M204 S1250
G1 X130.916 Y59.427 F9000.000
M204 S800
;TYPE:External perimeter
G1 F1200.000
G1 X106.824 Y59.427 E0.75537
G1 X106.207 Y53.502 E0.18678
G1 X105.167 Y43.969 E0.30069
G1 X105.254 Y43.005 E0.03035
G1 X105.688 Y42.133 E0.03053
G1 X106.352 Y41.423 E0.03047
G1 X107.158 Y40.866 E0.03072
G1 X108.027 Y40.449 E0.03022
G1 X108.899 Y40.170 E0.02870
G1 X109.708 Y40.030 E0.02576
G1 X110.381 Y40.040 E0.02110
G1 X111.362 Y40.221 E0.03129
G1 X112.185 Y40.409 E0.02646
G1 X112.910 Y40.626 E0.02373
G1 X113.565 Y40.889 E0.02212
G1 X114.172 Y41.208 E0.02150
G1 X114.758 Y41.596 E0.02203
G1 X115.350 Y42.061 E0.02363
G1 X115.980 Y42.618 E0.02635
G1 X117.465 Y44.054 E0.06478
G1 X117.744 Y44.304 E0.01174
G1 X117.963 Y44.457 E0.00836
G1 X118.166 Y44.546 E0.00697
G1 X118.420 Y44.600 E0.00812
G1 X119.176 Y44.638 E0.02375
G1 X119.867 Y44.617 E0.02168
G1 X120.163 Y44.563 E0.00942
G1 X120.444 Y44.466 E0.00932
G1 X120.720 Y44.312 E0.00993
G1 X121.008 Y44.082 E0.01156
G1 X121.322 Y43.741 E0.01452
G1 X122.139 Y42.773 E0.03973
G1 X122.920 Y41.962 E0.03529
G1 X123.676 Y41.309 E0.03133
G1 X124.429 Y40.803 E0.02844
G1 X125.191 Y40.435 E0.02655
G1 X125.979 Y40.194 E0.02582
G1 X126.801 Y40.068 E0.02606
G1 X127.660 Y40.039 E0.02696
G1 X129.197 Y40.076 E0.04820
G1 X129.960 Y40.138 E0.02402
G1 X130.693 Y40.262 E0.02329
G1 X131.373 Y40.480 E0.02239
G1 X131.972 Y40.835 E0.02183
G1 X132.434 Y41.362 E0.02199
G1 X132.686 Y42.048 E0.02290
G1 X132.820 Y43.210 E0.03670
G1 X132.851 Y44.772 E0.04896
G1 X132.775 Y46.693 E0.06030
G1 X132.593 Y48.922 E0.07011
G1 X132.302 Y51.419 E0.07882
G1 X131.903 Y54.145 E0.08640
G1 X131.393 Y57.064 E0.09291
G1 X130.928 Y59.369 E0.07371
M204 S1250
G1 X130.891 Y59.827 F9000.000
G1 E-2.24000 F2400.000
;WIPE_START
G1 F7200.000
G1 X128.048 Y59.376 E-0.91200
;WIPE_END
G1 E-0.04800 F2400.000
G1 Z0.400 F9000.000
G1 X73.206 Y59.805
G1 Z0.200
G1 E3.20000 F1500.000
M204 S800
;TYPE:Perimeter
G1 F1200.000
G1 X48.665 Y59.805 E0.76945
G1 X48.133 Y56.555 E0.10325
G1 X47.415 Y51.726 E0.15307
G1 X46.910 Y47.121 E0.14525
G1 X46.715 Y42.651 E0.14031
G1 X47.113 Y41.236 E0.04608
G1 X48.214 Y40.254 E0.04626
G1 X49.633 Y39.761 E0.04710
G1 X51.174 Y39.618 E0.04854
G1 X52.818 Y39.744 E0.05168
G1 X54.373 Y40.106 E0.05006
G1 X55.756 Y40.683 E0.04700
G1 X56.779 Y41.445 E0.03999
G1 X57.804 Y42.513 E0.04641
G1 X58.598 Y43.254 E0.03404
G1 X59.233 Y43.759 E0.02544
G1 X59.728 Y44.065 E0.01824
G1 X60.101 Y44.222 E0.01269
G1 X60.397 Y44.283 E0.00949
G1 X60.688 Y44.289 E0.00913
G1 X61.012 Y44.256 E0.01019
G1 X61.462 Y44.171 E0.01437
G1 X61.742 Y44.065 E0.00939
G1 X61.974 Y43.917 E0.00862
G1 X62.254 Y43.672 E0.01168
G1 X63.138 Y42.817 E0.03856
G1 X63.834 Y42.214 E0.02886
G1 X65.184 Y41.190 E0.05313
G1 X65.654 Y40.862 E0.01798
G1 X66.189 Y40.548 E0.01945
G1 X66.816 Y40.269 E0.02150
G1 X67.550 Y40.053 E0.02399
G1 X68.410 Y39.916 E0.02731
G1 X69.417 Y39.866 E0.03163
G1 X70.625 Y39.912 E0.03790
G1 X72.079 Y40.156 E0.04623
G1 X73.255 Y40.636 E0.03983
G1 X74.143 Y41.337 E0.03547
G1 X74.732 Y42.206 E0.03291
G1 X75.048 Y43.156 E0.03139
G1 X75.146 Y44.052 E0.02825
G1 X75.109 Y44.983 E0.02923
G1 X73.907 Y53.416 E0.26708
G1 X73.212 Y59.745 E0.19963
M204 S1250
G1 X72.868 Y59.427 F9000.000
M204 S800
;TYPE:External perimeter
G1 F1200.000
G1 X48.985 Y59.427 E0.74881
G1 X48.505 Y56.497 E0.09311
G1 X47.789 Y51.678 E0.15275
G1 X47.286 Y47.093 E0.14464
G1 X47.094 Y42.695 E0.13802
G1 X47.446 Y41.444 E0.04073
G1 X48.409 Y40.585 E0.04045
G1 X49.713 Y40.132 E0.04330
G1 X51.177 Y39.996 E0.04610
G1 X52.760 Y40.118 E0.04979
G1 X54.257 Y40.466 E0.04817
G1 X55.568 Y41.014 E0.04455
G1 X56.529 Y41.729 E0.03756
G1 X57.539 Y42.781 E0.04575
G1 X58.351 Y43.540 E0.03483
G1 X59.016 Y44.068 E0.02661
G1 X59.554 Y44.401 E0.01986
G1 X59.988 Y44.584 E0.01478
G1 X60.355 Y44.659 E0.01174
G1 X60.704 Y44.666 E0.01093
G1 X61.066 Y44.629 E0.01141
G1 X61.564 Y44.535 E0.01591
G1 X61.912 Y44.404 E0.01165
G1 X62.201 Y44.220 E0.01074
G1 X62.509 Y43.949 E0.01287
G1 X63.393 Y43.096 E0.03852
G1 X64.072 Y42.507 E0.02816
G1 X65.405 Y41.495 E0.05250
G1 X65.858 Y41.180 E0.01729
G1 X66.362 Y40.883 E0.01833
G1 X66.946 Y40.624 E0.02005
G1 X67.633 Y40.422 E0.02245
G1 X68.449 Y40.291 E0.02591
G1 X69.419 Y40.243 E0.03046
G1 X70.586 Y40.288 E0.03662
G1 X71.975 Y40.521 E0.04415
G1 X73.063 Y40.965 E0.03684
G1 X73.863 Y41.597 E0.03197
G1 X74.391 Y42.374 E0.02945
G1 X74.677 Y43.237 E0.02849
G1 X74.768 Y44.065 E0.02612
G1 X74.733 Y44.949 E0.02775
G1 X73.533 Y53.369 E0.26666
G1 X72.874 Y59.368 E0.18923
M204 S1250
G1 X72.851 Y59.827 F9000.000
G1 E-2.24000 F2400.000
;WIPE_START
G1 F7200.000
G1 X69.994 Y59.375 E-0.91200
;WIPE_END
G1 E-0.04800 F2400.000
G1 Z0.400 F9000.000
G1 X48.738 Y60.230
G1 Z0.200
G1 E3.20000 F1500.000
M204 S800
;TYPE:Perimeter
G1 F1200.000
G1 X73.159 Y60.230 E0.76570
G1 X72.981 Y61.850 E0.05109
G1 X72.221 Y70.735 E0.27961
G1 X71.633 Y79.805 E0.28495
G1 X51.101 Y79.805 E0.64377
G1 X51.016 Y77.656 E0.06743
G1 X50.498 Y72.129 E0.17405
G1 X49.778 Y66.765 E0.16969
G1 X48.748 Y60.290 E0.20557
M204 S1250
G1 X49.180 Y60.608 F9000.000
M204 S800
;TYPE:External perimeter
G1 F1200.000
G1 X72.738 Y60.608 E0.73865
G1 X72.606 Y61.813 E0.03804
G1 X71.845 Y70.707 E0.27988
G1 X71.280 Y79.427 E0.27399
G1 X51.464 Y79.427 E0.62133
G1 X51.392 Y77.631 E0.05639
G1 X50.873 Y72.086 E0.17461
G1 X50.151 Y66.710 E0.17007
G1 X49.189 Y60.667 E0.19186
M204 S1250
G1 X49.160 Y60.208 F9000.000
G1 E-2.24000 F2400.000
;WIPE_START
G1 F7200.000
G1 X52.069 Y60.660 E-0.91200
;WIPE_END
G1 E-0.04800 F2400.000
G1 Z0.400 F9000.000
G1 X51.116 Y80.230
G1 Z0.200
G1 E3.20000 F1500.000
M204 S800
;TYPE:Perimeter
G1 F1200.000
G1 X71.618 Y80.230 E0.64284
G1 X71.269 Y88.042 E0.24518
G1 X71.110 Y95.553 E0.23555
G1 X71.148 Y98.805 E0.10195
G1 X51.180 Y98.805 E0.62608
G1 X51.237 Y87.733 E0.34715
G1 X51.235 Y83.435 E0.13474
G1 X51.118 Y80.290 E0.09868
M204 S1250
G1 X51.507 Y80.608 F9000.000
M204 S800
;TYPE:External perimeter
G1 F1200.000
G1 X71.224 Y80.608 E0.61820
G1 X70.892 Y88.030 E0.23296
G1 X70.733 Y95.551 E0.23588
G1 X70.766 Y98.427 E0.09018
G1 X51.559 Y98.427 E0.60223
G1 X51.614 Y87.734 E0.33530
G1 X51.613 Y83.428 E0.13499
G1 X51.509 Y80.667 E0.08662
M204 S1250
