; generated by PrusaSlicer 2.3.3+win64 on 2022-06-16 at 08:39:04 UTC


;
;

;
;
; 

; external perimeters extrusion width = 0.45mm
; perimeters extrusion width = 0.45mm
; infill extrusion width = 0.45mm
; solid infill extrusion width = 0.45mm
; top infill extrusion width = 0.40mm
; first layer extrusion width = 0.42mm

M73 P0 R84
M201 X1250 Y1250 Z400 E5000 ; sets maximum accelerations, mm/sec^2
M203 X180 Y180 Z12 E80 ; sets maximum feedrates, mm/sec
M204 P1250 R1250 T1250 ; sets acceleration (P, T) and retract acceleration (R), mm/sec^2
M205 X8.00 Y8.00 Z2.00 E10.00 ; sets the jerk limits, mm/sec
M205 S0 T0 ; sets the minimum extruding and travel feed rate, mm/sec
M107
;TYPE:Custom
G90 ; use absolute coordinates
M83 ; extruder relative mode
M104 S170 ; set extruder temp for bed leveling
M140 S85 ; set bed temp
M109 R170 ; wait for bed leveling temp
M190 S85 ; wait for bed temp
G28 ; home all without mesh bed level
G29 ; mesh bed leveling 
M104 S230 ; set extruder temp
G92 E0.0
G1 Y-2.0 X179 F2400
G1 Z3 F720
M109 S230 ; wait for extruder temp

; intro line
G1 X170 F1000
G1 Z0.2 F720
G1 X110.0 E8.0 F900
G1 X40.0 E10.0 F700
G92 E0.0

M221 S95 ; set flow
G21 ; set units to millimeters
G90 ; use absolute coordinates
M83 ; use relative distances for extrusion
M900 K0.2 ; Filament gcode
;LAYER_CHANGE
;Z:0.2
;HEIGHT:0.2
;BEFORE_LAYER_CHANGE
G92 E0.0
;0.2


G1 E-3.20000 F2400.000
G1 Z0.200 F9000.000
;AFTER_LAYER_CHANGE
;0.2
G1 Z0.400
G1 X41.979 Y50.413
G1 Z0.200
G1 E3.20000 F1500.000
M204 S800
;TYPE:Skirt
;WIDTH:0.42
G1 F1200.000
G1 X42.644 Y49.131 E0.04526
G1 X43.426 Y48.029 E0.04238
G1 X44.172 Y47.195 E0.03507
G1 X45.072 Y46.386 E0.03794
G1 X58.198 Y35.971 E0.52540
G1 X59.035 Y35.378 E0.03214
G1 X60.041 Y34.817 E0.03611
G1 X61.610 Y34.228 E0.05256
G1 X62.569 Y34.022 E0.03073
G1 X63.972 Y33.909 E0.04413
G1 X115.981 Y33.945 E1.63073
M73 P0 R83
G1 X117.737 Y34.119 E0.05531
G1 X119.445 Y34.638 E0.05597
G1 X120.739 Y35.276 E0.04526
G1 X122.025 Y36.168 E0.04907
G1 X135.285 Y47.038 E0.53760
G1 X136.137 Y47.860 E0.03712
G1 X136.857 Y48.735 E0.03551
G1 X137.639 Y49.975 E0.04598
G1 X138.149 Y51.108 E0.03894
G1 X138.435 Y51.979 E0.02876
G1 X138.652 Y52.959 E0.03146
G1 X138.776 Y54.138 E0.03719
G1 X138.506 Y126.828 E2.27915
G1 X138.352 Y128.233 E0.04430
G1 X138.014 Y129.539 E0.04230
G1 X137.643 Y130.484 E0.03185
G1 X137.173 Y131.378 E0.03166
G1 X136.452 Y132.433 E0.04007
G1 X135.629 Y133.346 E0.03852
G1 X134.819 Y134.054 E0.03374
G1 X122.263 Y143.765 E0.49769
G1 X120.568 Y144.821 E0.06261
G1 X119.568 Y145.265 E0.03431
G1 X117.877 Y145.766 E0.05529
G1 X116.811 Y145.933 E0.03384
G1 X115.841 Y145.984 E0.03046
G1 X63.931 Y146.091 E1.62760
G1 X62.309 Y145.950 E0.05107
G1 X61.424 Y145.751 E0.02843
G1 X59.998 Y145.240 E0.04749
G1 X59.184 Y144.828 E0.02860
G1 X57.932 Y143.993 E0.04720
G1 X44.484 Y133.543 E0.53398
G1 X43.445 Y132.429 E0.04777
G1 X42.602 Y131.148 E0.04807
G1 X42.004 Y129.820 E0.04567
G1 X41.556 Y128.148 E0.05429
G1 X41.407 Y126.121 E0.06372
G1 X41.224 Y54.023 E2.26058
G1 X41.299 Y52.938 E0.03410
G1 X41.468 Y51.991 E0.03017
G1 X41.961 Y50.470 E0.05013
M204 S1250
; printing object Smooth Duup-Bombul.stl id:0 copy 0
G1 E-2.24000 F2400.000
;WIPE_START
G1 F7200.000
G1 X42.644 Y49.131 E-0.47587
G1 X43.426 Y48.029 E-0.42804
G1 X43.443 Y48.009 E-0.00809
;WIPE_END
G1 E-0.04800 F2400.000
G1 Z0.400 F9000.000
G1 X70.869 Y80.283
G1 Z0.200
G1 E3.20000 F1500.000
M204 S800
;TYPE:Perimeter
G1 F1200.000
G1 X109.644 Y80.283 E1.21576
G1 X110.047 Y81.256 E0.03300
G1 X104.595 Y86.692 E0.24140
G1 X104.178 Y87.173 E0.01997
G1 X103.869 Y87.669 E0.01832
G1 X103.647 Y88.197 E0.01794
G1 X103.510 Y88.748 E0.01780
G1 X103.459 Y89.312 E0.01775
G1 X103.493 Y89.875 E0.01771
G1 X103.612 Y90.429 E0.01775
G1 X103.817 Y90.961 E0.01789
G1 X104.107 Y91.463 E0.01815
G1 X104.503 Y91.948 E0.01965
G1 X110.181 Y97.904 E0.25799
G1 X109.772 Y98.858 E0.03255
G1 X70.921 Y98.858 E1.21815
G1 X70.507 Y97.916 E0.03223
G1 X76.033 Y91.909 E0.25592
G1 X76.411 Y91.419 E0.01940
G1 X76.687 Y90.916 E0.01799
G1 X76.880 Y90.387 E0.01765
G1 X76.991 Y89.843 E0.01742
G1 X77.019 Y89.291 E0.01732
G1 X76.965 Y88.742 E0.01728
G1 X76.830 Y88.206 E0.01734
G1 X76.613 Y87.692 E0.01749
G1 X76.315 Y87.210 E0.01778
G1 X75.915 Y86.741 E0.01933
G1 X70.465 Y81.252 E0.24254
G1 X70.846 Y80.339 E0.03103
M204 S1250
G1 X71.120 Y80.660 F9000.000
M204 S800
;TYPE:External perimeter
G1 F1200.000
G1 X109.392 Y80.660 E1.19998
G1 X109.602 Y81.167 E0.01719
G1 X104.319 Y86.434 E0.23391
G1 X103.873 Y86.949 E0.02133
G1 X103.533 Y87.495 E0.02019
G1 X103.288 Y88.077 E0.01979
G1 X103.137 Y88.685 E0.01963
G1 X103.081 Y89.306 E0.01955
G1 X103.118 Y89.927 E0.01950
G1 X103.250 Y90.537 E0.01958
G1 X103.476 Y91.124 E0.01973
G1 X103.796 Y91.678 E0.02004
G1 X104.221 Y92.198 E0.02106
G1 X109.737 Y97.984 E0.25064
G1 X109.523 Y98.480 E0.01695
G1 X71.167 Y98.480 E1.20263
G1 X70.952 Y97.990 E0.01679
G1 X76.321 Y92.152 E0.24870
G1 X76.727 Y91.626 E0.02083
G1 X77.032 Y91.072 E0.01981
G1 X77.244 Y90.490 E0.01945
G1 X77.366 Y89.890 E0.01919
G1 X77.397 Y89.282 E0.01909
G1 X77.338 Y88.677 E0.01906
G1 X77.188 Y88.086 E0.01912
G1 X76.949 Y87.519 E0.01930
G1 X76.621 Y86.987 E0.01961
G1 X76.192 Y86.486 E0.02068
G1 X70.910 Y81.165 E0.23508
G1 X71.097 Y80.716 E0.01526
M204 S1250
G1 X71.026 Y80.272 F9000.000
G1 E-2.24000 F2400.000
;WIPE_START
G1 F7200.000
G1 X73.977 Y80.712 E-0.91200
;WIPE_END
G1 E-0.04800 F2400.000
G1 Z0.400 F9000.000
G1 X69.250 Y99.283
G1 Z0.200
G1 E3.20000 F1500.000
M204 S800
;TYPE:Perimeter
G1 F1200.000
G1 X111.493 Y99.283 E1.32449
M73 P1 R83
G1 X117.086 Y105.191 E0.25506
G1 X122.719 Y111.202 E0.25829
G1 X127.642 Y116.552 E0.22796
G1 X129.769 Y118.925 E0.09994
G1 X129.353 Y119.858 E0.03201
G1 X99.559 Y119.858 E0.93416
G1 X96.593 Y115.128 E0.17503
G1 X94.448 Y111.645 E0.12826
G1 X92.617 Y108.634 E0.11049
G1 X90.180 Y104.561 E0.14882
G1 X80.562 Y119.858 E0.56653
G1 X50.612 Y119.858 E0.93907
G1 X50.189 Y118.945 E0.03154
G1 X51.709 Y117.155 E0.07360
G1 X56.766 Y112.413 E0.21737
G1 X58.330 Y110.858 E0.06916
G1 X60.255 Y108.879 E0.08656
G1 X62.446 Y106.580 E0.09955
G1 X64.809 Y104.069 E0.10813
G1 X69.209 Y99.327 E0.20283
M204 S1250
G1 X69.415 Y99.660 F9000.000
M204 S800
;TYPE:External perimeter
G1 F1200.000
G1 X111.331 Y99.660 E1.31425
G1 X116.811 Y105.449 E0.24994
G1 X122.442 Y111.458 E0.25821
G1 X127.363 Y116.805 E0.22783
G1 X129.325 Y118.995 E0.09219
G1 X129.108 Y119.480 E0.01667
G1 X99.768 Y119.480 E0.91995
G1 X96.914 Y114.929 E0.16845
G1 X94.769 Y111.449 E0.12817
G1 X92.940 Y108.439 E0.11041
G1 X90.483 Y104.333 E0.15006
G1 X90.359 Y104.198 E0.00572
G1 X90.206 Y104.148 E0.00506
G1 X90.041 Y104.181 E0.00528
G1 X89.940 Y104.249 E0.00382
G1 X89.892 Y104.311 E0.00247
G1 X80.354 Y119.480 E0.56182
G1 X50.853 Y119.480 E0.92498
G1 X50.633 Y119.005 E0.01643
G1 X51.982 Y117.416 E0.06537
G1 X57.028 Y112.684 E0.21687
G1 X58.599 Y111.123 E0.06943
G1 X60.527 Y109.140 E0.08672
G1 X62.719 Y106.840 E0.09965
G1 X65.085 Y104.326 E0.10821
G1 X69.374 Y99.704 E0.19771
M204 S1250
G1 X69.514 Y99.273 F9000.000
G1 E-2.24000 F2400.000
;WIPE_START
G1 F7200.000
G1 X72.254 Y99.701 E-0.91200
;WIPE_END
G1 E-0.04800 F2400.000
G1 Z0.400 F9000.000
G1 X49.030 Y120.283
G1 Z0.200
G1 E3.20000 F1500.000
M204 S800
;TYPE:Perimeter
G1 F1200.000
G1 X79.331 Y120.283 E0.95008
G1 X79.780 Y121.098 E0.02916
G1 X73.700 Y130.711 E0.35663
G1 X69.907 Y136.651 E0.22098
G1 X68.370 Y138.655 E0.07921
G1 X66.787 Y140.005 E0.06523
G1 X65.194 Y140.735 E0.05494
G1 X63.647 Y140.888 E0.04875
G1 X62.241 Y140.541 E0.04540
G1 X61.049 Y139.824 E0.04360
G1 X60.097 Y138.860 E0.04250
G1 X59.400 Y137.745 E0.04123
G1 X58.975 Y136.557 E0.03955
G1 X58.877 Y135.432 E0.03541
G1 X59.010 Y133.282 E0.06754
G1 X59.035 Y132.516 E0.02401
G1 X59.027 Y131.910 E0.01901
G1 X58.984 Y131.447 E0.01458
G1 X58.908 Y131.101 E0.01111
G1 X58.801 Y130.831 E0.00911
G1 X58.650 Y130.583 E0.00911
G1 X58.425 Y130.314 E0.01097
G1 X58.141 Y130.034 E0.01252
G1 X57.982 Y129.926 E0.00602
G1 X57.857 Y129.890 E0.00408
G1 X57.644 Y129.889 E0.00668
G1 X57.314 Y129.948 E0.01052
G1 X54.872 Y130.694 E0.08007
G1 X53.994 Y130.907 E0.02832
G1 X52.973 Y131.092 E0.03253
G1 X51.583 Y131.129 E0.04361
G1 X50.071 Y130.835 E0.04829
G1 X48.614 Y130.163 E0.05030
G1 X47.389 Y129.041 E0.05209
G1 X46.641 Y127.434 E0.05558
G1 X46.592 Y125.410 E0.06348
G1 X47.343 Y123.069 E0.07707
G1 X48.998 Y120.335 E0.10023
M204 S1250
G1 X49.242 Y120.660 F9000.000
M204 S800
;TYPE:External perimeter
G1 F1200.000
G1 X79.108 Y120.660 E0.93644
G1 X79.342 Y121.085 E0.01519
G1 X73.382 Y130.508 E0.34961
G1 X69.598 Y136.434 E0.22044
G1 X68.095 Y138.394 E0.07745
G1 X66.583 Y139.685 E0.06233
G1 X65.094 Y140.366 E0.05132
G1 X63.674 Y140.506 E0.04475
G1 X62.387 Y140.189 E0.04158
G1 X61.284 Y139.525 E0.04034
G1 X60.394 Y138.624 E0.03971
G1 X59.741 Y137.579 E0.03865
G1 X59.346 Y136.476 E0.03675
G1 X59.255 Y135.427 E0.03300
G1 X59.386 Y133.300 E0.06683
G1 X59.412 Y132.520 E0.02445
G1 X59.404 Y131.890 E0.01976
G1 X59.357 Y131.389 E0.01579
G1 X59.270 Y130.991 E0.01279
G1 X59.140 Y130.662 E0.01108
G1 X58.957 Y130.363 E0.01099
G1 X58.703 Y130.059 E0.01243
G1 X58.381 Y129.742 E0.01415
G1 X58.145 Y129.580 E0.00898
G1 X57.911 Y129.513 E0.00762
G1 X57.612 Y129.512 E0.00940
G1 X57.225 Y129.581 E0.01230
G1 X54.772 Y130.330 E0.08043
G1 X53.916 Y130.538 E0.02762
G1 X52.934 Y130.716 E0.03128
G1 X51.614 Y130.751 E0.04141
G1 X50.187 Y130.474 E0.04557
G1 X48.825 Y129.845 E0.04703
G1 X47.699 Y128.814 E0.04789
G1 X47.016 Y127.346 E0.05075
G1 X46.970 Y125.464 E0.05902
M73 P1 R82
G1 X47.689 Y123.227 E0.07368
G1 X49.211 Y120.712 E0.09217
M204 S1250
G1 X49.301 Y120.265 F9000.000
G1 E-2.24000 F2400.000
;WIPE_START
G1 F7200.000
G1 X52.091 Y120.707 E-0.91200
;WIPE_END
G1 E-0.04800 F2400.000
G1 Z0.400 F9000.000
G1 X100.354 Y121.100
G1 Z0.200
G1 E3.20000 F1500.000
M204 S800
;TYPE:Perimeter
G1 F1200.000
G1 X100.802 Y120.283 E0.02922
G1 X130.810 Y120.283 E0.94088
G1 X131.550 Y121.233 E0.03773
G1 X132.768 Y123.454 E0.07945
G1 X133.355 Y125.444 E0.06504
G1 X133.368 Y127.200 E0.05506
G1 X132.864 Y128.680 E0.04904
G1 X131.952 Y129.822 E0.04580
G1 X130.772 Y130.597 E0.04427
G1 X129.501 Y131.005 E0.04183
G1 X128.137 Y131.094 E0.04287
G1 X126.863 Y130.861 E0.04062
G1 X124.998 Y130.289 E0.06116
G1 X124.231 Y130.076 E0.02496
G1 X123.549 Y129.911 E0.02199
G1 X122.956 Y129.798 E0.01893
G1 X122.451 Y129.739 E0.01596
G1 X122.033 Y129.732 E0.01311
G1 X121.698 Y129.774 E0.01059
G1 X121.371 Y129.872 E0.01070
G1 X121.174 Y129.979 E0.00703
G1 X120.628 Y130.500 E0.02366
G1 X120.419 Y130.964 E0.01595
G1 X120.397 Y131.495 E0.01667
G1 X120.540 Y132.176 E0.02181
G1 X121.119 Y133.918 E0.05757
G1 X121.361 Y134.951 E0.03326
G1 X121.410 Y136.090 E0.03574
G1 X121.127 Y137.299 E0.03895
G1 X120.425 Y138.486 E0.04323
G1 X119.743 Y139.233 E0.03170
G1 X119.002 Y139.838 E0.02999
G1 X118.206 Y140.314 E0.02910
G1 X117.388 Y140.650 E0.02771
G1 X116.584 Y140.843 E0.02593
G1 X115.728 Y140.899 E0.02691
G1 X114.889 Y140.796 E0.02649
G1 X114.090 Y140.521 E0.02648
G1 X113.368 Y140.062 E0.02683
G1 X112.789 Y139.454 E0.02632
G1 X109.971 Y135.547 E0.15106
G1 X107.139 Y131.450 E0.15615
G1 X104.326 Y127.243 E0.15868
G1 X101.591 Y123.043 E0.15715
G1 X100.386 Y121.151 E0.07033
M204 S1250
G1 X100.792 Y121.086 F9000.000
M204 S800
;TYPE:External perimeter
G1 F1200.000
G1 X101.025 Y120.660 E0.01522
G1 X130.626 Y120.660 E0.92811
G1 X131.234 Y121.440 E0.03101
G1 X132.418 Y123.600 E0.07722
G1 X132.979 Y125.500 E0.06211
G1 X132.990 Y127.139 E0.05140
G1 X132.528 Y128.497 E0.04497
G1 X131.695 Y129.539 E0.04186
G1 X130.608 Y130.254 E0.04079
G1 X129.430 Y130.632 E0.03876
G1 X128.159 Y130.715 E0.03995
G1 X126.952 Y130.494 E0.03847
G1 X125.104 Y129.927 E0.06063
G1 X123.629 Y129.542 E0.04778
G1 X123.014 Y129.425 E0.01965
G1 X122.476 Y129.362 E0.01698
G1 X122.013 Y129.355 E0.01452
G1 X121.620 Y129.403 E0.01242
G1 X121.225 Y129.522 E0.01293
G1 X120.950 Y129.672 E0.00982
G1 X120.315 Y130.278 E0.02753
G1 X120.045 Y130.875 E0.02054
G1 X120.018 Y131.526 E0.02044
G1 X120.175 Y132.274 E0.02397
G1 X120.756 Y134.021 E0.05770
G1 X120.986 Y135.002 E0.03162
G1 X121.031 Y136.054 E0.03301
G1 X120.773 Y137.157 E0.03552
G1 X120.120 Y138.261 E0.04020
G1 X119.484 Y138.958 E0.02961
G1 X118.785 Y139.528 E0.02826
G1 X118.036 Y139.976 E0.02736
G1 X117.272 Y140.290 E0.02591
G1 X116.528 Y140.468 E0.02400
G1 X115.738 Y140.520 E0.02480
G1 X114.974 Y140.426 E0.02414
G1 X114.255 Y140.178 E0.02385
G1 X113.609 Y139.769 E0.02399
G1 X113.080 Y139.213 E0.02406
G1 X110.279 Y135.329 E0.15014
G1 X107.451 Y131.238 E0.15594
G1 X104.641 Y127.035 E0.15852
G1 X101.908 Y122.839 E0.15702
G1 X100.824 Y121.137 E0.06327
M204 S1250
G1 X100.477 Y120.839 F9000.000
G1 E-2.24000 F2400.000
;WIPE_START
G1 F7200.000
G1 X101.025 Y120.660 E-0.16371
G1 X103.388 Y120.660 E-0.74829
;WIPE_END
G1 E-0.04800 F2400.000
G1 Z0.400 F9000.000
G1 X51.434 Y60.283
G1 Z0.200
G1 E3.20000 F1500.000
M204 S800
;TYPE:Perimeter
G1 F1200.000
G1 X81.230 Y60.283 E0.93423
G1 X85.595 Y66.946 E0.24974
G1 X90.303 Y74.214 E0.27152
G1 X95.097 Y66.675 E0.28012
G1 X99.193 Y60.283 E0.23802
G1 X129.375 Y60.283 E0.94635
G1 X129.781 Y61.248 E0.03280
G1 X120.084 Y71.129 E0.43410
G1 X111.439 Y79.858 E0.38517
G1 X69.086 Y79.858 E1.32797
G1 X64.937 Y75.651 E0.18524
G1 X58.483 Y69.049 E0.28949
G1 X55.413 Y65.867 E0.13863
G1 X52.597 Y62.914 E0.12796
G1 X51.023 Y61.231 E0.07224
G1 X51.410 Y60.338 E0.03050
M204 S1250
G1 X51.682 Y60.660 F9000.000
M204 S800
;TYPE:External perimeter
G1 F1200.000
G1 X81.027 Y60.660 E0.92009
G1 X85.280 Y67.152 E0.24332
M73 P2 R82
G1 X90.031 Y74.488 E0.27406
G1 X90.129 Y74.603 E0.00472
G1 X90.245 Y74.643 E0.00387
G1 X90.430 Y74.599 E0.00594
G1 X90.544 Y74.523 E0.00430
G1 X90.590 Y74.466 E0.00229
G1 X95.414 Y66.878 E0.28194
G1 X99.399 Y60.660 E0.23154
G1 X129.125 Y60.660 E0.93204
G1 X129.336 Y61.163 E0.01708
G1 X119.815 Y70.864 E0.42620
G1 X111.282 Y79.480 E0.38021
G1 X69.243 Y79.480 E1.31809
G1 X65.207 Y75.387 E0.18027
G1 X58.754 Y68.786 E0.28943
G1 X55.685 Y65.606 E0.13855
G1 X52.871 Y62.655 E0.12786
G1 X51.468 Y61.154 E0.06443
G1 X51.658 Y60.716 E0.01499
M204 S1250
G1 X51.610 Y60.267 F9000.000
G1 E-2.24000 F2400.000
;WIPE_START
G1 F7200.000
G1 X54.538 Y60.710 E-0.91200
;WIPE_END
G1 E-0.04800 F2400.000
G1 Z0.400 F9000.000
G1 X80.402 Y59.027
G1 Z0.200
G1 E3.20000 F1500.000
M204 S800
;TYPE:Perimeter
G1 F1200.000
G1 X79.956 Y59.858 E0.02955
G1 X49.752 Y59.858 E0.94705
G1 X48.153 Y58.093 E0.07466
G1 X47.102 Y56.653 E0.05590
G1 X46.501 Y55.229 E0.04845
G1 X46.332 Y53.868 E0.04301
G1 X46.551 Y52.622 E0.03967
G1 X47.073 Y51.542 E0.03761
G1 X47.806 Y50.648 E0.03622
G1 X48.670 Y49.940 E0.03504
G1 X49.599 Y49.415 E0.03345
G1 X50.504 Y49.089 E0.03016
G1 X51.364 Y48.958 E0.02729
G1 X52.831 Y48.984 E0.04599
G1 X54.042 Y49.149 E0.03833
G1 X55.047 Y49.405 E0.03252
G1 X55.865 Y49.702 E0.02727
G1 X57.000 Y50.198 E0.03884
G1 X57.321 Y50.297 E0.01052
G1 X57.502 Y50.302 E0.00569
G1 X57.745 Y50.217 E0.00806
G1 X58.032 Y49.991 E0.01146
G1 X58.207 Y49.746 E0.00945
G1 X58.264 Y49.484 E0.00841
G1 X58.239 Y49.040 E0.01394
G1 X58.005 Y47.609 E0.04545
G1 X57.938 Y46.654 E0.03003
G1 X58.014 Y45.553 E0.03461
G1 X58.314 Y44.317 E0.03988
G1 X58.903 Y42.957 E0.04647
G1 X59.844 Y41.460 E0.05542
G1 X60.967 Y40.174 E0.05353
G1 X62.140 Y39.336 E0.04522
G1 X63.289 Y38.943 E0.03807
G1 X64.443 Y38.926 E0.03618
G1 X65.507 Y39.215 E0.03455
G1 X66.441 Y39.708 E0.03313
G1 X67.245 Y40.316 E0.03162
G1 X67.922 Y40.964 E0.02937
G1 X68.469 Y41.586 E0.02599
G1 X68.878 Y42.115 E0.02096
G1 X70.870 Y44.909 E0.10759
G1 X73.154 Y48.212 E0.12591
G1 X75.637 Y51.872 E0.13868
G1 X80.369 Y58.977 E0.26766
M204 S1250
G1 X79.963 Y59.048 F9000.000
M204 S800
;TYPE:External perimeter
G1 F1200.000
G1 X79.731 Y59.480 E0.01539
G1 X49.919 Y59.480 E0.93473
G1 X48.446 Y57.855 E0.06880
G1 X47.433 Y56.466 E0.05390
G1 X46.869 Y55.130 E0.04544
G1 X46.714 Y53.877 E0.03960
G1 X46.913 Y52.738 E0.03625
G1 X47.393 Y51.746 E0.03456
G1 X48.074 Y50.916 E0.03365
G1 X48.884 Y50.252 E0.03284
G1 X49.757 Y49.759 E0.03143
G1 X50.597 Y49.456 E0.02801
G1 X51.390 Y49.336 E0.02514
G1 X52.802 Y49.361 E0.04430
