; generated by PrusaSlicer 2.3.3+win64 on 2022-06-09 at 11:45:04 UTC


;
;

;
;
; 

; external perimeters extrusion width = 0.45mm
; perimeters extrusion width = 0.45mm
; infill extrusion width = 0.45mm
; solid infill extrusion width = 0.45mm
; top infill extrusion width = 0.40mm
; first layer extrusion width = 0.42mm

M73 P0 R84
M201 X1250 Y1250 Z400 E5000 ; sets maximum accelerations, mm/sec^2
M203 X180 Y180 Z12 E80 ; sets maximum feedrates, mm/sec
M204 P1250 R1250 T1250 ; sets acceleration (P, T) and retract acceleration (R), mm/sec^2
M205 X8.00 Y8.00 Z2.00 E10.00 ; sets the jerk limits, mm/sec
M205 S0 T0 ; sets the minimum extruding and travel feed rate, mm/sec
M107
;TYPE:Custom
G90 ; use absolute coordinates
M83 ; extruder relative mode
M104 S170 ; set extruder temp for bed leveling
M140 S85 ; set bed temp
M109 R170 ; wait for bed leveling temp
M190 S85 ; wait for bed temp
G28 ; home all without mesh bed level
G29 ; mesh bed leveling 
M104 S230 ; set extruder temp
G92 E0.0
G1 Y-2.0 X179 F2400
G1 Z3 F720
M109 S230 ; wait for extruder temp

; intro line
G1 X170 F1000
G1 Z0.2 F720
G1 X110.0 E8.0 F900
G1 X40.0 E10.0 F700
G92 E0.0

M221 S95 ; set flow
G21 ; set units to millimeters
G90 ; use absolute coordinates
M83 ; use relative distances for extrusion
M900 K0.2 ; Filament gcode
;LAYER_CHANGE
;Z:0.2
;HEIGHT:0.2
;BEFORE_LAYER_CHANGE
G92 E0.0
;0.2


G1 E-3.20000 F2400.000
G1 Z0.200 F9000.000
;AFTER_LAYER_CHANGE
;0.2
G1 Z0.400
G1 X53.762 Y42.570
G1 Z0.200
G1 E3.20000 F1500.000
M204 S800
;TYPE:Skirt
;WIDTH:0.42
G1 F1200.000
G1 X56.931 Y39.131 E0.14665
G1 X59.904 Y36.366 E0.12731
G1 X62.898 Y33.954 E0.12053
G1 X66.003 Y31.808 E0.11835
G1 X69.431 Y29.800 E0.12454
G1 X72.744 Y28.190 E0.11551
G1 X76.131 Y26.858 E0.11412
G1 X79.766 Y25.752 E0.11913
G1 X83.364 Y24.979 E0.11537
G1 X86.910 Y24.520 E0.11213
G1 X90.692 Y24.350 E0.11869
G1 X94.795 Y24.548 E0.12881
G1 X98.837 Y25.134 E0.12806
G1 X102.802 Y26.103 E0.12796
G1 X106.764 Y27.485 E0.13156
G1 X110.512 Y29.199 E0.12924
G1 X114.042 Y31.206 E0.12731
G1 X117.448 Y33.553 E0.12969
G1 X120.855 Y36.348 E0.13817
G1 X124.049 Y39.448 E0.13957
G1 X126.996 Y42.792 E0.13976
G1 X129.431 Y46.031 E0.12705
G1 X131.576 Y49.309 E0.12283
G1 X133.502 Y52.707 E0.12247
G1 X135.293 Y56.394 E0.12853
G1 X136.763 Y59.986 E0.12169
G1 X137.989 Y63.621 E0.12027
G1 X139.006 Y67.442 E0.12397
G1 X139.731 Y71.195 E0.11986
G1 X140.171 Y74.852 E0.11549
G1 X140.340 Y78.618 E0.11821
G1 X139.930 Y86.752 E0.25535
G1 X138.665 Y94.621 E0.24989
G1 X136.483 Y102.384 E0.25285
G1 X133.312 Y109.842 E0.25409
G1 X129.105 Y116.748 E0.25355
G1 X124.112 Y122.632 E0.24196
G1 X118.153 Y127.603 E0.24332
G1 X110.973 Y131.640 E0.25827
M73 P0 R83
G1 X102.636 Y134.394 E0.27529
G1 X93.663 Y135.595 E0.28383
G1 X92.594 Y135.641 E0.03355
G1 X87.524 Y135.499 E0.15905
G1 X83.631 Y135.036 E0.12291
G1 X79.833 Y134.283 E0.12139
G1 X76.210 Y133.281 E0.11786
G1 X72.601 Y131.993 E0.12015
G1 X68.962 Y130.378 E0.12482
G1 X65.616 Y128.594 E0.11892
G1 X62.397 Y126.565 E0.11931
G1 X59.190 Y124.199 E0.12494
G1 X56.157 Y121.577 E0.12571
G1 X53.102 Y118.468 E0.13665
G1 X50.407 Y115.220 E0.13236
G1 X47.997 Y111.761 E0.13217
G1 X45.785 Y107.944 E0.13834
G1 X43.939 Y104.021 E0.13592
G1 X42.388 Y99.849 E0.13957
G1 X41.220 Y95.716 E0.13467
G1 X40.374 Y91.453 E0.13627
G1 X39.836 Y86.893 E0.14396
G1 X39.660 Y82.371 E0.14191
G1 X39.833 Y77.384 E0.15645
G1 X40.368 Y72.525 E0.15328
G1 X41.259 Y67.776 E0.15149
G1 X42.529 Y63.073 E0.15276
G1 X44.122 Y58.600 E0.14887
G1 X46.009 Y54.377 E0.14503
G1 X48.216 Y50.328 E0.14460
G1 X50.839 Y46.318 E0.15022
G1 X53.725 Y42.617 E0.14714
M204 S1250
; printing object Smooth Jofo.stl id:0 copy 0
G1 E-2.24000 F2400.000
;WIPE_START
G1 F7200.000
G1 X55.674 Y40.498 E-0.91200
;WIPE_END
G1 E-0.04800 F2400.000
G1 Z0.400 F9000.000
G1 X116.535 Y70.336
G1 Z0.200
G1 E3.20000 F1500.000
M204 S800
;TYPE:Perimeter
G1 F1200.000
G1 X134.261 Y70.336 E0.55580
G1 X134.646 Y72.022 E0.05422
G1 X135.187 Y78.633 E0.20798
G1 X134.833 Y85.868 E0.22709
G1 X134.202 Y89.911 E0.12830
G1 X116.793 Y89.911 E0.54584
G1 X117.173 Y87.160 E0.08705
G1 X117.416 Y84.021 E0.09871
G1 X117.490 Y80.707 E0.10395
G1 X117.416 Y77.797 E0.09127
G1 X117.214 Y75.005 E0.08778
G1 X116.888 Y72.333 E0.08439
G1 X116.545 Y70.396 E0.06169
M204 S1250
G1 X116.984 Y70.714 F9000.000
M204 S800
;TYPE:External perimeter
G1 F1200.000
G1 X133.961 Y70.714 E0.53227
G1 X134.272 Y72.080 E0.04394
G1 X134.809 Y78.640 E0.20636
G1 X134.457 Y85.829 E0.22569
G1 X133.879 Y89.534 E0.11755
G1 X117.226 Y89.534 E0.52215
G1 X117.548 Y87.201 E0.07384
G1 X117.792 Y84.040 E0.09939
G1 X117.867 Y80.706 E0.10456
G1 X117.792 Y77.778 E0.09182
G1 X117.590 Y74.968 E0.08835
G1 X117.261 Y72.277 E0.08500
G1 X116.995 Y70.773 E0.04791
M204 S1250
G1 X116.966 Y70.314 F9000.000
G1 E-2.24000 F2400.000
;WIPE_START
G1 F7200.000
G1 X119.875 Y70.763 E-0.91200
;WIPE_END
G1 E-0.04800 F2400.000
G1 Z0.400 F9000.000
G1 X116.720 Y90.336
G1 Z0.200
G1 E3.20000 F1500.000
M204 S800
;TYPE:Perimeter
G1 F1200.000
G1 X134.136 Y90.336 E0.54606
G1 X133.706 Y93.091 E0.08741
G1 X131.776 Y100.131 E0.22887
G1 X129.012 Y106.827 E0.22716
G1 X127.204 Y109.911 E0.11207
G1 X106.241 Y109.911 E0.65728
G1 X105.856 Y108.775 E0.03758
G1 X107.912 Y107.199 E0.08123
G1 X109.354 Y105.871 E0.06147
G1 X110.892 Y104.155 E0.07227
G1 X112.270 Y102.264 E0.07336
G1 X113.490 Y100.194 E0.07532
G1 X114.551 Y97.945 E0.07797
G1 X115.451 Y95.517 E0.08119
G1 X116.189 Y92.910 E0.08497
G1 X116.708 Y90.395 E0.08050
M204 S1250
G1 X117.027 Y90.714 F9000.000
M204 S800
;TYPE:External perimeter
G1 F1200.000
G1 X133.695 Y90.714 E0.52261
G1 X133.337 Y93.012 E0.07293
G1 X131.419 Y100.008 E0.22747
G1 X128.673 Y106.659 E0.22560
G1 X126.988 Y109.533 E0.10447
G1 X106.511 Y109.533 E0.64203
G1 X106.300 Y108.910 E0.02063
G1 X108.155 Y107.488 E0.07329
G1 X109.623 Y106.136 E0.06258
G1 X111.186 Y104.392 E0.07343
G1 X112.586 Y102.471 E0.07453
G1 X113.823 Y100.371 E0.07644
G1 X114.899 Y98.091 E0.07902
G1 X115.810 Y95.634 E0.08217
G1 X116.555 Y92.999 E0.08586
G1 X117.015 Y90.772 E0.07129
M204 S1250
G1 X117.060 Y90.315 F9000.000
G1 E-2.24000 F2400.000
;WIPE_START
G1 F7200.000
G1 X119.895 Y90.762 E-0.91200
;WIPE_END
G1 E-0.04800 F2400.000
G1 Z0.400 F9000.000
G1 X105.891 Y50.336
M73 P1 R83
G1 Z0.200
G1 E3.20000 F1500.000
M204 S800
;TYPE:Perimeter
G1 F1200.000
G1 X126.021 Y50.336 E0.63115
G1 X127.206 Y52.023 E0.06462
G1 X130.602 Y58.510 E0.22957
G1 X133.099 Y65.241 E0.22511
G1 X134.164 Y69.911 E0.15017
G1 X116.467 Y69.911 E0.55488
G1 X115.863 Y67.358 E0.08223
G1 X115.166 Y65.057 E0.07538
G1 X114.348 Y62.880 E0.07293
G1 X113.410 Y60.828 E0.07074
G1 X112.353 Y58.901 E0.06889
G1 X111.181 Y57.105 E0.06727
G1 X109.678 Y55.209 E0.07585
G1 X108.030 Y53.507 E0.07430
G1 X106.237 Y51.999 E0.07345
G1 X105.528 Y51.517 E0.02688
G1 X105.874 Y50.394 E0.03684
M204 S1250
G1 X106.170 Y50.713 F9000.000
M204 S800
;TYPE:External perimeter
G1 F1200.000
G1 X125.825 Y50.713 E0.61627
G1 X126.883 Y52.220 E0.05771
G1 X130.256 Y58.663 E0.22805
G1 X132.737 Y65.349 E0.22359
G1 X133.691 Y69.534 E0.13457
G1 X116.765 Y69.534 E0.53071
G1 X116.227 Y67.260 E0.07325
G1 X115.523 Y64.936 E0.07613
G1 X114.696 Y62.735 E0.07373
G1 X113.747 Y60.659 E0.07158
G1 X112.677 Y58.707 E0.06977
G1 X111.487 Y56.884 E0.06826
G1 X109.962 Y54.960 E0.07698
G1 X108.287 Y53.231 E0.07549
G1 X106.465 Y51.698 E0.07466
G1 X105.970 Y51.362 E0.01875
G1 X106.152 Y50.771 E0.01938
M204 S1250
G1 X106.131 Y50.315 F9000.000
G1 E-2.24000 F2400.000
;WIPE_START
G1 F7200.000
G1 X109.032 Y50.762 E-0.91200
;WIPE_END
G1 E-0.04800 F2400.000
G1 Z0.400 F9000.000
G1 X103.518 Y52.428
G1 Z0.200
G1 E3.20000 F1500.000
M204 S800
;TYPE:Perimeter
G1 F1200.000
G1 X106.859 Y55.017 E0.13251
G1 X109.621 Y58.202 E0.13218
G1 X111.825 Y61.911 E0.13528
G1 X113.494 Y66.077 E0.14071
G1 X114.657 Y70.636 E0.14754
G1 X115.342 Y75.530 E0.15494
G1 X115.570 Y80.671 E0.16133
G1 X115.334 Y86.268 E0.17565
G1 X114.574 Y91.343 E0.16091
G1 X113.292 Y95.859 E0.14721
G1 X111.483 Y99.809 E0.13620
G1 X109.147 Y103.179 E0.12857
G1 X106.289 Y105.952 E0.12488
G1 X102.922 Y108.114 E0.12545
G1 X99.066 Y109.655 E0.13021
G1 X94.739 Y110.576 E0.13871
G1 X89.946 Y110.882 E0.15057
G1 X85.284 Y110.574 E0.14650
G1 X81.036 Y109.649 E0.13632
G1 X77.219 Y108.111 E0.12902
G1 X73.858 Y105.965 E0.12502
G1 X70.979 Y103.226 E0.12462
G1 X68.602 Y99.912 E0.12787
G1 X66.739 Y96.044 E0.13459
G1 X65.401 Y91.640 E0.14432
G1 X64.593 Y86.713 E0.15655
G1 X64.324 Y81.306 E0.16976
G1 X64.562 Y75.609 E0.17877
G1 X65.287 Y70.351 E0.16642
G1 X66.512 Y65.591 E0.15412
G1 X68.251 Y61.354 E0.14359
G1 X70.520 Y57.673 E0.13559
G1 X73.329 Y54.586 E0.13086
G1 X76.683 Y52.134 E0.13026
G1 X80.574 Y50.353 E0.13419
G1 X84.996 Y49.270 E0.14272
G1 X89.949 Y48.905 E0.15574
G1 X95.070 Y49.314 E0.16105
G1 X99.590 Y50.505 E0.14658
G1 X103.465 Y52.402 E0.13525
M204 S1250
G1 X103.299 Y52.740 F9000.000
M204 S800
;TYPE:External perimeter
G1 F1200.000
G1 X106.598 Y55.292 E0.13078
G1 X109.314 Y58.424 E0.12996
G1 X111.486 Y62.078 E0.13330
G1 X113.135 Y66.194 E0.13901
G1 X114.287 Y70.709 E0.14611
G1 X114.966 Y75.565 E0.15373
G1 X115.193 Y80.671 E0.16025
G1 X114.958 Y86.232 E0.17451
G1 X114.205 Y91.263 E0.15952
G1 X112.937 Y95.729 E0.14555
G1 X111.154 Y99.621 E0.13424
G1 X108.858 Y102.934 E0.12637
G1 X106.053 Y105.655 E0.12254
G1 X102.749 Y107.778 E0.12314
G1 X98.956 Y109.293 E0.12807
G1 X94.687 Y110.202 E0.13684
G1 X89.947 Y110.504 E0.14894
G1 X85.337 Y110.200 E0.14486
G1 X81.147 Y109.288 E0.13444
G1 X77.392 Y107.775 E0.12692
G1 X74.092 Y105.667 E0.12278
G1 X71.264 Y102.977 E0.12237
G1 X68.927 Y99.719 E0.12573
G1 X67.091 Y95.907 E0.13265
G1 X65.769 Y91.555 E0.14262
G1 X64.969 Y86.673 E0.15510
G1 X64.701 Y81.304 E0.16855
G1 X64.938 Y75.643 E0.17766
G1 X65.658 Y70.424 E0.16518
G1 X66.871 Y65.710 E0.15262
G1 X68.588 Y61.526 E0.14181
G1 X70.823 Y57.901 E0.13352
G1 X73.583 Y54.868 E0.12857
G1 X76.875 Y52.461 E0.12786
G1 X80.699 Y50.711 E0.13187
G1 X85.055 Y49.644 E0.14061
G1 X89.948 Y49.283 E0.15385
G1 X95.006 Y49.687 E0.15909
G1 X99.458 Y50.860 E0.14435
G1 X103.245 Y52.714 E0.13220
M204 S1250
G1 X103.652 Y52.552 F9000.000
G1 E-2.24000 F2400.000
;WIPE_START
G1 F7200.000
G1 X105.528 Y54.469 E-0.91200
;WIPE_END
G1 E-0.04800 F2400.000
G1 Z0.400 F9000.000
G1 X125.126 Y49.062
G1 Z0.200
G1 E3.20000 F1500.000
M204 S800
;TYPE:Perimeter
G1 F1200.000
G1 X124.685 Y49.911 E0.02998
G1 X102.872 Y49.911 E0.68394
G1 X102.237 Y49.568 E0.02261
G1 X100.035 Y48.647 E0.07485
G1 X97.701 Y47.927 E0.07656
G1 X95.239 Y47.409 E0.07889
G1 X92.653 Y47.095 E0.08168
G1 X89.946 Y46.990 E0.08495
G1 X87.244 Y47.087 E0.08476
G1 X84.676 Y47.378 E0.08105
G1 X82.243 Y47.860 E0.07775
G1 X79.947 Y48.532 E0.07504
G1 X77.785 Y49.393 E0.07295
G1 X76.785 Y49.911 E0.03530
G1 X55.716 Y49.911 E0.66061
G1 X55.285 Y49.026 E0.03085
G1 X58.868 Y44.445 E0.18236
G1 X64.336 Y39.272 E0.23600
G1 X70.381 Y35.098 E0.23033
G1 X76.874 Y32.008 E0.22547
G1 X83.687 Y30.090 E0.22192
G1 X90.691 Y29.430 E0.22059
G1 X98.441 Y30.229 E0.24426
G1 X105.601 Y32.492 E0.23547
G1 X112.110 Y36.009 E0.23196
G1 X117.912 Y40.573 E0.23147
G1 X122.960 Y45.978 E0.23188
M73 P1 R82
G1 X125.091 Y49.013 E0.11628
M204 S1250
G1 X124.686 Y49.092 F9000.000
M204 S800
;TYPE:External perimeter
G1 F1200.000
G1 X124.456 Y49.533 E0.01561
G1 X102.967 Y49.533 E0.67377
G1 X102.400 Y49.227 E0.02021
G1 X100.163 Y48.292 E0.07601
G1 X97.796 Y47.562 E0.07767
G1 X95.301 Y47.036 E0.07995
G1 X92.683 Y46.719 E0.08268
G1 X89.946 Y46.613 E0.08588
G1 X87.216 Y46.711 E0.08565
G1 X84.618 Y47.005 E0.08199
G1 X82.154 Y47.493 E0.07877
G1 X79.824 Y48.176 E0.07612
G1 X77.628 Y49.050 E0.07409
G1 X76.693 Y49.533 E0.03300
G1 X55.952 Y49.533 E0.65035
G1 X55.727 Y49.073 E0.01607
G1 X59.148 Y44.700 E0.17408
G1 X64.574 Y39.566 E0.23421
G1 X70.570 Y35.425 E0.22847
G1 X77.007 Y32.362 E0.22352
G1 X83.757 Y30.462 E0.21985
G1 X90.690 Y29.809 E0.21835
G1 X98.364 Y30.600 E0.24188
G1 X105.454 Y32.840 E0.23314
G1 X111.902 Y36.326 E0.22982
G1 X117.656 Y40.852 E0.22955
G1 X122.666 Y46.217 E0.23015
G1 X124.651 Y49.042 E0.10828
M204 S1250
G1 X125.014 Y49.320 F9000.000
G1 E-2.24000 F2400.000
;WIPE_START
G1 F7200.000
G1 X124.456 Y49.533 E-0.16731
G1 X122.104 Y49.533 E-0.74469
;WIPE_END
G1 E-0.04800 F2400.000
G1 Z0.400 F9000.000
G1 X74.227 Y51.385
G1 Z0.200
G1 E3.20000 F1500.000
M204 S800
;TYPE:Perimeter
G1 F1200.000
G1 X72.106 Y53.102 E0.08556
G1 X70.480 Y54.715 E0.07182
G1 X68.985 Y56.520 E0.07347
G1 X67.747 Y58.327 E0.06868
G1 X66.635 Y60.287 E0.07065
G1 X65.651 Y62.398 E0.07303
G1 X64.794 Y64.659 E0.07581
G1 X64.068 Y67.071 E0.07897
G1 X63.405 Y69.911 E0.09144
G1 X46.141 Y69.911 E0.54133
G1 X47.218 Y65.110 E0.15426
G1 X50.181 Y57.448 E0.25757
G1 X54.218 Y50.336 E0.25641
G1 X73.856 Y50.336 E0.61573
G1 X74.207 Y51.329 E0.03300
M204 S1250
G1 X73.783 Y51.260 F9000.000
M204 S800
;TYPE:External perimeter
G1 F1200.000
G1 X71.854 Y52.821 E0.07780
G1 X70.201 Y54.460 E0.07300
G1 X68.684 Y56.293 E0.07459
G1 X67.427 Y58.127 E0.06972
G1 X66.300 Y60.114 E0.07162
G1 X65.303 Y62.251 E0.07394
G1 X64.436 Y64.537 E0.07666
G1 X63.703 Y66.973 E0.07976
G1 X63.106 Y69.534 E0.08243
G1 X46.612 Y69.534 E0.51717
M73 P2 R82
G1 X47.580 Y65.220 E0.13861
G1 X50.523 Y57.610 E0.25582
G1 X54.437 Y50.713 E0.24866
G1 X73.589 Y50.713 E0.60049
G1 X73.763 Y51.203 E0.01629
M204 S1250
G1 X74.112 Y51.487 F9000.000
G1 E-2.24000 F2400.000
;WIPE_START
G1 F7200.000
G1 X71.854 Y52.821 E-0.79233
G1 X71.586 Y53.087 E-0.11967
;WIPE_END
G1 E-0.04800 F2400.000
G1 Z0.400 F9000.000
G1 X63.350 Y70.336
G1 Z0.200
G1 E3.20000 F1500.000
M204 S800
;TYPE:Perimeter
G1 F1200.000
G1 X63.005 Y72.340 E0.06374
G1 X62.672 Y75.195 E0.09014
G1 X62.472 Y78.196 E0.09429
G1 X62.406 Y81.328 E0.09823
G1 X62.709 Y87.149 E0.18274
G1 X63.179 Y89.911 E0.08785
G1 X45.339 Y89.911 E0.55937
G1 X44.707 Y82.314 E0.23901
G1 X45.350 Y73.433 E0.27918
G1 X46.045 Y70.336 E0.09951
G1 X63.290 Y70.336 E0.54069
M204 S1250
G1 X62.902 Y70.714 F9000.000
M204 S800
;TYPE:External perimeter
G1 F1200.000
G1 X62.632 Y72.286 E0.05003
G1 X62.296 Y75.161 E0.09075
G1 X62.095 Y78.179 E0.09486
G1 X62.028 Y81.334 E0.09893
G1 X62.333 Y87.190 E0.18386
G1 X62.732 Y89.534 E0.07453
G1 X45.686 Y89.534 E0.53448
G1 X45.085 Y82.312 E0.22721
G1 X45.724 Y73.488 E0.27738
G1 X46.347 Y70.714 E0.08917
G1 X62.842 Y70.714 E0.51720
M204 S1250
G1 X63.301 Y70.738 F9000.000
G1 E-2.24000 F2400.000
;WIPE_START
G1 F7200.000
G1 X62.632 Y72.286 E-0.50239
G1 X62.482 Y73.571 E-0.40961
;WIPE_END
G1 E-0.04800 F2400.000
G1 Z0.400 F9000.000
G1 X45.205 Y90.336
G1 Z0.200
G1 E3.20000 F1500.000
M204 S800
;TYPE:Perimeter
G1 F1200.000
G1 X63.252 Y90.336 E0.56584
G1 X63.604 Y92.405 E0.06580
G1 X65.069 Y97.091 E0.15393
G1 X67.085 Y101.191 E0.14324
G1 X69.629 Y104.695 E0.13579
G1 X73.032 Y107.919 E0.14696
G1 X72.636 Y108.911 E0.03346
G1 X52.345 Y108.911 E0.63623
G1 X50.882 Y106.759 E0.08156
G1 X47.570 Y99.467 E0.25113
G1 X45.220 Y90.395 E0.29385
M204 S1250
G1 X45.692 Y90.714 F9000.000
M204 S800
;TYPE:External perimeter
G1 F1200.000
G1 X62.933 Y90.714 E0.54059
G1 X63.237 Y92.493 E0.05661
G1 X64.718 Y97.231 E0.15563
G1 X66.760 Y101.386 E0.14517
G1 X69.345 Y104.945 E0.13790
G1 X72.587 Y108.017 E0.14004
G1 X72.381 Y108.533 E0.01743
G1 X52.544 Y108.533 E0.62196
G1 X51.212 Y106.574 E0.07429
G1 X47.927 Y99.341 E0.24909
G1 X45.707 Y90.772 E0.27755
M204 S1250
G1 X45.648 Y90.316 F9000.000
G1 E-2.24000 F2400.000
;WIPE_START
G1 F7200.000
G1 X48.587 Y90.762 E-0.91200
;WIPE_END
G1 E-0.04800 F2400.000
G1 Z0.400 F9000.000
G1 X53.647 Y109.336
G1 Z0.200
G1 E3.20000 F1500.000
M204 S800
;TYPE:Perimeter
G1 F1200.000
G1 X75.405 Y109.336 E0.68220
G1 X76.257 Y109.883 E0.03175
G1 X80.328 Y111.545 E0.13785
G1 X84.895 Y112.559 E0.14669
G1 X89.962 Y112.905 E0.15926
G1 X92.386 Y112.833 E0.07604
G1 X94.716 Y112.619 E0.07337
G1 X96.934 Y112.263 E0.07043
G1 X99.042 Y111.766 E0.06790
G1 X101.037 Y111.130 E0.06567
G1 X102.968 Y110.336 E0.06544
G1 X126.036 Y110.336 E0.72329
G1 X126.490 Y111.128 E0.02861
G1 X125.381 Y113.019 E0.06873
G1 X120.848 Y118.538 E0.22392
G1 X115.385 Y123.217 E0.22552
G1 X108.967 Y126.882 E0.23173
G1 X101.575 Y129.363 E0.24451
