; generated by PrusaSlicer 2.3.3+win64 on 2022-06-16 at 08:22:01 UTC


;
;

;
;
; 

; external perimeters extrusion width = 0.45mm
; perimeters extrusion width = 0.45mm
; infill extrusion width = 0.45mm
; solid infill extrusion width = 0.45mm
; top infill extrusion width = 0.40mm
; first layer extrusion width = 0.42mm

M73 P0 R74
M201 X1250 Y1250 Z400 E5000 ; sets maximum accelerations, mm/sec^2
M203 X180 Y180 Z12 E80 ; sets maximum feedrates, mm/sec
M204 P1250 R1250 T1250 ; sets acceleration (P, T) and retract acceleration (R), mm/sec^2
M205 X8.00 Y8.00 Z2.00 E10.00 ; sets the jerk limits, mm/sec
M205 S0 T0 ; sets the minimum extruding and travel feed rate, mm/sec
M107
;TYPE:Custom
G90 ; use absolute coordinates
M83 ; extruder relative mode
M104 S170 ; set extruder temp for bed leveling
M140 S85 ; set bed temp
M109 R170 ; wait for bed leveling temp
M190 S85 ; wait for bed temp
G28 ; home all without mesh bed level
G29 ; mesh bed leveling 
M104 S230 ; set extruder temp
G92 E0.0
G1 Y-2.0 X179 F2400
G1 Z3 F720
M109 S230 ; wait for extruder temp

; intro line
G1 X170 F1000
G1 Z0.2 F720
G1 X110.0 E8.0 F900
G1 X40.0 E10.0 F700
G92 E0.0

M221 S95 ; set flow
G21 ; set units to millimeters
G90 ; use absolute coordinates
M83 ; use relative distances for extrusion
M900 K0.2 ; Filament gcode
;LAYER_CHANGE
;Z:0.2
;HEIGHT:0.2
;BEFORE_LAYER_CHANGE
G92 E0.0
;0.2


G1 E-3.20000 F2400.000
G1 Z0.200 F9000.000
;AFTER_LAYER_CHANGE
;0.2
G1 Z0.400
G1 X79.244 Y59.591
G1 Z0.200
G1 E3.20000 F1500.000
M204 S800
;TYPE:Skirt
;WIDTH:0.42
G1 F1200.000
G1 X95.841 Y37.520 E0.86585
G1 X96.746 Y36.565 E0.04124
G1 X97.397 Y36.023 E0.02656
G1 X98.631 Y35.242 E0.04579
G1 X99.435 Y34.867 E0.02781
G1 X100.383 Y34.536 E0.03149
G1 X101.339 Y34.310 E0.03080
G1 X103.624 Y34.086 E0.07199
G1 X119.094 Y34.122 E0.48506
G1 X121.126 Y34.295 E0.06393
G1 X122.250 Y34.545 E0.03612
G1 X123.219 Y34.869 E0.03203
G1 X124.684 Y35.578 E0.05100
G1 X125.460 Y36.088 E0.02914
G1 X126.550 Y37.006 E0.04467
G1 X127.582 Y38.183 E0.04910
G1 X128.183 Y39.081 E0.03387
G1 X128.666 Y39.996 E0.03244
G1 X129.257 Y41.584 E0.05314
G1 X129.560 Y43.018 E0.04595
G1 X129.650 Y44.292 E0.04006
G1 X131.022 Y133.880 E2.80929
G1 X130.961 Y135.347 E0.04603
G1 X130.824 Y136.205 E0.02726
G1 X130.357 Y137.759 E0.05086
G1 X129.621 Y139.217 E0.05122
G1 X128.660 Y140.515 E0.05063
G1 X127.207 Y141.865 E0.06220
G1 X125.529 Y142.926 E0.06224
G1 X123.688 Y143.727 E0.06296
G1 X121.656 Y144.331 E0.06648
G1 X119.533 Y144.755 E0.06786
G1 X117.215 Y145.060 E0.07331
G1 X112.380 Y145.391 E0.15197
G1 X95.320 Y145.914 E0.53513
G1 X92.143 Y145.850 E0.09963
G1 X88.755 Y145.638 E0.10644
G1 X85.240 Y145.248 E0.11090
G1 X81.610 Y144.643 E0.11539
G1 X77.923 Y143.790 E0.11867
G1 X74.218 Y142.649 E0.12154
G1 X70.578 Y141.198 E0.12286
G1 X67.048 Y139.403 E0.12418
G1 X63.612 Y137.186 E0.12821
G1 X60.489 Y134.628 E0.12657
G1 X58.495 Y132.650 E0.08807
G1 X56.948 Y130.882 E0.07366
G1 X55.345 Y128.796 E0.08248
G1 X53.768 Y126.405 E0.08980
G1 X52.217 Y123.572 E0.10127
G1 X50.850 Y120.366 E0.10926
G1 X49.825 Y116.988 E0.11070
G1 X49.140 Y113.086 E0.12421
G1 X48.979 Y109.139 E0.12387
G1 X49.426 Y104.583 E0.14354
G1 X49.965 Y102.112 E0.07929
G1 X50.657 Y99.842 E0.07441
G1 X51.532 Y97.640 E0.07429
G1 X52.667 Y95.348 E0.08020
G1 X53.980 Y93.188 E0.07925
G1 X79.208 Y59.639 E1.31615
M204 S1250
; printing object Ingenious Esboo.stl id:0 copy 0
G1 E-2.24000 F2400.000
;WIPE_START
G1 F7200.000
G1 X80.939 Y57.337 E-0.91200
;WIPE_END
G1 E-0.04800 F2400.000
G1 Z0.400 F9000.000
G1 X101.217 Y99.480
G1 Z0.200
G1 E3.20000 F1500.000
M204 S800
;TYPE:Perimeter
G1 F1200.000
G1 X101.571 Y103.860 E0.13777
G1 X101.823 Y107.686 E0.12021
G1 X101.931 Y110.245 E0.08032
G1 X101.971 Y112.744 E0.07838
G1 X102.582 Y116.760 E0.12736
G1 X102.679 Y117.582 E0.02595
G1 X102.746 Y118.414 E0.02616
G1 X102.773 Y119.263 E0.02664
G1 X102.752 Y120.130 E0.02720
G1 X102.671 Y121.020 E0.02800
G1 X102.584 Y121.564 E0.01729
G1 X102.287 Y122.105 E0.01934
G1 X101.862 Y122.499 E0.01817
G1 X101.388 Y122.766 E0.01706
G1 X100.895 Y122.951 E0.01652
G1 X100.393 Y123.086 E0.01630
G1 X98.465 Y123.468 E0.06161
G1 X96.912 Y123.566 E0.04880
G1 X95.385 Y123.631 E0.04792
G1 X93.842 Y123.657 E0.04838
G1 X92.286 Y123.637 E0.04880
G1 X90.721 Y123.559 E0.04911
G1 X89.153 Y123.417 E0.04937
G1 X87.585 Y123.201 E0.04964
G1 X86.021 Y122.902 E0.04991
G1 X84.467 Y122.510 E0.05025
G1 X82.888 Y122.004 E0.05200
G1 X81.960 Y121.522 E0.03277
G1 X81.072 Y121.017 E0.03205
G1 X80.186 Y120.460 E0.03280
G1 X79.320 Y119.849 E0.03323
G1 X78.494 Y119.187 E0.03318
G1 X77.760 Y118.503 E0.03148
G1 X77.040 Y117.705 E0.03369
G1 X76.401 Y116.837 E0.03379
G1 X75.863 Y115.893 E0.03407
G1 X75.475 Y114.948 E0.03203
G1 X75.130 Y114.756 E0.01239
G1 X74.964 Y114.615 E0.00682
G1 X74.783 Y114.351 E0.01002
G1 X74.225 Y112.480 E0.06124
G1 X73.999 Y110.731 E0.05528
G1 X74.055 Y108.995 E0.05447
G1 X74.375 Y107.299 E0.05411
G1 X74.939 Y105.671 E0.05404
G1 X75.727 Y104.138 E0.05405
G1 X76.722 Y102.724 E0.05420
G1 X77.908 Y101.454 E0.05448
G1 X79.265 Y100.356 E0.05475
G1 X80.791 Y99.447 E0.05567
G1 X82.816 Y98.692 E0.06776
G1 X84.834 Y98.200 E0.06512
G1 X86.855 Y97.930 E0.06395
G1 X88.854 Y97.849 E0.06271
G1 X90.885 Y97.919 E0.06374
G1 X92.882 Y98.108 E0.06290
G1 X94.863 Y98.382 E0.06269
G1 X96.822 Y98.707 E0.06228
G1 X101.158 Y99.470 E0.13803
M204 S1250
G1 X100.865 Y99.801 F9000.000
M204 S800
;TYPE:External perimeter
G1 F1200.000
G1 X101.195 Y103.888 E0.12854
G1 X101.447 Y107.706 E0.11999
G1 X101.554 Y110.256 E0.08002
G1 X101.594 Y112.776 E0.07902
G1 X102.208 Y116.811 E0.12797
G1 X102.304 Y117.620 E0.02553
G1 X102.369 Y118.435 E0.02565
G1 X102.396 Y119.264 E0.02602
G1 X102.375 Y120.109 E0.02648
G1 X102.297 Y120.973 E0.02721
G1 X102.222 Y121.440 E0.01483
G1 X101.986 Y121.870 E0.01537
G1 X101.638 Y122.192 E0.01488
G1 X101.228 Y122.424 E0.01475
G1 X100.780 Y122.592 E0.01502
G1 X100.307 Y122.718 E0.01533
G1 X98.417 Y123.093 E0.06044
G1 X96.892 Y123.189 E0.04789
G1 X95.374 Y123.254 E0.04765
G1 X93.841 Y123.280 E0.04805
G1 X92.298 Y123.260 E0.04840
G1 X90.748 Y123.183 E0.04865
G1 X89.196 Y123.042 E0.04886
G1 X87.646 Y122.829 E0.04906
G1 X86.103 Y122.533 E0.04926
G1 X84.571 Y122.147 E0.04954
G1 X83.033 Y121.655 E0.05062
G1 X82.141 Y121.190 E0.03155
G1 X81.265 Y120.693 E0.03157
G1 X80.395 Y120.146 E0.03222
G1 X79.547 Y119.548 E0.03255
G1 X78.741 Y118.902 E0.03237
G1 X78.029 Y118.238 E0.03053
G1 X77.332 Y117.466 E0.03259
G1 X76.718 Y116.631 E0.03252
G1 X76.202 Y115.727 E0.03262
G1 X75.793 Y114.715 E0.03422
G1 X75.741 Y114.664 E0.00229
G1 X75.345 Y114.444 E0.01419
G1 X75.246 Y114.361 E0.00407
G1 X75.128 Y114.187 E0.00658
G1 X74.595 Y112.401 E0.05844
G1 X74.377 Y110.713 E0.05338
G1 X74.431 Y109.036 E0.05260
G1 X74.740 Y107.396 E0.05232
G1 X75.287 Y105.819 E0.05233
G1 X76.051 Y104.333 E0.05239
G1 X77.015 Y102.962 E0.05257
G1 X78.165 Y101.730 E0.05283
G1 X79.482 Y100.666 E0.05308
G1 X80.955 Y99.789 E0.05375
G1 X82.927 Y99.053 E0.06600
G1 X84.904 Y98.572 E0.06379
G1 X86.888 Y98.306 E0.06277
G1 X88.855 Y98.227 E0.06172
G1 X90.861 Y98.296 E0.06294
G1 X92.839 Y98.483 E0.06229
G1 X94.806 Y98.755 E0.06227
G1 X96.759 Y99.079 E0.06206
G1 X100.806 Y99.791 E0.12884
M204 S1250
G1 X101.265 Y99.803 F9000.000
G1 E-2.24000 F2400.000
;WIPE_START
G1 F7200.000
G1 X101.078 Y102.658 E-0.91200
;WIPE_END
G1 E-0.04800 F2400.000
G1 Z0.400 F9000.000
G1 X103.186 Y100.248
G1 Z0.200
G1 E3.20000 F1500.000
M204 S800
;TYPE:Perimeter
G1 F1200.000
G1 X123.121 Y100.248 E0.62504
G1 X123.531 Y107.482 E0.22717
G1 X124.168 Y115.797 E0.26147
M73 P1 R74
G1 X124.541 Y119.822 E0.12676
G1 X104.344 Y119.822 E0.63327
G1 X104.334 Y117.230 E0.08129
G1 X104.262 Y114.667 E0.08037
G1 X104.138 Y112.093 E0.08079
G1 X103.971 Y109.512 E0.08112
G1 X103.772 Y106.928 E0.08123
G1 X103.192 Y100.308 E0.20838
M204 S1250
G1 X103.598 Y100.625 F9000.000
M204 S800
;TYPE:External perimeter
G1 F1200.000
G1 X122.765 Y100.625 E0.60097
M73 P1 R73
G1 X123.155 Y107.507 E0.21612
G1 X123.792 Y115.828 E0.26168
G1 X124.127 Y119.445 E0.11388
G1 X104.719 Y119.445 E0.60852
G1 X104.712 Y117.224 E0.06965
G1 X104.639 Y114.653 E0.08064
G1 X104.514 Y112.072 E0.08101
G1 X104.348 Y109.485 E0.08129
G1 X104.148 Y106.897 E0.08137
G1 X103.603 Y100.685 E0.19554
M204 S1250
G1 X103.587 Y100.225 F9000.000
G1 E-2.24000 F2400.000
;WIPE_START
G1 F7200.000
G1 X106.483 Y100.676 E-0.91200
;WIPE_END
G1 E-0.04800 F2400.000
G1 Z0.400 F9000.000
G1 X102.615 Y80.248
G1 Z0.200
G1 E3.20000 F1500.000
M204 S800
;TYPE:Perimeter
G1 F1200.000
G1 X122.744 Y80.248 E0.63113
G1 X122.708 Y82.810 E0.08033
G1 X122.790 Y91.151 E0.26154
G1 X123.086 Y99.822 E0.27204
G1 X103.145 Y99.822 E0.62525
G1 X102.935 Y97.409 E0.07595
G1 X102.529 Y97.432 E0.01276
G1 X101.369 Y97.423 E0.03638
G1 X100.241 Y97.347 E0.03543
G1 X99.138 Y97.218 E0.03481
G1 X98.051 Y97.047 E0.03451
G1 X96.972 Y96.843 E0.03443
G1 X93.707 Y96.161 E0.10461
G1 X92.641 Y95.955 E0.03402
G1 X90.239 Y95.955 E0.07532
G1 X88.356 Y95.915 E0.05906
G1 X86.526 Y96.007 E0.05743
G1 X84.732 Y96.236 E0.05673
G1 X82.987 Y96.613 E0.05596
G1 X81.304 Y97.142 E0.05530
G1 X79.700 Y97.830 E0.05474
G1 X78.185 Y98.686 E0.05455
G1 X76.774 Y99.716 E0.05478
G1 X75.590 Y100.822 E0.05081
G1 X55.835 Y100.822 E0.61940
G1 X57.321 Y97.588 E0.11159
G1 X59.669 Y94.128 E0.13110
G1 X62.560 Y91.033 E0.13280
G1 X65.938 Y88.325 E0.13575
G1 X69.746 Y86.026 E0.13948
G1 X73.930 Y84.157 E0.14367
G1 X78.434 Y82.738 E0.14807
G1 X83.206 Y81.794 E0.15253
G1 X88.191 Y81.345 E0.15691
G1 X90.964 Y81.363 E0.08697
G1 X93.481 Y81.576 E0.07919
G1 X95.735 Y81.931 E0.07155
G1 X97.719 Y82.372 E0.06371
G1 X99.423 Y82.847 E0.05548
G1 X102.432 Y83.821 E0.09918
G1 X102.612 Y80.308 E0.11031
M204 S1250
G1 X102.974 Y80.625 F9000.000
M204 S800
;TYPE:External perimeter
G1 F1200.000
G1 X122.362 Y80.625 E0.60790
G1 X122.331 Y82.809 E0.06848
G1 X122.413 Y91.159 E0.26182
G1 X122.696 Y99.445 E0.25995
G1 X103.490 Y99.445 E0.60217
G1 X103.279 Y97.011 E0.07659
G1 X102.520 Y97.055 E0.02386
G1 X101.383 Y97.046 E0.03564
G1 X100.276 Y96.971 E0.03479
G1 X99.190 Y96.844 E0.03429
G1 X98.116 Y96.675 E0.03410
G1 X97.046 Y96.473 E0.03413
G1 X93.781 Y95.791 E0.10458
G1 X92.677 Y95.578 E0.03524
G1 X90.243 Y95.578 E0.07632
G1 X88.350 Y95.537 E0.05936
G1 X86.493 Y95.631 E0.05831
G1 X84.668 Y95.864 E0.05769
G1 X82.890 Y96.248 E0.05701
G1 X81.173 Y96.788 E0.05644
G1 X79.533 Y97.492 E0.05597
G1 X77.981 Y98.368 E0.05588
G1 X76.533 Y99.425 E0.05619
G1 X75.441 Y100.445 E0.04687
G1 X56.423 Y100.445 E0.59629
G1 X57.650 Y97.774 E0.09216
G1 X59.964 Y94.364 E0.12920
G1 X62.817 Y91.311 E0.13103
G1 X66.154 Y88.635 E0.13411
G1 X69.921 Y86.361 E0.13796
G1 X74.064 Y84.510 E0.14226
G1 X78.528 Y83.104 E0.14674
G1 X83.260 Y82.168 E0.15126
G1 X88.206 Y81.722 E0.15572
G1 X90.947 Y81.740 E0.08594
G1 X93.436 Y81.951 E0.07831
G1 X95.665 Y82.302 E0.07076
G1 X97.627 Y82.738 E0.06302
G1 X99.314 Y83.208 E0.05490
G1 X101.809 Y84.025 E0.08232
G1 X102.578 Y84.260 E0.02523
G1 X102.786 Y84.288 E0.00657
G1 X102.970 Y80.685 E0.11313
M204 S1250
G1 X102.988 Y80.225 F9000.000
G1 E-2.24000 F2400.000
;WIPE_START
G1 F7200.000
G1 X105.850 Y80.676 E-0.91200
;WIPE_END
G1 E-0.04800 F2400.000
G1 Z0.400 F9000.000
G1 X100.720 Y60.248
G1 Z0.200
G1 E3.20000 F1500.000
M204 S800
;TYPE:Perimeter
G1 F1200.000
G1 X123.444 Y60.248 E0.71248
G1 X123.172 Y64.958 E0.14794
G1 X122.831 Y74.132 E0.28784
G1 X122.750 Y79.822 E0.17842
G1 X102.637 Y79.822 E0.63064
G1 X102.729 Y78.017 E0.05668
G1 X102.391 Y71.613 E0.20105
G1 X101.606 Y65.410 E0.19605
G1 X100.730 Y60.307 E0.16234
M204 S1250
G1 X101.168 Y60.625 F9000.000
M204 S800
;TYPE:External perimeter
G1 F1200.000
G1 X123.044 Y60.625 E0.68593
G1 X122.795 Y64.940 E0.13553
G1 X122.454 Y74.123 E0.28810
G1 X122.378 Y79.445 E0.16690
G1 X103.034 Y79.445 E0.60654
G1 X103.107 Y78.016 E0.04485
G1 X102.767 Y71.580 E0.20210
G1 X101.979 Y65.354 E0.19674
G1 X101.178 Y60.684 E0.14857
M204 S1250
G1 X101.148 Y60.225 F9000.000
G1 E-2.24000 F2400.000
;WIPE_START
G1 F7200.000
G1 X104.058 Y60.676 E-0.91200
;WIPE_END
G1 E-0.04800 F2400.000
G1 Z0.400 F9000.000
G1 X123.468 Y59.822
G1 Z0.200
G1 E3.20000 F1500.000
M204 S800
;TYPE:Perimeter
G1 F1200.000
G1 X100.651 Y59.822 E0.71542
G1 X99.602 Y54.179 E0.17995
G1 X98.838 Y49.428 E0.15088
G1 X98.544 Y45.407 E0.12641
G1 X98.999 Y42.179 E0.10224
G1 X100.629 Y39.928 E0.08712
G1 X103.560 Y39.209 E0.09460
G1 X105.049 Y39.398 E0.04707
G1 X106.303 Y39.865 E0.04197
G1 X107.367 Y40.558 E0.03980
G1 X108.219 Y41.377 E0.03707
G1 X108.977 Y42.356 E0.03881
G1 X109.617 Y43.400 E0.03838
G1 X110.166 Y44.465 E0.03758
G1 X111.477 Y47.348 E0.09929
G1 X111.620 Y47.582 E0.00861
G1 X111.779 Y47.741 E0.00705
G1 X111.906 Y47.794 E0.00431
G1 X112.099 Y47.758 E0.00618
G1 X112.241 Y47.686 E0.00498
G1 X112.394 Y47.576 E0.00590
G1 X112.537 Y47.438 E0.00625
G1 X112.646 Y47.302 E0.00546
G1 X112.977 Y46.674 E0.02226
G1 X113.230 Y45.873 E0.02633
G1 X113.679 Y43.865 E0.06451
G1 X113.983 Y42.781 E0.03530
G1 X114.436 Y41.712 E0.03639
G1 X115.123 Y40.727 E0.03767
G1 X116.113 Y39.928 E0.03990
G1 X117.425 Y39.418 E0.04413
G1 X119.056 Y39.253 E0.05138
G1 X120.409 Y39.383 E0.04263
G1 X121.547 Y39.726 E0.03726
G1 X122.484 Y40.244 E0.03356
G1 X123.165 Y40.837 E0.02833
G1 X123.711 Y41.541 E0.02793
G1 X124.097 Y42.262 E0.02563
G1 X124.348 Y42.950 E0.02299
G1 X124.491 Y43.567 E0.01983
G1 X124.552 Y44.080 E0.01622
G1 X124.549 Y44.434 E0.01108
G1 X123.740 Y55.123 E0.33613
G1 X123.472 Y59.762 E0.14569
M204 S1250
G1 X123.113 Y59.445 F9000.000
M204 S800
;TYPE:External perimeter
G1 F1200.000
G1 X100.965 Y59.445 E0.69443
G1 X99.973 Y54.115 E0.16998
G1 X99.213 Y49.385 E0.15023
G1 X98.923 Y45.420 E0.12463
G1 X99.360 Y42.324 E0.09804
G1 X100.854 Y40.262 E0.07984
G1 X103.582 Y39.592 E0.08807
G1 X104.958 Y39.766 E0.04351
G1 X106.132 Y40.204 E0.03929
G1 X107.131 Y40.855 E0.03738
G1 X107.938 Y41.630 E0.03509
G1 X108.666 Y42.571 E0.03729
G1 X109.288 Y43.585 E0.03729
G1 X109.826 Y44.630 E0.03686
G1 X111.143 Y47.524 E0.09971
G1 X111.321 Y47.817 E0.01075
G1 X111.549 Y48.043 E0.01006
G1 X111.712 Y48.136 E0.00588
G1 X111.872 Y48.174 E0.00514
G1 X112.045 Y48.165 E0.00546
G1 X112.237 Y48.110 E0.00626
G1 X112.438 Y48.009 E0.00704
G1 X112.635 Y47.866 E0.00765
G1 X112.816 Y47.693 E0.00785
G1 X112.963 Y47.509 E0.00737
G1 X113.327 Y46.819 E0.02445
G1 X113.594 Y45.971 E0.02790
G1 X114.045 Y43.957 E0.06470
G1 X114.340 Y42.906 E0.03423
G1 X114.768 Y41.896 E0.03441
G1 X115.402 Y40.987 E0.03475
G1 X116.305 Y40.258 E0.03638
G1 X117.514 Y39.788 E0.04068
G1 X119.056 Y39.632 E0.04861
G1 X120.336 Y39.755 E0.04030
G1 X121.400 Y40.075 E0.03483
G1 X122.266 Y40.554 E0.03105
G1 X122.889 Y41.098 E0.02593
G1 X123.394 Y41.747 E0.02578
G1 X123.752 Y42.416 E0.02379
G1 X123.986 Y43.058 E0.02143
G1 X124.119 Y43.631 E0.01846
G1 X124.175 Y44.101 E0.01483
G1 X124.172 Y44.418 E0.00993
G1 X123.364 Y55.098 E0.33583
G1 X123.116 Y59.385 E0.13463
M204 S1250
G1 X123.103 Y59.845 F9000.000
G1 E-2.24000 F2400.000
;WIPE_START
G1 F7200.000
G1 X120.236 Y59.393 E-0.91200
;WIPE_END
G1 E-0.04800 F2400.000
G1 Z0.400 F9000.000
G1 X74.869 Y101.248
G1 Z0.200
G1 E3.20000 F1500.000
M204 S800
;TYPE:Perimeter
G1 F1200.000
G1 X74.043 Y102.867 E0.05698
G1 X73.703 Y103.475 E0.02185
G1 X73.452 Y103.855 E0.01427
G1 X73.281 Y104.059 E0.00836
G1 X72.865 Y104.998 E0.03221
G1 X72.516 Y106.044 E0.03457
G1 X72.260 Y107.121 E0.03470
G1 X72.098 Y108.222 E0.03491
G1 X72.028 Y109.342 E0.03517
G1 X72.048 Y110.475 E0.03553
G1 X72.156 Y111.614 E0.03589
G1 X72.351 Y112.754 E0.03626
G1 X72.632 Y113.888 E0.03663
G1 X72.986 Y114.983 E0.03608
G1 X73.642 Y116.327 E0.04690
G1 X74.418 Y117.587 E0.04640
G1 X75.448 Y118.949 E0.05354
M73 P2 R73
G1 X75.014 Y119.822 E0.03058
G1 X56.214 Y119.822 E0.58945
G1 X55.957 Y119.256 E0.01949
G1 X54.966 Y116.231 E0.09980
G1 X54.321 Y112.916 E0.10591
G1 X54.130 Y109.330 E0.11259
G1 X54.495 Y105.490 E0.12094
G1 X55.612 Y101.248 E0.13753
G1 X74.809 Y101.248 E0.60190
M204 S1250
G1 X74.253 Y101.625 F9000.000
M204 S800
;TYPE:External perimeter
G1 F1200.000
G1 X73.711 Y102.689 E0.03745
G1 X73.381 Y103.279 E0.02118
G1 X73.149 Y103.629 E0.01317
G1 X72.957 Y103.858 E0.00936
