; generated by PrusaSlicer 2.3.3+win64 on 2022-06-09 at 10:03:51 UTC


;
;

;
;
; 

; external perimeters extrusion width = 0.45mm
; perimeters extrusion width = 0.45mm
; infill extrusion width = 0.45mm
; solid infill extrusion width = 0.45mm
; top infill extrusion width = 0.40mm
; first layer extrusion width = 0.42mm

M73 P0 R78
M201 X1250 Y1250 Z400 E5000 ; sets maximum accelerations, mm/sec^2
M203 X180 Y180 Z12 E80 ; sets maximum feedrates, mm/sec
M204 P1250 R1250 T1250 ; sets acceleration (P, T) and retract acceleration (R), mm/sec^2
M205 X8.00 Y8.00 Z2.00 E10.00 ; sets the jerk limits, mm/sec
M205 S0 T0 ; sets the minimum extruding and travel feed rate, mm/sec
M107
;TYPE:Custom
G90 ; use absolute coordinates
M83 ; extruder relative mode
M104 S170 ; set extruder temp for bed leveling
M140 S85 ; set bed temp
M109 R170 ; wait for bed leveling temp
M190 S85 ; wait for bed temp
G28 ; home all without mesh bed level
G29 ; mesh bed leveling 
M104 S230 ; set extruder temp
G92 E0.0
G1 Y-2.0 X179 F2400
G1 Z3 F720
M109 S230 ; wait for extruder temp

; intro line
G1 X170 F1000
G1 Z0.2 F720
G1 X110.0 E8.0 F900
G1 X40.0 E10.0 F700
G92 E0.0

M221 S95 ; set flow
G21 ; set units to millimeters
G90 ; use absolute coordinates
M83 ; use relative distances for extrusion
M900 K0.2 ; Filament gcode
;LAYER_CHANGE
;Z:0.2
;HEIGHT:0.2
;BEFORE_LAYER_CHANGE
G92 E0.0
;0.2


G1 E-3.20000 F2400.000
G1 Z0.200 F9000.000
;AFTER_LAYER_CHANGE
;0.2
G1 Z0.400
G1 X46.872 Y34.673
G1 Z0.200
G1 E3.20000 F1500.000
M204 S800
;TYPE:Skirt
;WIDTH:0.42
G1 F1200.000
G1 X48.460 Y33.893 E0.05547
G1 X49.726 Y33.562 E0.04101
G1 X51.300 Y33.433 E0.04951
G1 X129.084 Y34.001 E2.43894
G1 X130.720 Y34.226 E0.05180
G1 X132.012 Y34.720 E0.04335
G1 X132.890 Y35.252 E0.03218
G1 X133.430 Y35.680 E0.02161
G1 X134.610 Y36.983 E0.05512
G1 X135.361 Y38.247 E0.04610
G1 X135.777 Y39.260 E0.03433
G1 X136.144 Y40.508 E0.04078
G1 X136.427 Y41.873 E0.04373
G1 X136.677 Y43.687 E0.05741
G1 X136.838 Y45.711 E0.06367
G1 X136.919 Y48.241 E0.07934
G1 X135.022 Y132.047 E2.62837
G1 X134.681 Y136.139 E0.12874
G1 X134.190 Y138.824 E0.08557
G1 X133.787 Y140.237 E0.04607
G1 X133.286 Y141.497 E0.04254
G1 X132.673 Y142.605 E0.03969
G1 X131.994 Y143.511 E0.03550
G1 X131.392 Y144.139 E0.02728
G1 X130.676 Y144.717 E0.02886
G1 X129.905 Y145.190 E0.02833
G1 X129.065 Y145.559 E0.02877
G1 X127.891 Y145.872 E0.03811
G1 X126.855 Y145.966 E0.03262
G1 X60.017 Y146.566 E2.09574
G1 X58.291 Y146.448 E0.05423
G1 X56.838 Y146.162 E0.04645
G1 X55.202 Y145.596 E0.05428
G1 X54.033 Y144.973 E0.04151
G1 X53.030 Y144.240 E0.03897
G1 X52.168 Y143.406 E0.03762
G1 X51.505 Y142.574 E0.03334
G1 X50.955 Y141.680 E0.03291
G1 X50.383 Y140.358 E0.04516
G1 X50.035 Y139.012 E0.04360
G1 X49.898 Y137.761 E0.03944
G1 X43.098 Y57.122 E2.53736
G1 X43.083 Y42.707 E0.45198
G1 X43.210 Y41.329 E0.04340
G1 X43.809 Y38.872 E0.07930
G1 X44.507 Y37.274 E0.05465
G1 X45.125 Y36.320 E0.03565
G1 X45.957 Y35.392 E0.03907
G1 X46.825 Y34.710 E0.03464
M204 S1250
; printing object Super Blad-Jaiks.stl id:0 copy 0
G1 E-2.24000 F2400.000
;WIPE_START
G1 F7200.000
G1 X48.460 Y33.893 E-0.57881
G1 X49.478 Y33.626 E-0.33319
;WIPE_END
G1 E-0.04800 F2400.000
G1 Z0.400 F9000.000
G1 X85.835 Y80.336
G1 Z0.200
G1 E3.20000 F1500.000
M204 S800
;TYPE:Perimeter
G1 F1200.000
G1 X115.872 Y80.336 E0.94179
G1 X116.289 Y81.271 E0.03207
G1 X111.134 Y86.978 E0.24114
G1 X110.377 Y87.956 E0.03879
G1 X109.842 Y88.962 E0.03571
G1 X109.498 Y90.014 E0.03471
G1 X109.330 Y91.105 E0.03462
G1 X109.333 Y92.226 E0.03512
G1 X109.501 Y93.362 E0.03601
G1 X109.827 Y94.500 E0.03713
G1 X110.304 Y95.625 E0.03829
G1 X110.922 Y96.717 E0.03936
G1 X111.885 Y98.054 E0.05165
G1 X111.447 Y98.911 E0.03018
G1 X80.950 Y98.911 E0.95620
G1 X79.993 Y96.905 E0.06969
G1 X79.632 Y95.900 E0.03346
G1 X79.372 Y94.881 E0.03299
G1 X79.214 Y93.849 E0.03271
G1 X79.164 Y92.812 E0.03255
M73 P0 R77
G1 X79.228 Y91.779 E0.03245
G1 X79.409 Y90.758 E0.03251
G1 X79.714 Y89.758 E0.03279
G1 X80.144 Y88.788 E0.03328
G1 X80.692 Y87.881 E0.03323
G1 X85.802 Y80.386 E0.28441
M204 S1250
G1 X86.035 Y80.713 F9000.000
M204 S800
;TYPE:External perimeter
G1 F1200.000
G1 X115.628 Y80.713 E0.92787
G1 X115.845 Y81.200 E0.01670
G1 X110.845 Y86.736 E0.23389
G1 X110.059 Y87.751 E0.04024
G1 X109.494 Y88.814 E0.03774
G1 X109.130 Y89.926 E0.03670
G1 X108.953 Y91.077 E0.03651
G1 X108.956 Y92.254 E0.03689
G1 X109.131 Y93.442 E0.03765
G1 X109.471 Y94.626 E0.03864
G1 X109.965 Y95.792 E0.03969
G1 X110.604 Y96.921 E0.04068
G1 X111.445 Y98.087 E0.04507
G1 X111.216 Y98.533 E0.01572
G1 X81.188 Y98.533 E0.94152
G1 X80.341 Y96.759 E0.06164
G1 X79.993 Y95.790 E0.03230
G1 X79.742 Y94.805 E0.03185
G1 X79.590 Y93.812 E0.03152
G1 X79.542 Y92.815 E0.03129
G1 X79.603 Y91.824 E0.03113
G1 X79.776 Y90.847 E0.03112
G1 X80.068 Y89.890 E0.03135
G1 X80.479 Y88.963 E0.03181
G1 X81.010 Y88.085 E0.03216
G1 X86.001 Y80.763 E0.27784
M204 S1250
G1 X86.113 Y80.321 F9000.000
G1 E-2.24000 F2400.000
;WIPE_START
G1 F7200.000
G1 X88.881 Y80.758 E-0.91200
;WIPE_END
M73 P1 R77
G1 E-0.04800 F2400.000
G1 Z0.400 F9000.000
G1 X81.178 Y99.336
G1 Z0.200
G1 E3.20000 F1500.000
M204 S800
;TYPE:Perimeter
G1 F1200.000
G1 X112.904 Y99.336 E0.99474
G1 X114.639 Y101.690 E0.09168
G1 X116.266 Y103.969 E0.08780
G1 X121.422 Y111.333 E0.28185
G1 X123.146 Y113.760 E0.09335
G1 X124.829 Y116.068 E0.08956
G1 X126.444 Y118.196 E0.08375
G1 X127.104 Y119.016 E0.03303
G1 X126.676 Y119.911 E0.03110
G1 X89.917 Y119.911 E1.15255
G1 X90.114 Y118.650 E0.04001
G1 X90.094 Y118.227 E0.01328
G1 X89.985 Y117.794 E0.01398
G1 X89.758 Y117.318 E0.01654
G1 X88.897 Y115.807 E0.05455
G1 X87.945 Y113.971 E0.06482
G1 X86.949 Y111.931 E0.07122
G1 X85.925 Y109.751 E0.07549
G1 X81.203 Y99.391 E0.35699
M204 S1250
G1 X81.764 Y99.713 F9000.000
M204 S800
;TYPE:External perimeter
G1 F1200.000
G1 X112.713 Y99.713 E0.97038
G1 X114.333 Y101.912 E0.08562
G1 X115.958 Y104.187 E0.08766
G1 X121.114 Y111.550 E0.28184
G1 X122.840 Y113.980 E0.09346
G1 X124.526 Y116.293 E0.08974
G1 X126.147 Y118.428 E0.08404
G1 X126.662 Y119.067 E0.02575
G1 X126.439 Y119.533 E0.01620
G1 X90.358 Y119.533 E1.13129
G1 X90.492 Y118.670 E0.02739
G1 X90.469 Y118.172 E0.01565
G1 X90.342 Y117.666 E0.01634
G1 X90.093 Y117.143 E0.01815
G1 X89.228 Y115.626 E0.05475
G1 X88.282 Y113.802 E0.06444
G1 X87.289 Y111.768 E0.07098
G1 X86.267 Y109.593 E0.07533
G1 X81.789 Y99.768 E0.33854
M204 S1250
G1 X81.707 Y99.318 F9000.000
G1 E-2.24000 F2400.000
;WIPE_START
G1 F7200.000
G1 X84.669 Y99.763 E-0.91200
;WIPE_END
G1 E-0.04800 F2400.000
G1 Z0.400 F9000.000
G1 X128.110 Y120.336
G1 Z0.200
G1 E3.20000 F1500.000
M204 S800
;TYPE:Perimeter
G1 F1200.000
G1 X128.599 Y121.409 E0.03695
G1 X129.002 Y123.317 E0.06115
G1 X129.268 Y125.687 E0.07478
G1 X129.403 Y128.365 E0.08409
G1 X129.399 Y131.171 E0.08798
G1 X129.249 Y133.919 E0.08627
G1 X128.941 Y136.427 E0.07923
G1 X128.451 Y138.535 E0.06784
G1 X127.684 Y140.159 E0.05633
G1 X126.544 Y140.849 E0.04177
G1 X117.016 Y140.860 E0.29874
G1 X107.894 Y140.909 E0.28602
G1 X99.466 Y140.984 E0.26427
G1 X91.734 Y141.078 E0.24244
G1 X67.823 Y141.442 E0.74980
G1 X63.611 Y141.483 E0.13206
G1 X60.075 Y141.484 E0.11088
G1 X58.321 Y141.297 E0.05529
G1 X56.909 Y140.761 E0.04736
G1 X55.876 Y139.911 E0.04197
G1 X55.247 Y138.835 E0.03907
G1 X54.995 Y137.659 E0.03769
G1 X55.046 Y136.473 E0.03723
G1 X55.330 Y135.332 E0.03689
G1 X55.799 Y134.276 E0.03623
G1 X56.414 Y133.349 E0.03489
G1 X57.124 Y132.627 E0.03173
G1 X58.280 Y131.739 E0.04572
G1 X58.720 Y131.369 E0.01800
G1 X58.969 Y131.094 E0.01165
G1 X59.023 Y131.008 E0.00318
G1 X59.151 Y130.691 E0.01070
G1 X59.208 Y130.448 E0.00783
G1 X59.222 Y130.237 E0.00665
G1 X59.204 Y130.043 E0.00611
G1 X59.157 Y129.853 E0.00613
G1 X58.978 Y129.471 E0.01323
G1 X58.677 Y129.042 E0.01641
G1 X58.345 Y128.645 E0.01625
G1 X58.089 Y128.413 E0.01081
G1 X57.152 Y127.761 E0.03578
G1 X56.547 Y127.287 E0.02410
G1 X56.220 Y126.989 E0.01389
G1 X55.884 Y126.640 E0.01519
G1 X55.478 Y126.107 E0.02099
G1 X55.166 Y125.505 E0.02126
G1 X54.951 Y124.881 E0.02070
G1 X54.820 Y124.253 E0.02011
G1 X54.757 Y123.635 E0.01949
G1 X54.750 Y123.039 E0.01870
G1 X54.791 Y122.477 E0.01766
G1 X54.869 Y121.960 E0.01640
G1 X54.980 Y121.495 E0.01498
G1 X55.121 Y121.093 E0.01336
G1 X55.361 Y120.609 E0.01693
G1 X55.671 Y120.143 E0.01754
G1 X56.060 Y119.709 E0.01830
G1 X56.532 Y119.318 E0.01920
G1 X57.085 Y118.987 E0.02021
G1 X57.718 Y118.725 E0.02147
G1 X58.431 Y118.540 E0.02309
G1 X58.994 Y118.468 E0.01779
G1 X59.511 Y118.459 E0.01622
G1 X60.476 Y118.534 E0.03035
G1 X63.218 Y118.861 E0.08658
G1 X66.023 Y119.159 E0.08845
G1 X68.883 Y119.430 E0.09008
G1 X71.766 Y119.671 E0.09070
G1 X74.639 Y119.881 E0.09032
G1 X77.471 Y120.061 E0.08898
G1 X80.229 Y120.207 E0.08659
G1 X82.883 Y120.319 E0.08329
G1 X85.400 Y120.396 E0.07896
G1 X87.704 Y120.435 E0.07225
G1 X88.057 Y120.396 E0.01113
G1 X88.268 Y120.400 E0.00662
G1 X88.847 Y120.336 E0.01825
G1 X128.050 Y120.336 E1.22918
M204 S1250
G1 X127.867 Y120.713 F9000.000
M204 S800
;TYPE:External perimeter
G1 F1200.000
G1 X128.238 Y121.528 E0.02805
G1 X128.630 Y123.377 E0.05927
G1 X128.892 Y125.717 E0.07384
G1 X129.026 Y128.375 E0.08342
G1 X129.021 Y131.161 E0.08737
G1 X128.873 Y133.886 E0.08556
G1 X128.569 Y136.361 E0.07820
G1 X128.093 Y138.410 E0.06595
G1 X127.391 Y139.895 E0.05150
G1 X126.439 Y140.472 E0.03492
G1 X117.015 Y140.483 E0.29548
G1 X107.891 Y140.531 E0.28606
G1 X99.462 Y140.606 E0.26431
G1 X91.729 Y140.700 E0.24247
G1 X67.819 Y141.064 E0.74978
G1 X63.610 Y141.105 E0.13198
G1 X60.095 Y141.107 E0.11020
G1 X58.410 Y140.928 E0.05314
G1 X57.101 Y140.431 E0.04388
G1 X56.167 Y139.663 E0.03791
G1 X55.603 Y138.697 E0.03507
G1 X55.374 Y137.627 E0.03429
G1 X55.421 Y136.528 E0.03452
G1 X55.688 Y135.455 E0.03467
G1 X56.131 Y134.458 E0.03420
G1 X56.709 Y133.587 E0.03276
G1 X57.374 Y132.910 E0.02978
G1 X58.517 Y132.033 E0.04516
G1 X58.982 Y131.641 E0.01908
G1 X59.271 Y131.322 E0.01349
G1 X59.360 Y131.180 E0.00526
G1 X59.511 Y130.806 E0.01266
G1 X59.582 Y130.504 E0.00970
G1 X59.600 Y130.232 E0.00855
G1 X59.577 Y129.979 E0.00797
G1 X59.516 Y129.737 E0.00784
G1 X59.422 Y129.501 E0.00796
G1 X59.299 Y129.272 E0.00814
G1 X58.976 Y128.813 E0.01761
G1 X58.617 Y128.383 E0.01756
G1 X58.325 Y128.117 E0.01239
G1 X57.377 Y127.458 E0.03622
G1 X56.791 Y126.999 E0.02331
G1 X56.483 Y126.718 E0.01306
G1 X56.171 Y126.394 E0.01413
G1 X55.798 Y125.905 E0.01928
G1 X55.514 Y125.356 E0.01937
G1 X55.315 Y124.781 E0.01909
G1 X55.193 Y124.195 E0.01875
G1 X55.134 Y123.614 E0.01834
G1 X55.127 Y123.050 E0.01767
G1 X55.166 Y122.519 E0.01670
G1 X55.240 Y122.032 E0.01544
G1 X55.343 Y121.601 E0.01389
G1 X55.469 Y121.239 E0.01202
G1 X55.688 Y120.798 E0.01544
G1 X55.970 Y120.375 E0.01594
G1 X56.323 Y119.981 E0.01657
G1 X56.750 Y119.627 E0.01742
G1 X57.255 Y119.325 E0.01844
G1 X57.838 Y119.084 E0.01978
G1 X58.502 Y118.911 E0.02153
G1 X59.021 Y118.844 E0.01639
G1 X59.499 Y118.837 E0.01500
G1 X60.439 Y118.909 E0.02955
G1 X63.175 Y119.236 E0.08641
G1 X65.985 Y119.535 E0.08860
G1 X68.850 Y119.805 E0.09021
G1 X71.737 Y120.047 E0.09083
G1 X74.613 Y120.257 E0.09044
G1 X77.449 Y120.437 E0.08910
G1 X80.211 Y120.584 E0.08671
G1 X82.869 Y120.696 E0.08342
G1 X85.391 Y120.773 E0.07911
G1 X87.722 Y120.812 E0.07308
G1 X88.075 Y120.774 E0.01113
G1 X88.286 Y120.777 E0.00662
G1 X88.868 Y120.713 E0.01836
G1 X127.807 Y120.713 E1.22093
M204 S1250
G1 X128.251 Y120.601 F9000.000
G1 E-2.24000 F2400.000
;WIPE_START
G1 F7200.000
G1 X128.238 Y121.528 E-0.29165
G1 X128.630 Y123.377 E-0.59865
G1 X128.637 Y123.445 E-0.02169
;WIPE_END
G1 E-0.04800 F2400.000
G1 Z0.400 F9000.000
G1 X117.504 Y79.911
G1 Z0.200
G1 E3.20000 F1500.000
M204 S800
;TYPE:Perimeter
G1 F1200.000
G1 X87.160 Y79.911 E0.95142
G1 X86.717 Y79.061 E0.03003
G1 X89.184 Y75.590 E0.13353
G1 X90.731 Y73.513 E0.08120
G1 X92.254 Y71.568 E0.07747
G1 X93.736 Y69.805 E0.07219
G1 X95.116 Y68.319 E0.06360
G1 X95.538 Y67.788 E0.02126
G1 X95.968 Y67.034 E0.02724
G1 X96.361 Y66.099 E0.03177
G1 X96.649 Y65.077 E0.03331
G1 X96.775 Y64.056 E0.03224
G1 X96.701 Y63.128 E0.02918
G1 X96.410 Y62.360 E0.02578
G1 X95.438 Y61.265 E0.04588
G1 X95.856 Y60.336 E0.03193
G1 X130.588 Y60.336 E1.08899
G1 X130.394 Y61.878 E0.04870
G1 X129.999 Y64.131 E0.07172
G1 X129.767 Y65.000 E0.02821
G1 X129.449 Y65.838 E0.02811
G1 X129.253 Y66.254 E0.01440
G1 X129.036 Y66.659 E0.01442
G1 X128.550 Y67.416 E0.02819
G1 X127.994 Y68.108 E0.02784
G1 X117.544 Y79.866 E0.49323
M204 S1250
G1 X117.335 Y79.533 F9000.000
M204 S800
;TYPE:External perimeter
G1 F1200.000
G1 X87.389 Y79.533 E0.93894
G1 X87.158 Y79.092 E0.01563
G1 X89.489 Y75.812 E0.12616
G1 X91.031 Y73.742 E0.08093
G1 X92.547 Y71.805 E0.07712
G1 X94.018 Y70.055 E0.07169
G1 X95.402 Y68.565 E0.06376
G1 X95.851 Y68.000 E0.02262
G1 X96.307 Y67.201 E0.02886
G1 X96.718 Y66.224 E0.03322
G1 X97.019 Y65.151 E0.03494
G1 X97.153 Y64.065 E0.03434
G1 X97.072 Y63.045 E0.03206
G1 X96.738 Y62.161 E0.02963
G1 X95.882 Y61.197 E0.04041
G1 X96.100 Y60.713 E0.01663
G1 X130.160 Y60.713 E1.06794
G1 X130.021 Y61.821 E0.03501
G1 X129.631 Y64.049 E0.07092
G1 X129.408 Y64.884 E0.02709
G1 X129.102 Y65.691 E0.02704
G1 X128.916 Y66.084 E0.01365
G1 X128.711 Y66.468 E0.01366
G1 X128.244 Y67.195 E0.02709
G1 X127.706 Y67.864 E0.02692
G1 X117.375 Y79.489 E0.48762
M204 S1250
G1 X117.239 Y79.922 F9000.000
G1 E-2.24000 F2400.000
;WIPE_START
G1 F7200.000
G1 X114.495 Y79.493 E-0.91200
;WIPE_END
G1 E-0.04800 F2400.000
G1 Z0.400 F9000.000
G1 X130.659 Y59.911
G1 Z0.200
G1 E3.20000 F1500.000
M204 S800
;TYPE:Perimeter
G1 F1200.000
G1 X49.248 Y59.911 E2.55257
M73 P2 R77
G1 X48.675 Y59.176 E0.02921
G1 X48.298 Y58.166 E0.03381
G1 X48.145 Y57.042 E0.03557
G1 X48.198 Y55.848 E0.03746
G1 X48.464 Y54.634 E0.03896
G1 X48.960 Y53.458 E0.04004
G1 X49.707 Y52.385 E0.04098
G1 X50.725 Y51.498 E0.04234
G1 X52.157 Y50.809 E0.04982
G1 X52.290 Y50.657 E0.00633
G1 X52.410 Y50.391 E0.00916
G1 X52.482 Y50.023 E0.01175
G1 X52.485 Y49.593 E0.01349
G1 X52.409 Y49.141 E0.01437
G1 X52.255 Y48.704 E0.01452
G1 X52.031 Y48.317 E0.01401
G1 X51.748 Y48.005 E0.01322
G1 X51.343 Y47.735 E0.01525
G1 X50.558 Y47.290 E0.02829
G1 X49.840 Y46.753 E0.02811
G1 X49.252 Y46.160 E0.02618
G1 X48.791 Y45.521 E0.02471
G1 X48.455 Y44.845 E0.02367
G1 X48.240 Y44.146 E0.02293
G1 X48.134 Y43.440 E0.02238
G1 X48.126 Y42.735 E0.02208
G1 X48.201 Y42.041 E0.02190
G1 X48.346 Y41.368 E0.02157
G1 X48.586 Y40.546 E0.02685
G1 X48.857 Y39.876 E0.02267
G1 X49.201 Y39.318 E0.02054
G1 X49.662 Y38.887 E0.01980
G1 X50.216 Y38.627 E0.01917
G1 X50.694 Y38.539 E0.01525
G1 X53.009 Y38.623 E0.07263
G1 X79.806 Y39.035 E0.84030
G1 X95.404 Y39.248 E0.48912
G1 X102.895 Y39.315 E0.23489
G1 X109.973 Y39.341 E0.22190
G1 X116.599 Y39.317 E0.20776
G1 X122.738 Y39.234 E0.19252
G1 X128.585 Y39.075 E0.18339
G1 X129.825 Y39.798 E0.04500
G1 X130.562 Y41.498 E0.05810
G1 X130.985 Y43.733 E0.07131
G1 X131.209 Y46.455 E0.08564
M73 P2 R76
G1 X131.273 Y49.522 E0.09619
G1 X131.201 Y52.770 E0.10185
G1 X131.016 Y56.028 E0.10232
G1 X130.664 Y59.851 E0.12038
M204 S1250
G1 X130.315 Y59.533 F9000.000
M204 S800
;TYPE:External perimeter
G1 F1200.000
G1 X49.432 Y59.533 E2.53601
G1 X49.008 Y58.990 E0.02161
G1 X48.666 Y58.073 E0.03068
G1 X48.523 Y57.024 E0.03319
G1 X48.573 Y55.897 E0.03538
G1 X48.825 Y54.749 E0.03685
G1 X49.292 Y53.641 E0.03772
G1 X49.990 Y52.639 E0.03828
G1 X50.933 Y51.817 E0.03923
G1 X52.065 Y51.285 E0.03922
G1 X52.395 Y51.110 E0.01171
G1 X52.611 Y50.863 E0.01027
G1 X52.771 Y50.506 E0.01227
G1 X52.859 Y50.061 E0.01422
G1 X52.862 Y49.562 E0.01564
G1 X52.775 Y49.046 E0.01641
G1 X52.599 Y48.545 E0.01664
G1 X52.338 Y48.093 E0.01639
G1 X51.995 Y47.717 E0.01595
G1 X51.541 Y47.414 E0.01713
G1 X50.765 Y46.974 E0.02796
G1 X50.089 Y46.468 E0.02649
G1 X49.541 Y45.915 E0.02439
G1 X49.115 Y45.325 E0.02281
G1 X48.807 Y44.704 E0.02174
G1 X48.609 Y44.062 E0.02108
G1 X48.511 Y43.409 E0.02068
G1 X48.503 Y42.754 E0.02056
G1 X48.574 Y42.101 E0.02058
G1 X48.712 Y41.461 E0.02053
G1 X48.943 Y40.670 E0.02583
G1 X49.194 Y40.047 E0.02108
G1 X49.495 Y39.559 E0.01796
G1 X49.877 Y39.203 E0.01636
G1 X50.332 Y38.989 E0.01578
G1 X50.722 Y38.917 E0.01243
