; generated by PrusaSlicer 2.3.3+win64 on 2022-06-09 at 14:10:55 UTC


;
;

;
;
; 

; external perimeters extrusion width = 0.45mm
; perimeters extrusion width = 0.45mm
; infill extrusion width = 0.45mm
; solid infill extrusion width = 0.45mm
; top infill extrusion width = 0.40mm
; first layer extrusion width = 0.42mm

M73 P0 R124
M201 X1250 Y1250 Z400 E5000 ; sets maximum accelerations, mm/sec^2
M203 X180 Y180 Z12 E80 ; sets maximum feedrates, mm/sec
M204 P1250 R1250 T1250 ; sets acceleration (P, T) and retract acceleration (R), mm/sec^2
M205 X8.00 Y8.00 Z2.00 E10.00 ; sets the jerk limits, mm/sec
M205 S0 T0 ; sets the minimum extruding and travel feed rate, mm/sec
M107
;TYPE:Custom
G90 ; use absolute coordinates
M83 ; extruder relative mode
M104 S170 ; set extruder temp for bed leveling
M140 S85 ; set bed temp
M109 R170 ; wait for bed leveling temp
M190 S85 ; wait for bed temp
G28 ; home all without mesh bed level
G29 ; mesh bed leveling 
M104 S230 ; set extruder temp
G92 E0.0
G1 Y-2.0 X179 F2400
G1 Z3 F720
M109 S230 ; wait for extruder temp

; intro line
G1 X170 F1000
G1 Z0.2 F720
G1 X110.0 E8.0 F900
G1 X40.0 E10.0 F700
G92 E0.0

M221 S95 ; set flow
G21 ; set units to millimeters
G90 ; use absolute coordinates
M83 ; use relative distances for extrusion
M900 K0.2 ; Filament gcode
;LAYER_CHANGE
;Z:0.2
;HEIGHT:0.2
;BEFORE_LAYER_CHANGE
G92 E0.0
;0.2


G1 E-3.20000 F2400.000
G1 Z0.200 F9000.000
;AFTER_LAYER_CHANGE
;0.2
G1 Z0.400
G1 X46.327 Y34.928
G1 Z0.200
G1 E3.20000 F1500.000
M204 S800
;TYPE:Skirt
;WIDTH:0.42
G1 F1200.000
G1 X48.406 Y34.368 E0.06748
G1 X50.566 Y34.188 E0.06797
G1 X128.173 Y34.221 E2.43332
G1 X130.947 Y34.397 E0.08716
G1 X131.870 Y34.555 E0.02937
G1 X133.340 Y34.951 E0.04770
G1 X134.974 Y35.670 E0.05598
G1 X136.497 Y36.780 E0.05911
G1 X138.092 Y38.633 E0.07664
G1 X138.944 Y39.966 E0.04959
G1 X139.262 Y40.741 E0.02629
G1 X139.654 Y42.138 E0.04548
G1 X139.982 Y44.215 E0.06593
G1 X139.514 Y134.360 E2.82647
G1 X139.448 Y135.913 E0.04873
G1 X138.834 Y138.844 E0.09390
G1 X138.403 Y140.131 E0.04257
G1 X137.885 Y141.257 E0.03888
G1 X137.069 Y142.521 E0.04715
G1 X136.116 Y143.533 E0.04359
G1 X135.125 Y144.265 E0.03865
G1 X133.591 Y145.020 E0.05360
G1 X132.210 Y145.416 E0.04505
G1 X130.751 Y145.639 E0.04627
G1 X127.725 Y145.814 E0.09502
G1 X51.968 Y145.636 E2.37533
G1 X49.765 Y145.487 E0.06921
G1 X47.472 Y145.055 E0.07319
G1 X45.061 Y144.315 E0.07908
G1 X44.127 Y143.890 E0.03215
G1 X43.225 Y143.296 E0.03388
G1 X42.431 Y142.549 E0.03417
G1 X41.859 Y141.805 E0.02942
G1 X41.201 Y140.586 E0.04344
G1 X40.870 Y139.685 E0.03008
G1 X40.312 Y137.595 E0.06784
G1 X40.101 Y136.273 E0.04198
G1 X40.031 Y134.940 E0.04185
G1 X40.118 Y44.308 E2.84170
G1 X40.247 Y42.464 E0.05795
G1 X40.722 Y40.594 E0.06050
G1 X41.094 Y39.706 E0.03021
G1 X41.579 Y38.821 E0.03164
G1 X42.349 Y37.746 E0.04147
G1 X43.447 Y36.623 E0.04923
G1 X44.638 Y35.760 E0.04610
G1 X46.274 Y34.955 E0.05718
M204 S1250
; printing object Glorious Jaiks.stl id:0 copy 0
G1 E-2.24000 F2400.000
;WIPE_START
G1 F7200.000
G1 X48.406 Y34.368 E-0.70018
G1 X49.072 Y34.313 E-0.21182
;WIPE_END
G1 E-0.04800 F2400.000
G1 Z0.400 F9000.000
G1 X52.418 Y101.815
G1 Z0.200
G1 E3.20000 F1500.000
M204 S800
;TYPE:Perimeter
G1 F1200.000
G1 X53.624 Y101.840 E0.03780
G1 X53.906 Y102.751 E0.02988
G1 X54.210 Y103.429 E0.02330
G1 X54.545 Y103.999 E0.02074
G1 X54.899 Y104.469 E0.01844
G1 X55.265 Y104.850 E0.01658
G1 X55.635 Y105.155 E0.01503
G1 X56.001 Y105.392 E0.01369
G1 X56.359 Y105.573 E0.01257
G1 X56.704 Y105.707 E0.01160
G1 X57.591 Y105.966 E0.02896
G1 X58.041 Y106.067 E0.01446
G1 X58.504 Y106.149 E0.01475
G1 X59.495 Y106.262 E0.03126
G1 X60.541 Y106.300 E0.03283
G1 X61.665 Y106.264 E0.03527
G1 X62.839 Y106.161 E0.03694
G1 X64.070 Y105.998 E0.03896
G1 X65.366 Y105.779 E0.04119
G1 X66.731 Y105.511 E0.04361
G1 X68.170 Y105.202 E0.04616
G1 X76.204 Y103.368 E0.25839
G1 X79.514 Y102.680 E0.10598
G1 X80.770 Y102.454 E0.04002
G1 X82.038 Y102.257 E0.04024
G1 X83.318 Y102.090 E0.04048
G1 X84.608 Y101.954 E0.04067
G1 X85.909 Y101.849 E0.04092
G1 X87.217 Y101.774 E0.04109
G1 X88.534 Y101.728 E0.04132
G1 X89.826 Y101.713 E0.04052
G1 X92.033 Y101.753 E0.06920
G1 X94.013 Y101.862 E0.06220
G1 X95.781 Y102.019 E0.05564
G1 X97.321 Y102.205 E0.04862
G1 X98.615 Y102.403 E0.04107
G1 X99.646 Y102.592 E0.03287
G1 X100.400 Y102.753 E0.02415
G1 X108.559 Y104.781 E0.26360
G1 X110.497 Y105.232 E0.06239
G1 X112.363 Y105.631 E0.05985
G1 X114.144 Y105.966 E0.05681
G1 X115.824 Y106.221 E0.05328
G1 X117.388 Y106.384 E0.04932
G1 X118.822 Y106.440 E0.04499
G1 X120.012 Y106.390 E0.03733
G1 X121.087 Y106.242 E0.03402
G1 X122.046 Y106.000 E0.03104
G1 X122.894 Y105.668 E0.02853
G1 X123.632 Y105.250 E0.02659
G1 X124.267 Y104.746 E0.02543
G1 X124.807 Y104.152 E0.02519
G1 X125.534 Y103.038 E0.04172
G1 X126.481 Y103.127 E0.02980
G1 X127.083 Y104.589 E0.04960
G1 X127.568 Y105.565 E0.03416
G1 X128.901 Y108.133 E0.09073
G1 X129.494 Y109.191 E0.03802
G1 X129.845 Y109.771 E0.02126
G1 X130.752 Y111.169 E0.05225
G1 X130.252 Y112.016 E0.03084
G1 X128.859 Y111.897 E0.04383
G1 X127.422 Y111.964 E0.04508
G1 X122.650 Y112.447 E0.15039
G1 X118.641 Y112.908 E0.12654
G1 X113.157 Y113.629 E0.17342
G1 X104.077 Y114.935 E0.28765
G1 X102.384 Y115.131 E0.05342
G1 X100.638 Y115.295 E0.05498
G1 X98.841 Y115.430 E0.05652
G1 X96.992 Y115.535 E0.05806
G1 X95.096 Y115.611 E0.05950
G1 X93.152 Y115.656 E0.06097
G1 X91.164 Y115.670 E0.06233
G1 X89.200 Y115.657 E0.06157
G1 X87.196 Y115.617 E0.06286
G1 X85.150 Y115.549 E0.06420
G1 X83.066 Y115.453 E0.06541
G1 X80.944 Y115.329 E0.06663
G1 X78.785 Y115.177 E0.06788
G1 X76.591 Y114.996 E0.06903
G1 X72.296 Y114.577 E0.13529
G1 X68.744 Y114.160 E0.11214
G1 X65.481 Y113.699 E0.10332
G1 X57.828 Y112.483 E0.24298
G1 X55.675 Y112.189 E0.06813
G1 X54.586 Y112.070 E0.03436
G1 X53.501 Y111.977 E0.03412
G1 X52.437 Y111.918 E0.03343
G1 X51.404 Y111.896 E0.03239
G1 X50.576 Y111.914 E0.02596
G1 X49.800 Y111.965 E0.02438
G1 X49.075 Y112.049 E0.02291
G1 X48.387 Y112.169 E0.02189
G1 X47.809 Y111.379 E0.03068
G1 X48.968 Y109.168 E0.07828
G1 X50.454 Y106.449 E0.09714
G1 X51.834 Y103.454 E0.10342
G1 X52.398 Y101.872 E0.05266
M204 S1250
G1 X52.682 Y102.198 F9000.000
M204 S800
;TYPE:External perimeter
G1 F1200.000
G1 X53.344 Y102.212 E0.02075
G1 X53.552 Y102.884 E0.02207
G1 X53.874 Y103.602 E0.02466
G1 X54.231 Y104.209 E0.02208
G1 X54.612 Y104.714 E0.01983
G1 X55.008 Y105.127 E0.01796
G1 X55.412 Y105.460 E0.01640
G1 X55.813 Y105.720 E0.01501
G1 X56.206 Y105.918 E0.01378
G1 X56.583 Y106.064 E0.01268
G1 X57.496 Y106.331 E0.02984
G1 X57.967 Y106.437 E0.01511
G1 X58.450 Y106.522 E0.01539
G1 X59.467 Y106.638 E0.03208
G1 X60.540 Y106.677 E0.03368
G1 X61.688 Y106.641 E0.03600
G1 X62.880 Y106.536 E0.03753
G1 X64.127 Y106.371 E0.03943
G1 X65.433 Y106.150 E0.04155
G1 X66.806 Y105.880 E0.04387
G1 X68.252 Y105.570 E0.04634
G1 X76.285 Y103.736 E0.25835
G1 X79.586 Y103.050 E0.10570
G1 X80.832 Y102.826 E0.03972
G1 X82.091 Y102.630 E0.03995
G1 X83.362 Y102.465 E0.04019
G1 X84.643 Y102.330 E0.04038
G1 X85.935 Y102.225 E0.04064
G1 X87.234 Y102.150 E0.04081
G1 X88.543 Y102.105 E0.04105
G1 X89.825 Y102.090 E0.04020
G1 X92.019 Y102.130 E0.06881
G1 X93.986 Y102.238 E0.06178
G1 X95.742 Y102.394 E0.05526
G1 X97.270 Y102.579 E0.04825
G1 X98.553 Y102.775 E0.04071
G1 X99.573 Y102.962 E0.03251
G1 X100.315 Y103.121 E0.02378
G1 X108.471 Y105.147 E0.26350
G1 X110.414 Y105.600 E0.06258
G1 X112.289 Y106.001 E0.06010
G1 X114.081 Y106.338 E0.05717
G1 X115.776 Y106.595 E0.05377
G1 X117.361 Y106.760 E0.04997
G1 X118.822 Y106.818 E0.04585
G1 X120.045 Y106.766 E0.03838
G1 X121.159 Y106.613 E0.03524
G1 X122.162 Y106.360 E0.03244
G1 X123.056 Y106.010 E0.03012
G1 X123.843 Y105.564 E0.02835
G1 X124.525 Y105.023 E0.02730
G1 X125.107 Y104.383 E0.02709
G1 X125.726 Y103.434 E0.03553
G1 X126.219 Y103.481 E0.01552
G1 X126.740 Y104.745 E0.04289
G1 X127.232 Y105.736 E0.03468
G1 X128.569 Y108.313 E0.09102
G1 X129.169 Y109.381 E0.03840
G1 X129.526 Y109.971 E0.02164
G1 X130.309 Y111.178 E0.04511
G1 X130.048 Y111.620 E0.01609
G1 X128.866 Y111.519 E0.03718
G1 X127.395 Y111.588 E0.04618
G1 X122.610 Y112.072 E0.15079
G1 X118.595 Y112.534 E0.12671
G1 X113.106 Y113.255 E0.17358
G1 X104.028 Y114.561 E0.28756
G1 X102.345 Y114.756 E0.05313
M73 P0 R123
G1 X100.607 Y114.920 E0.05474
G1 X98.816 Y115.054 E0.05630
G1 X96.974 Y115.159 E0.05785
G1 X95.084 Y115.234 E0.05930
G1 X93.146 Y115.279 E0.06077
G1 X91.164 Y115.293 E0.06215
G1 X89.206 Y115.280 E0.06141
G1 X87.206 Y115.240 E0.06270
G1 X85.165 Y115.173 E0.06404
G1 X83.086 Y115.076 E0.06526
G1 X80.969 Y114.953 E0.06649
G1 X78.814 Y114.801 E0.06773
G1 X76.624 Y114.620 E0.06887
G1 X72.336 Y114.202 E0.13509
G1 X68.792 Y113.786 E0.11189
G1 X65.537 Y113.326 E0.10308
G1 X57.883 Y112.110 E0.24300
G1 X55.721 Y111.815 E0.06842
G1 X54.622 Y111.695 E0.03465
G1 X53.528 Y111.601 E0.03443
G1 X52.451 Y111.541 E0.03381
G1 X51.404 Y111.519 E0.03284
G1 X50.560 Y111.537 E0.02647
G1 X49.766 Y111.589 E0.02494
G1 X49.021 Y111.676 E0.02353
G1 X48.553 Y111.757 E0.01489
G1 X48.252 Y111.346 E0.01597
G1 X49.300 Y109.346 E0.07081
G1 X50.791 Y106.619 E0.09744
G1 X52.184 Y103.596 E0.10436
G1 X52.662 Y102.254 E0.04466
M204 S1250
G1 X52.742 Y101.802 F9000.000
G1 E-2.24000 F2400.000
;WIPE_START
G1 F7200.000
G1 X53.344 Y102.212 E-0.21636
G1 X53.552 Y102.884 E-0.22286
G1 X53.874 Y103.602 E-0.24908
G1 X54.231 Y104.209 E-0.22296
G1 X54.232 Y104.211 E-0.00074
;WIPE_END
G1 E-0.04800 F2400.000
G1 Z0.400 F9000.000
G1 X121.276 Y91.557
G1 Z0.200
G1 E3.20000 F1500.000
M204 S800
;TYPE:Perimeter
G1 F1200.000
G1 X122.629 Y90.620 E0.05163
G1 X123.157 Y90.194 E0.02127
G1 X123.632 Y89.734 E0.02071
G1 X124.417 Y88.725 E0.04010
G1 X125.588 Y89.198 E0.03960
G1 X125.494 Y90.067 E0.02738
G1 X125.389 Y91.763 E0.05329
G1 X125.363 Y93.606 E0.05778
G1 X124.372 Y93.978 E0.03318
G1 X123.595 Y93.175 E0.03505
G1 X123.283 Y92.900 E0.01305
G1 X122.618 Y92.405 E0.02598
G1 X121.326 Y91.589 E0.04791
M204 S1250
G1 X121.959 Y91.543 F9000.000
M204 S800
;TYPE:External perimeter
G1 F1200.000
G1 X122.855 Y90.922 E0.03419
G1 X123.408 Y90.476 E0.02224
G1 X123.913 Y89.986 E0.02207
G1 X124.540 Y89.181 E0.03200
G1 X125.183 Y89.441 E0.02174
G1 X125.119 Y90.035 E0.01872
G1 X125.012 Y91.749 E0.05384
G1 X124.989 Y93.343 E0.05000
G1 X124.471 Y93.538 E0.01736
G1 X123.855 Y92.902 E0.02776
G1 X123.520 Y92.607 E0.01400
G1 X122.832 Y92.094 E0.02692
G1 X122.010 Y91.575 E0.03049
M204 S1250
G1 X121.693 Y91.244 F9000.000
G1 E-2.24000 F2400.000
;WIPE_START
G1 F7200.000
G1 X122.855 Y90.922 E-0.33828
G1 X123.408 Y90.476 E-0.22466
G1 X123.913 Y89.986 E-0.22293
G1 X124.158 Y89.672 E-0.12614
;WIPE_END
G1 E-0.04800 F2400.000
G1 Z0.400 F9000.000
G1 X125.976 Y81.114
G1 Z0.200
G1 E3.20000 F1500.000
M204 S800
;TYPE:Perimeter
G1 F1200.000
G1 X125.502 Y79.656 E0.04807
G1 X125.099 Y78.850 E0.02824
G1 X124.603 Y78.146 E0.02701
G1 X124.020 Y77.546 E0.02624
G1 X123.353 Y77.047 E0.02610
G1 X122.607 Y76.651 E0.02649
G1 X121.782 Y76.362 E0.02739
G1 X120.884 Y76.184 E0.02870
G1 X119.908 Y76.123 E0.03069
G1 X119.128 Y76.160 E0.02447
G1 X117.476 Y76.372 E0.05221
G1 X115.022 Y76.710 E0.07769
G1 X111.910 Y77.184 E0.09867
G1 X107.635 Y77.915 E0.13600
G1 X100.632 Y79.226 E0.22340
G1 X99.352 Y79.419 E0.04057
G1 X98.036 Y79.580 E0.04157
G1 X96.680 Y79.709 E0.04271
G1 X95.286 Y79.808 E0.04383
G1 X93.854 Y79.878 E0.04494
G1 X92.387 Y79.919 E0.04604
G1 X90.882 Y79.932 E0.04718
G1 X89.394 Y79.919 E0.04665
G1 X87.872 Y79.879 E0.04773
G1 X86.317 Y79.810 E0.04881
G1 X84.729 Y79.714 E0.04987
G1 X83.110 Y79.590 E0.05093
G1 X81.461 Y79.437 E0.05191
G1 X79.782 Y79.255 E0.05296
G1 X76.510 Y78.837 E0.10343
G1 X75.096 Y78.634 E0.04479
G1 X72.547 Y78.214 E0.08099
G1 X69.989 Y77.720 E0.08168
G1 X65.374 Y76.768 E0.14777
G1 X63.663 Y76.465 E0.05446
G1 X62.795 Y76.341 E0.02749
G1 X61.926 Y76.244 E0.02742
G1 X61.065 Y76.180 E0.02707
G1 X60.224 Y76.157 E0.02637
G1 X59.497 Y76.178 E0.02283
G1 X58.816 Y76.238 E0.02141
G1 X58.182 Y76.337 E0.02014
G1 X57.593 Y76.474 E0.01897
G1 X57.045 Y76.648 E0.01800
G1 X56.540 Y76.857 E0.01717
G1 X56.072 Y77.103 E0.01656
G1 X55.667 Y77.368 E0.01517
G1 X54.782 Y78.196 E0.03800
G1 X54.124 Y79.216 E0.03806
G1 X53.586 Y80.589 E0.04623
G1 X52.494 Y80.572 E0.03425
G1 X51.408 Y77.516 E0.10167
G1 X50.537 Y75.309 E0.07441
G1 X49.859 Y73.694 E0.05489
G1 X49.019 Y71.881 E0.06265
G1 X48.517 Y70.882 E0.03507
G1 X47.946 Y69.800 E0.03834
G1 X46.855 Y67.845 E0.07022
G1 X47.467 Y67.024 E0.03210
G1 X48.958 Y67.366 E0.04795
G1 X50.002 Y67.510 E0.03306
G1 X51.029 Y67.579 E0.03227
G1 X51.999 Y67.598 E0.03041
G1 X53.818 Y67.540 E0.05707
G1 X55.804 Y67.377 E0.06247
G1 X57.942 Y67.121 E0.06752
G1 X60.212 Y66.787 E0.07194
G1 X62.594 Y66.390 E0.07573
G1 X67.627 Y65.465 E0.16044
G1 X74.436 Y64.154 E0.21740
G1 X76.645 Y63.787 E0.07022
G1 X78.025 Y63.595 E0.04366
G1 X79.751 Y63.390 E0.05452
G1 X81.802 Y63.195 E0.06459
G1 X84.152 Y63.029 E0.07387
G1 X86.775 Y62.913 E0.08231
G1 X89.571 Y62.871 E0.08767
G1 X91.392 Y62.885 E0.05710
G1 X93.132 Y62.931 E0.05458
G1 X94.864 Y63.007 E0.05436
G1 X96.587 Y63.115 E0.05415
G1 X98.299 Y63.254 E0.05385
G1 X99.999 Y63.426 E0.05355
G1 X101.684 Y63.630 E0.05323
G1 X104.826 Y64.094 E0.09959
G1 X107.676 Y64.553 E0.09050
G1 X111.651 Y65.235 E0.12645
G1 X118.084 Y66.381 E0.20488
G1 X119.923 Y66.686 E0.05844
G1 X121.666 Y66.948 E0.05527
G1 X123.320 Y67.162 E0.05227
G1 X124.886 Y67.323 E0.04938
G1 X126.372 Y67.422 E0.04669
G1 X127.788 Y67.457 E0.04443
G1 X128.423 Y67.448 E0.01990
G1 X129.648 Y67.383 E0.03845
G1 X130.213 Y67.326 E0.01780
G1 X132.418 Y66.983 E0.06997
G1 X131.820 Y68.949 E0.06442
G1 X131.528 Y70.021 E0.03484
G1 X129.408 Y74.898 E0.16674
G1 X128.627 Y76.779 E0.06384
G1 X127.995 Y78.466 E0.05649
G1 X127.761 Y79.199 E0.02412
G1 X127.211 Y81.094 E0.06189
G1 X126.036 Y81.113 E0.03684
M204 S1250
G1 X126.248 Y80.733 F9000.000
M204 S800
;TYPE:External perimeter
G1 F1200.000
G1 X125.852 Y79.513 E0.04022
G1 X125.424 Y78.656 E0.03002
G1 X124.894 Y77.905 E0.02884
G1 X124.269 Y77.262 E0.02809
G1 X123.556 Y76.727 E0.02795
G1 X122.758 Y76.305 E0.02830
G1 X121.882 Y75.998 E0.02912
G1 X120.933 Y75.809 E0.03032
G1 X119.910 Y75.745 E0.03213
G1 X119.095 Y75.784 E0.02559
G1 X117.427 Y75.998 E0.05274
G1 X114.968 Y76.337 E0.07783
G1 X111.850 Y76.812 E0.09887
G1 X107.568 Y77.544 E0.13620
G1 X100.569 Y78.854 E0.22328
G1 X99.301 Y79.045 E0.04019
G1 X97.995 Y79.205 E0.04125
G1 X96.649 Y79.334 E0.04241
G1 X95.263 Y79.431 E0.04355
G1 X93.840 Y79.501 E0.04469
G1 X92.380 Y79.542 E0.04580
G1 X90.882 Y79.555 E0.04696
G1 X89.401 Y79.542 E0.04644
G1 X87.886 Y79.502 E0.04753
G1 X86.337 Y79.433 E0.04861
G1 X84.755 Y79.338 E0.04968
G1 X83.141 Y79.215 E0.05074
G1 X81.499 Y79.062 E0.05172
G1 X79.826 Y78.880 E0.05275
G1 X76.561 Y78.463 E0.10323
G1 X75.153 Y78.261 E0.04458
G1 X72.614 Y77.843 E0.08070
G1 X70.063 Y77.350 E0.08144
G1 X65.445 Y76.398 E0.14786
G1 X63.723 Y76.093 E0.05482
G1 X62.843 Y75.967 E0.02787
G1 X61.961 Y75.868 E0.02783
G1 X61.084 Y75.804 E0.02757
G1 X60.224 Y75.780 E0.02698
G1 X59.475 Y75.801 E0.02351
G1 X58.771 Y75.863 E0.02216
G1 X58.110 Y75.967 E0.02097
G1 X57.493 Y76.110 E0.01987
G1 X56.916 Y76.293 E0.01898
G1 X56.379 Y76.516 E0.01821
G1 X55.881 Y76.778 E0.01766
G1 X55.433 Y77.070 E0.01676
G1 X54.490 Y77.953 E0.04050
G1 X53.787 Y79.044 E0.04070
G1 X53.330 Y80.208 E0.03921
G1 X52.761 Y80.199 E0.01784
G1 X51.761 Y77.384 E0.09367
G1 X50.886 Y75.166 E0.07475
G1 X50.204 Y73.542 E0.05524
G1 X49.359 Y71.717 E0.06306
G1 X48.853 Y70.709 E0.03538
G1 X48.278 Y69.621 E0.03859
G1 X47.303 Y67.874 E0.06269
G1 X47.622 Y67.447 E0.01673
G1 X48.890 Y67.737 E0.04077
G1 X49.964 Y67.885 E0.03399
G1 X51.013 Y67.956 E0.03296
G1 X52.001 Y67.975 E0.03100
G1 X53.840 Y67.917 E0.05767
G1 X55.842 Y67.752 E0.06299
G1 X57.992 Y67.495 E0.06789
G1 X60.270 Y67.160 E0.07221
G1 X62.660 Y66.761 E0.07595
G1 X67.697 Y65.835 E0.16059
G1 X74.503 Y64.525 E0.21730
G1 X76.702 Y64.160 E0.06991
G1 X78.073 Y63.969 E0.04339
G1 X79.791 Y63.765 E0.05427
M73 P1 R123
G1 X81.833 Y63.570 E0.06431
G1 X84.174 Y63.406 E0.07356
G1 X86.786 Y63.290 E0.08199
G1 X89.572 Y63.248 E0.08737
