; generated by PrusaSlicer 2.3.3+win64 on 2022-06-08 at 09:41:46 UTC


;
;

;
;
; 

; external perimeters extrusion width = 0.45mm
; perimeters extrusion width = 0.45mm
; infill extrusion width = 0.45mm
; solid infill extrusion width = 0.45mm
; top infill extrusion width = 0.40mm
; first layer extrusion width = 0.42mm

M73 P0 R45
M201 X1250 Y1250 Z400 E5000 ; sets maximum accelerations, mm/sec^2
M203 X180 Y180 Z12 E80 ; sets maximum feedrates, mm/sec
M204 P1250 R1250 T1250 ; sets acceleration (P, T) and retract acceleration (R), mm/sec^2
M205 X8.00 Y8.00 Z2.00 E10.00 ; sets the jerk limits, mm/sec
M205 S0 T0 ; sets the minimum extruding and travel feed rate, mm/sec
M107
;TYPE:Custom
G90 ; use absolute coordinates
M83 ; extruder relative mode
M104 S170 ; set extruder temp for bed leveling
M140 S85 ; set bed temp
M109 R170 ; wait for bed leveling temp
M190 S85 ; wait for bed temp
G28 ; home all without mesh bed level
G29 ; mesh bed leveling 
M104 S230 ; set extruder temp
G92 E0.0
G1 Y-2.0 X179 F2400
G1 Z3 F720
M109 S230 ; wait for extruder temp

; intro line
G1 X170 F1000
G1 Z0.2 F720
G1 X110.0 E8.0 F900
G1 X40.0 E10.0 F700
G92 E0.0

M221 S95 ; set flow
G21 ; set units to millimeters
G90 ; use absolute coordinates
M83 ; use relative distances for extrusion
M900 K0.2 ; Filament gcode
;LAYER_CHANGE
;Z:0.2
;HEIGHT:0.2
;BEFORE_LAYER_CHANGE
G92 E0.0
;0.2


G1 E-3.20000 F2400.000
G1 Z0.200 F9000.000
;AFTER_LAYER_CHANGE
;0.2
G1 Z0.400
G1 X73.374 Y38.634
G1 Z0.200
G1 E3.20000 F1500.000
M204 S800
;TYPE:Skirt
;WIDTH:0.42
G1 F1200.000
G1 X74.554 Y37.179 E0.05873
G1 X75.961 Y36.059 E0.05639
G1 X77.236 Y35.331 E0.04604
G1 X78.057 Y34.975 E0.02806
G1 X78.924 Y34.683 E0.02869
G1 X80.383 Y34.362 E0.04685
G1 X82.163 Y34.227 E0.05597
G1 X97.568 Y34.335 E0.48301
G1 X99.574 Y34.508 E0.06314
G1 X101.423 Y34.994 E0.05993
G1 X102.920 Y35.678 E0.05161
G1 X104.133 Y36.482 E0.04562
G1 X105.137 Y37.381 E0.04227
G1 X105.972 Y38.369 E0.04056
G1 X106.678 Y39.455 E0.04059
G1 X107.241 Y40.612 E0.04035
G1 X107.649 Y41.745 E0.03777
G1 X108.105 Y43.794 E0.06580
G1 X108.236 Y44.947 E0.03638
G1 X108.301 Y46.875 E0.06051
G1 X107.992 Y136.919 E2.82326
G1 X107.685 Y138.937 E0.06400
G1 X107.348 Y140.058 E0.03671
G1 X106.950 Y140.985 E0.03163
G1 X106.505 Y141.779 E0.02853
G1 X105.825 Y142.728 E0.03661
G1 X104.771 Y143.795 E0.04701
G1 X103.545 Y144.651 E0.04690
G1 X102.185 Y145.273 E0.04688
G1 X100.723 Y145.649 E0.04732
G1 X99.203 Y145.773 E0.04781
G1 X81.072 Y145.667 E0.56850
G1 X79.444 Y145.548 E0.05120
G1 X78.547 Y145.377 E0.02864
G1 X77.597 Y145.101 E0.03101
G1 X76.163 Y144.469 E0.04914
G1 X75.361 Y143.971 E0.02961
G1 X74.204 Y143.008 E0.04719
G1 X73.585 Y142.321 E0.02898
G1 X72.983 Y141.450 E0.03322
G1 X72.550 Y140.493 E0.03293
G1 X72.271 Y139.294 E0.03861
G1 X72.151 Y137.689 E0.05045
G1 X71.699 Y47.209 E2.83697
M73 P1 R45
G1 X71.748 Y44.612 E0.08142
G1 X72.001 Y42.421 E0.06918
G1 X72.533 Y40.381 E0.06609
G1 X73.348 Y38.688 E0.05891
M204 S1250
; printing object kummatista_grammata_I.stl id:0 copy 0
G1 E-2.24000 F2400.000
;WIPE_START
G1 F7200.000
G1 X74.554 Y37.179 E-0.61167
G1 X75.296 Y36.589 E-0.30033
;WIPE_END
G1 E-0.04800 F2400.000
G1 Z0.400 F9000.000
G1 X80.936 Y80.354
G1 Z0.200
G1 E3.20000 F1500.000
M204 S800
;TYPE:Perimeter
G1 F1200.000
G1 X99.792 Y80.354 E0.59120
G1 X99.391 Y87.892 E0.23669
G1 X99.277 Y98.188 E0.32283
G1 X99.379 Y100.928 E0.08598
G1 X81.399 Y100.928 E0.56375
G1 X81.462 Y98.971 E0.06141
G1 X81.478 Y97.252 E0.05387
G1 X81.423 Y93.522 E0.11696
G1 X80.939 Y80.414 E0.41129
M204 S1250
G1 X81.328 Y80.731 F9000.000
M204 S800
;TYPE:External perimeter
G1 F1200.000
G1 X99.394 Y80.731 E0.56646
G1 X99.014 Y87.880 E0.22447
G1 X98.900 Y98.193 E0.32336
G1 X98.987 Y100.551 E0.07399
G1 X81.788 Y100.551 E0.53927
G1 X81.839 Y98.978 E0.04933
G1 X81.855 Y97.251 E0.05415
G1 X81.800 Y93.513 E0.11724
G1 X81.330 Y80.791 E0.39915
M204 S1250
G1 X81.323 Y80.331 F9000.000
G1 E-2.24000 F2400.000
;WIPE_START
G1 F7200.000
G1 X84.210 Y80.781 E-0.91200
;WIPE_END
G1 E-0.04800 F2400.000
G1 Z0.400 F9000.000
G1 X78.441 Y60.354
G1 Z0.200
G1 E3.20000 F1500.000
M204 S800
;TYPE:Perimeter
G1 F1200.000
G1 X101.770 Y60.354 E0.73145
G1 X101.485 Y62.557 E0.06966
G1 X100.638 Y69.973 E0.23403
G1 X99.893 Y78.452 E0.26688
G1 X99.814 Y79.928 E0.04634
G1 X80.933 Y79.928 E0.59202
G1 X80.679 Y76.405 E0.11076
G1 X80.194 Y72.395 E0.12664
G1 X78.450 Y60.413 E0.37963
M204 S1250
G1 X78.877 Y60.731 F9000.000
M204 S800
;TYPE:External perimeter
G1 F1200.000
G1 X101.341 Y60.731 E0.70433
G1 X101.111 Y62.512 E0.05630
G1 X100.262 Y69.935 E0.23428
G1 X99.517 Y78.426 E0.26724
G1 X99.457 Y79.551 E0.03533
G1 X81.284 Y79.551 E0.56981
G1 X81.054 Y76.368 E0.10005
G1 X80.568 Y72.345 E0.12707
G1 X78.886 Y60.790 E0.36610
M204 S1250
G1 X78.859 Y60.331 F9000.000
G1 E-2.24000 F2400.000
;WIPE_START
G1 F7200.000
G1 X81.766 Y60.783 E-0.91200
;WIPE_END
G1 E-0.04800 F2400.000
G1 Z0.400 F9000.000
G1 X101.826 Y59.928
G1 Z0.200
G1 E3.20000 F1500.000
M204 S800
;TYPE:Perimeter
G1 F1200.000
G1 X78.382 Y59.928 E0.73509
G1 X78.138 Y58.234 E0.05366
G1 X77.553 Y53.572 E0.14734
M73 P1 R44
G1 X77.167 Y49.311 E0.13415
G1 X77.074 Y45.659 E0.11453
G1 X77.384 Y42.776 E0.09092
G1 X78.284 Y40.896 E0.06533
G1 X79.106 Y40.251 E0.03278
G1 X79.916 Y39.816 E0.02883
G1 X80.774 Y39.518 E0.02849
G1 X81.660 Y39.349 E0.02828
G1 X82.376 Y39.312 E0.02247
G1 X83.151 Y39.378 E0.02440
G1 X84.003 Y39.568 E0.02737
G1 X84.808 Y39.877 E0.02703
G1 X85.546 Y40.305 E0.02674
G1 X86.188 Y40.855 E0.02651
G1 X86.795 Y41.629 E0.03084
G1 X87.322 Y42.516 E0.03236
G1 X87.794 Y43.473 E0.03346
G1 X89.009 Y46.272 E0.09568
G1 X89.367 Y47.004 E0.02554
G1 X89.686 Y47.523 E0.01910
G1 X89.876 Y47.724 E0.00867
G1 X90.007 Y47.680 E0.00434
G1 X90.143 Y47.729 E0.00454
G1 X90.328 Y47.667 E0.00611
G1 X90.605 Y47.316 E0.01402
G1 X90.932 Y46.536 E0.02651
G1 X91.669 Y44.215 E0.07635
G1 X92.208 Y42.909 E0.04429
G1 X92.983 Y41.648 E0.04640
G1 X94.091 Y40.557 E0.04877
G1 X95.597 Y39.791 E0.05298
G1 X97.423 Y39.495 E0.05800
G1 X98.753 Y39.580 E0.04179
G1 X100.037 Y39.954 E0.04191
G1 X101.086 Y40.581 E0.03833
G1 X101.892 Y41.410 E0.03625
G1 X102.470 Y42.374 E0.03526
G1 X102.856 Y43.418 E0.03489
G1 X103.090 Y44.500 E0.03472
G1 X103.210 Y45.590 E0.03437
G1 X103.248 Y46.657 E0.03348
G1 X103.232 Y47.686 E0.03227
G1 X102.924 Y51.316 E0.11421
G1 X101.834 Y59.869 E0.27033
M204 S1250
G1 X101.494 Y59.551 F9000.000
M204 S800
;TYPE:External perimeter
G1 F1200.000
G1 X78.708 Y59.551 E0.71443
G1 X78.512 Y58.184 E0.04331
G1 X77.928 Y53.531 E0.14703
M73 P2 R44
G1 X77.544 Y49.289 E0.13356
G1 X77.452 Y45.674 E0.11337
G1 X77.752 Y42.880 E0.08811
G1 X78.586 Y41.139 E0.06054
G1 X79.313 Y40.568 E0.02899
G1 X80.068 Y40.162 E0.02686
G1 X80.872 Y39.883 E0.02669
G1 X81.705 Y39.724 E0.02660
G1 X82.369 Y39.690 E0.02085
G1 X83.094 Y39.752 E0.02279
G1 X83.894 Y39.930 E0.02571
G1 X84.645 Y40.218 E0.02521
G1 X85.327 Y40.614 E0.02472
G1 X85.915 Y41.117 E0.02426
G1 X86.484 Y41.842 E0.02889
G1 X86.990 Y42.696 E0.03114
G1 X87.452 Y43.632 E0.03271
G1 X88.667 Y46.430 E0.09565
G1 X89.036 Y47.186 E0.02638
G1 X89.385 Y47.754 E0.02090
G1 X89.679 Y48.064 E0.01340
G1 X89.856 Y48.129 E0.00590
G1 X90.003 Y48.079 E0.00486
G1 X90.139 Y48.129 E0.00454
G1 X90.555 Y47.988 E0.01378
G1 X90.933 Y47.509 E0.01913
G1 X91.286 Y46.666 E0.02866
G1 X92.023 Y44.344 E0.07638
G1 X92.545 Y43.081 E0.04285
G1 X93.280 Y41.885 E0.04403
G1 X94.314 Y40.866 E0.04550
G1 X95.716 Y40.154 E0.04931
G1 X97.442 Y39.874 E0.05482
G1 X98.688 Y39.954 E0.03915
G1 X99.885 Y40.302 E0.03909
G1 X100.850 Y40.880 E0.03527
G1 X101.592 Y41.641 E0.03333
G1 X102.129 Y42.538 E0.03278
G1 X102.493 Y43.524 E0.03295
G1 X102.718 Y44.561 E0.03327
G1 X102.834 Y45.617 E0.03332
G1 X102.871 Y46.661 E0.03274
G1 X102.855 Y47.667 E0.03156
G1 X102.549 Y51.276 E0.11355
G1 X101.502 Y59.491 E0.25967
M204 S1250
G1 X101.479 Y59.951 F9000.000
G1 E-2.24000 F2400.000
;WIPE_START
G1 F7200.000
G1 X98.622 Y59.499 E-0.91200
;WIPE_END
G1 E-0.04800 F2400.000
G1 Z0.400 F9000.000
G1 X99.394 Y101.354
G1 Z0.200
G1 E3.20000 F1500.000
M204 S800
;TYPE:Perimeter
G1 F1200.000
G1 X99.687 Y109.234 E0.24725
G1 X100.675 Y119.928 E0.33673
G1 X79.195 Y119.928 E0.67349
G1 X80.811 Y106.663 E0.41900
G1 X81.209 Y103.039 E0.11431
G1 X81.347 Y101.354 E0.05301
G1 X99.334 Y101.354 E0.56398
M204 S1250
G1 X99.031 Y101.731 F9000.000
M204 S800
;TYPE:External perimeter
G1 F1200.000
G1 X99.311 Y109.259 E0.23618
G1 X100.261 Y119.551 E0.32409
G1 X79.621 Y119.551 E0.64717
G1 X81.185 Y106.706 E0.40572
G1 X81.584 Y103.075 E0.11454
G1 X81.694 Y101.731 E0.04228
G1 X98.971 Y101.731 E0.54170
M204 S1250
G1 X99.431 Y101.711 F9000.000
G1 E-2.24000 F2400.000
;WIPE_START
G1 F7200.000
G1 X99.101 Y104.608 E-0.91200
;WIPE_END
G1 E-0.04800 F2400.000
G1 Z0.400 F9000.000
G1 X79.140 Y120.354
G1 Z0.200
G1 E3.20000 F1500.000
M204 S800
;TYPE:Perimeter
G1 F1200.000
G1 X100.679 Y120.354 E0.67532
G1 X102.661 Y133.194 E0.40735
G1 X102.917 Y135.105 E0.06046
G1 X102.919 Y136.736 E0.05113
G1 X102.675 Y138.090 E0.04315
G1 X102.184 Y139.186 E0.03765
G1 X101.453 Y140.002 E0.03434
G1 X100.542 Y140.507 E0.03268
G1 X99.585 Y140.703 E0.03061
G1 X98.797 Y140.674 E0.02474
G1 X97.768 Y140.442 E0.03304
G1 X96.757 Y140.056 E0.03395
G1 X95.977 Y139.641 E0.02768
G1 X95.305 Y139.176 E0.02564
G1 X93.720 Y137.832 E0.06515
G1 X93.231 Y137.475 E0.01900
G1 X92.708 Y137.182 E0.01879
G1 X92.111 Y136.960 E0.01998
G1 X91.393 Y136.817 E0.02294
G1 X90.231 Y136.776 E0.03645
G1 X89.571 Y136.848 E0.02082
G1 X88.933 Y137.034 E0.02085
G1 X88.285 Y137.323 E0.02223
G1 X87.624 Y137.697 E0.02383
G1 X85.535 Y139.090 E0.07873
G1 X84.781 Y139.556 E0.02778
G1 X83.985 Y139.972 E0.02816
G1 X83.146 Y140.299 E0.02824
G1 X82.700 Y140.418 E0.01445
G1 X82.206 Y140.512 E0.01578
G1 X81.662 Y140.574 E0.01717
G1 X81.236 Y140.591 E0.01337
G1 X80.756 Y140.568 E0.01504
G1 X80.136 Y140.477 E0.01967
G1 X79.514 Y140.307 E0.02020
G1 X78.908 Y140.043 E0.02074
G1 X78.339 Y139.666 E0.02139
G1 X77.712 Y139.037 E0.02787
G1 X77.497 Y137.476 E0.04941
G1 X77.612 Y134.719 E0.08649
G1 X77.944 Y130.913 E0.11981
G1 X78.436 Y126.331 E0.14448
G1 X79.133 Y120.414 E0.18682
M204 S1250
G1 X79.476 Y120.731 F9000.000
M204 S800
;TYPE:External perimeter
G1 F1200.000
G1 X100.355 Y120.731 E0.65467
G1 X102.287 Y133.248 E0.39709
G1 X102.539 Y135.130 E0.05956
G1 X102.542 Y136.702 E0.04929
G1 X102.312 Y137.978 E0.04064
G1 X101.864 Y138.978 E0.03436
G1 X101.215 Y139.703 E0.03051
G1 X100.409 Y140.149 E0.02887
G1 X99.554 Y140.325 E0.02738
G1 X98.845 Y140.298 E0.02223
G1 X97.878 Y140.081 E0.03110
G1 X96.913 Y139.712 E0.03237
G1 X96.174 Y139.319 E0.02626
G1 X95.535 Y138.877 E0.02437
G1 X93.954 Y137.535 E0.06500
G1 X93.435 Y137.157 E0.02014
G1 X92.867 Y136.839 E0.02041
G1 X92.214 Y136.596 E0.02184
G1 X91.437 Y136.441 E0.02485
G1 X90.218 Y136.398 E0.03826
G1 X89.498 Y136.477 E0.02271
G1 X88.803 Y136.679 E0.02269
G1 X88.115 Y136.985 E0.02360
G1 X87.429 Y137.374 E0.02474
G1 X86.739 Y137.819 E0.02574
G1 X85.330 Y138.773 E0.05336
G1 X84.594 Y139.228 E0.02711
G1 X83.829 Y139.628 E0.02709
G1 X83.028 Y139.940 E0.02694
G1 X82.617 Y140.050 E0.01336
G1 X82.149 Y140.139 E0.01492
G1 X81.633 Y140.198 E0.01629
G1 X81.237 Y140.213 E0.01242
G1 X80.793 Y140.193 E0.01395
G1 X80.213 Y140.107 E0.01837
G1 X79.640 Y139.951 E0.01863
G1 X79.089 Y139.711 E0.01885
G1 X78.579 Y139.373 E0.01916
G1 X78.068 Y138.860 E0.02271
G1 X77.875 Y137.458 E0.04439
G1 X77.988 Y134.744 E0.08517
G1 X78.319 Y130.949 E0.11942
G1 X78.811 Y126.373 E0.14431
G1 X79.469 Y120.791 E0.17625
M204 S1250
G1 X79.491 Y120.331 F9000.000
G1 E-2.24000 F2400.000
;WIPE_START
G1 F7200.000
G1 X82.349 Y120.782 E-0.91200
;WIPE_END
G1 E-0.04800 F2400.000
G1 Z0.400 F9000.000
G1 X89.285 Y42.007
G1 Z0.200
G1 E3.20000 F1500.000
M204 S800
;TYPE:Perimeter
G1 F1200.000
G1 X90.192 Y42.020 E0.02844
G1 X90.797 Y40.986 E0.03757
G1 X91.211 Y40.389 E0.02275
G1 X91.681 Y39.823 E0.02308
G1 X92.215 Y39.297 E0.02349
G1 X92.817 Y38.819 E0.02412
G1 X93.497 Y38.400 E0.02503
G1 X94.262 Y38.047 E0.02641
G1 X95.122 Y37.771 E0.02834
G1 X96.091 Y37.583 E0.03093
G1 X97.175 Y37.498 E0.03412
G1 X98.293 Y37.532 E0.03507
G1 X99.038 Y37.627 E0.02354
G1 X99.719 Y37.775 E0.02184
G1 X100.336 Y37.967 E0.02025
G1 X100.891 Y38.193 E0.01881
G1 X101.390 Y38.448 E0.01758
G1 X101.836 Y38.723 E0.01641
G1 X102.229 Y39.009 E0.01525
G1 X102.572 Y39.299 E0.01408
G1 X102.857 Y39.576 E0.01246
G1 X103.445 Y40.276 E0.02867
G1 X103.922 Y41.014 E0.02755
G1 X104.305 Y41.792 E0.02719
G1 X104.603 Y42.605 E0.02716
G1 X104.826 Y43.444 E0.02721
G1 X104.981 Y44.300 E0.02728
G1 X105.079 Y45.162 E0.02721
G1 X105.127 Y46.021 E0.02698
G1 X105.136 Y46.864 E0.02643
G1 X105.086 Y48.348 E0.04654
G1 X104.974 Y49.836 E0.04681
G1 X104.682 Y52.542 E0.08534
G1 X103.465 Y61.964 E0.29787
G1 X102.797 Y67.589 E0.17761
G1 X102.162 Y73.896 E0.19873
G1 X101.632 Y80.829 E0.21804
G1 X101.275 Y88.340 E0.23575
G1 X101.161 Y96.376 E0.25198
G1 X101.360 Y104.885 E0.26687
G1 X101.941 Y113.817 E0.28066
G1 X102.974 Y123.121 E0.29352
G1 X104.709 Y133.837 E0.34037
M73 P3 R44
G1 X104.819 Y134.858 E0.03220
G1 X104.861 Y135.810 E0.02986
G1 X104.836 Y136.693 E0.02771
G1 X104.745 Y137.510 E0.02578
G1 X104.593 Y138.264 E0.02411
G1 X104.380 Y138.956 E0.02268
G1 X104.108 Y139.590 E0.02164
G1 X103.778 Y140.173 E0.02102
G1 X103.385 Y140.711 E0.02090
G1 X103.073 Y141.059 E0.01466
G1 X102.731 Y141.376 E0.01462
G1 X102.364 Y141.657 E0.01449
G1 X101.974 Y141.904 E0.01446
G1 X101.562 Y142.114 E0.01449
G1 X101.129 Y142.289 E0.01464
G1 X100.675 Y142.427 E0.01488
G1 X100.203 Y142.527 E0.01513
G1 X99.710 Y142.587 E0.01557
G1 X99.201 Y142.608 E0.01599
G1 X98.522 Y142.574 E0.02130
G1 X98.193 Y142.533 E0.01041
G1 X97.487 Y142.396 E0.02255
G1 X96.768 Y142.191 E0.02344
G1 X96.050 Y141.924 E0.02402
G1 X95.288 Y141.582 E0.02619
G1 X94.946 Y141.405 E0.01207
G1 X94.308 Y141.016 E0.02342
G1 X93.488 Y140.401 E0.03216
G1 X92.122 Y139.222 E0.05657
G1 X91.679 Y138.927 E0.01667
G1 X91.194 Y138.741 E0.01630
G1 X90.897 Y138.686 E0.00948
G1 X90.363 Y138.657 E0.01676
G1 X90.167 Y138.657 E0.00616
G1 X89.890 Y138.708 E0.00880
G1 X89.616 Y138.799 E0.00908
G1 X89.107 Y139.039 E0.01762
G1 X88.303 Y139.519 E0.02938
G1 X86.818 Y140.531 E0.05635
G1 X85.731 Y141.214 E0.04026
G1 X84.966 Y141.620 E0.02713
G1 X84.150 Y141.969 E0.02785
G1 X83.476 Y142.190 E0.02223
G1 X82.977 Y142.312 E0.01611
G1 X82.454 Y142.405 E0.01664
G1 X81.923 Y142.467 E0.01676
G1 X81.102 Y142.502 E0.02577
G1 X80.454 Y142.478 E0.02034
G1 X79.837 Y142.408 E0.01948
G1 X79.249 Y142.291 E0.01877
G1 X78.692 Y142.133 E0.01815
G1 X78.170 Y141.933 E0.01753
G1 X77.681 Y141.692 E0.01709
G1 X77.225 Y141.414 E0.01675
G1 X76.804 Y141.098 E0.01650
G1 X76.417 Y140.745 E0.01641
G1 X76.069 Y140.359 E0.01632
G1 X75.772 Y139.951 E0.01582
G1 X75.556 Y139.491 E0.01593
G1 X75.396 Y138.786 E0.02265
G1 X75.316 Y137.656 E0.03554
G1 X75.344 Y135.966 E0.05299
G1 X75.497 Y133.596 E0.07445
G1 X75.790 Y130.419 E0.10005
G1 X76.232 Y126.302 E0.12985
G1 X76.836 Y121.109 E0.16390
G1 X78.478 Y107.647 E0.42523
G1 X78.960 Y103.357 E0.13536
G1 X79.156 Y101.265 E0.06587
G1 X79.207 Y100.498 E0.02410
G1 X79.274 Y98.195 E0.07226
G1 X79.280 Y96.978 E0.03813
G1 X79.246 Y94.419 E0.08026
G1 X79.115 Y90.186 E0.13279
G1 X78.812 Y82.788 E0.23214
G1 X78.713 Y79.722 E0.09618
G1 X78.669 Y78.695 E0.03224
G1 X78.586 Y77.551 E0.03595
G1 X78.465 Y76.311 E0.03908
G1 X78.138 Y73.586 E0.08605
G1 X77.723 Y70.584 E0.09500
G1 X76.308 Y60.986 E0.30421
G1 X75.730 Y56.786 E0.13291
G1 X75.288 Y53.106 E0.11622
G1 X74.996 Y49.915 E0.10047
G1 X74.864 Y47.184 E0.08572
G1 X74.901 Y44.887 E0.07203
G1 X75.114 Y42.998 E0.05960
G1 X75.500 Y41.491 E0.04878
G1 X76.054 Y40.326 E0.04047
G1 X76.799 Y39.413 E0.03692
G1 X77.205 Y39.063 E0.01681
G1 X77.667 Y38.724 E0.01796
G1 X78.155 Y38.421 E0.01802
G1 X78.666 Y38.154 E0.01809
G1 X79.201 Y37.926 E0.01820
G1 X79.755 Y37.737 E0.01839
G1 X80.331 Y37.588 E0.01863
G1 X80.925 Y37.479 E0.01893
G1 X81.535 Y37.414 E0.01923
G1 X82.159 Y37.392 E0.01958
G1 X82.785 Y37.415 E0.01964
G1 X83.418 Y37.487 E0.01998
G1 X84.028 Y37.602 E0.01946
G1 X84.619 Y37.760 E0.01918
G1 X85.189 Y37.959 E0.01893
