; generated by PrusaSlicer 2.3.3+win64 on 2022-06-16 at 06:07:02 UTC


;
;

;
;
; 

; external perimeters extrusion width = 0.45mm
; perimeters extrusion width = 0.45mm
; infill extrusion width = 0.45mm
; solid infill extrusion width = 0.45mm
; top infill extrusion width = 0.40mm
; first layer extrusion width = 0.42mm

M73 P0 R82
M201 X1250 Y1250 Z400 E5000 ; sets maximum accelerations, mm/sec^2
M203 X180 Y180 Z12 E80 ; sets maximum feedrates, mm/sec
M204 P1250 R1250 T1250 ; sets acceleration (P, T) and retract acceleration (R), mm/sec^2
M205 X8.00 Y8.00 Z2.00 E10.00 ; sets the jerk limits, mm/sec
M205 S0 T0 ; sets the minimum extruding and travel feed rate, mm/sec
M107
;TYPE:Custom
G90 ; use absolute coordinates
M83 ; extruder relative mode
M104 S170 ; set extruder temp for bed leveling
M140 S85 ; set bed temp
M109 R170 ; wait for bed leveling temp
M190 S85 ; wait for bed temp
G28 ; home all without mesh bed level
G29 ; mesh bed leveling 
M104 S230 ; set extruder temp
G92 E0.0
G1 Y-2.0 X179 F2400
G1 Z3 F720
M109 S230 ; wait for extruder temp

; intro line
G1 X170 F1000
G1 Z0.2 F720
G1 X110.0 E8.0 F900
G1 X40.0 E10.0 F700
G92 E0.0

M221 S95 ; set flow
G21 ; set units to millimeters
G90 ; use absolute coordinates
M83 ; use relative distances for extrusion
M900 K0.2 ; Filament gcode
;LAYER_CHANGE
;Z:0.2
;HEIGHT:0.2
;BEFORE_LAYER_CHANGE
G92 E0.0
;0.2


G1 E-3.20000 F2400.000
G1 Z0.200 F9000.000
;AFTER_LAYER_CHANGE
;0.2
G1 Z0.400
G1 X45.366 Y38.659
G1 Z0.200
G1 E3.20000 F1500.000
M204 S800
;TYPE:Skirt
;WIDTH:0.42
G1 F1200.000
G1 X46.792 Y37.168 E0.06469
G1 X48.524 Y35.898 E0.06735
G1 X50.553 Y34.907 E0.07078
G1 X52.741 Y34.297 E0.07124
G1 X55.572 Y34.086 E0.08899
G1 X125.468 Y34.262 E2.19154
G1 X126.737 Y34.468 E0.04032
G1 X127.621 Y34.740 E0.02901
G1 X128.522 Y35.151 E0.03105
G1 X129.440 Y35.752 E0.03439
G1 X130.224 Y36.460 E0.03311
G1 X134.532 Y41.174 E0.20024
G1 X135.424 Y42.345 E0.04614
G1 X135.999 Y43.363 E0.03667
G1 X136.281 Y44.032 E0.02276
G1 X136.688 Y45.512 E0.04813
G1 X136.897 Y47.316 E0.05696
G1 X136.849 Y48.785 E0.04607
G1 X126.615 Y135.434 E2.73570
G1 X126.443 Y136.592 E0.03670
G1 X126.075 Y137.707 E0.03683
G1 X125.377 Y139.007 E0.04626
G1 X124.332 Y140.242 E0.05074
G1 X123.109 Y141.183 E0.04837
G1 X116.297 Y145.047 E0.24555
G1 X115.253 Y145.474 E0.03535
G1 X114.119 Y145.745 E0.03656
G1 X112.577 Y145.878 E0.04853
G1 X63.111 Y145.872 E1.55099
G1 X62.114 Y145.721 E0.03161
G1 X61.217 Y145.476 E0.02913
G1 X60.350 Y145.134 E0.02924
G1 X59.542 Y144.702 E0.02872
G1 X58.776 Y144.168 E0.02928
G1 X58.090 Y143.555 E0.02884
G1 X57.473 Y142.853 E0.02929
G1 X56.979 Y142.144 E0.02710
G1 X56.491 Y141.207 E0.03312
G1 X55.993 Y139.639 E0.05159
G1 X53.447 Y124.564 E0.47937
G1 X44.328 Y60.303 E2.03506
G1 X43.105 Y45.144 E0.47684
G1 X43.117 Y43.977 E0.03657
G1 X43.444 Y42.303 E0.05349
G1 X44.193 Y40.453 E0.06260
G1 X45.333 Y38.709 E0.06531
M204 S1250
; printing object Daring Blad.stl id:0 copy 0
G1 E-2.24000 F2400.000
;WIPE_START
G1 F7200.000
G1 X46.792 Y37.168 E-0.67205
G1 X47.403 Y36.720 E-0.23995
;WIPE_END
G1 E-0.04800 F2400.000
G1 Z0.400 F9000.000
G1 X99.938 Y80.248
G1 Z0.200
G1 E3.20000 F1500.000
M204 S800
;TYPE:Perimeter
G1 F1200.000
G1 X122.523 Y80.248 E0.70812
M73 P0 R81
G1 X121.753 Y85.043 E0.15227
G1 X121.139 Y89.781 E0.14980
G1 X120.773 Y94.065 E0.13480
G1 X120.368 Y99.822 E0.18096
G1 X76.304 Y99.822 E1.38160
G1 X75.892 Y98.887 E0.03205
G1 X77.065 Y97.576 E0.05517
G1 X77.243 Y97.315 E0.00989
G1 X77.403 Y96.983 E0.01154
G1 X77.536 Y96.583 E0.01324
G1 X77.624 Y96.143 E0.01406
G1 X77.657 Y95.686 E0.01436
G1 X77.626 Y95.238 E0.01409
G1 X77.526 Y94.818 E0.01353
G1 X77.345 Y94.413 E0.01392
G1 X76.897 Y93.703 E0.02632
G1 X76.410 Y93.076 E0.02488
G1 X75.887 Y92.477 E0.02495
G1 X74.855 Y91.375 E0.04732
G1 X74.405 Y90.867 E0.02127
G1 X74.037 Y90.368 E0.01946
G1 X73.823 Y89.895 E0.01628
G1 X73.741 Y89.392 E0.01598
G1 X73.726 Y88.901 E0.01538
G1 X73.761 Y88.398 E0.01583
G1 X73.842 Y87.889 E0.01617
G1 X73.968 Y87.386 E0.01624
G1 X74.140 Y86.902 E0.01612
G1 X74.366 Y86.443 E0.01603
G1 X74.679 Y86.010 E0.01675
G1 X75.095 Y85.682 E0.01661
G1 X75.624 Y85.446 E0.01817
G1 X76.262 Y85.290 E0.02059
G1 X77.037 Y85.201 E0.02445
G1 X77.981 Y85.176 E0.02962
G1 X79.126 Y85.218 E0.03593
G1 X80.502 Y85.335 E0.04330
G1 X83.615 Y85.726 E0.09836
G1 X87.330 Y86.130 E0.11719
G1 X89.360 Y86.314 E0.06388
G1 X91.375 Y86.468 E0.06338
G1 X93.275 Y86.579 E0.05966
G1 X94.957 Y86.633 E0.05278
G1 X96.311 Y86.620 E0.04245
G1 X96.887 Y86.568 E0.01814
G1 X97.565 Y86.452 E0.02157
G1 X98.279 Y86.266 E0.02313
G1 X98.966 Y86.006 E0.02302
G1 X99.560 Y85.680 E0.02126
G1 X100.004 Y85.305 E0.01824
G1 X100.275 Y84.899 E0.01528
G1 X100.396 Y84.389 E0.01644
G1 X100.390 Y83.720 E0.02099
G1 X100.313 Y82.932 E0.02483
G1 X99.947 Y80.307 E0.08308
M204 S1250
G1 X100.372 Y80.625 F9000.000
M204 S800
;TYPE:External perimeter
G1 F1200.000
G1 X122.080 Y80.625 E0.68066
G1 X121.380 Y84.989 E0.13858
G1 X120.764 Y89.741 E0.15024
G1 X120.397 Y94.036 E0.13515
G1 X120.017 Y99.445 E0.17003
G1 X76.550 Y99.445 E1.36287
G1 X76.335 Y98.957 E0.01672
G1 X77.363 Y97.809 E0.04832
G1 X77.571 Y97.504 E0.01156
G1 X77.753 Y97.125 E0.01319
G1 X77.901 Y96.680 E0.01472
G1 X77.999 Y96.194 E0.01554
G1 X78.035 Y95.686 E0.01594
G1 X78.000 Y95.181 E0.01589
G1 X77.885 Y94.696 E0.01562
G1 X77.678 Y94.234 E0.01588
G1 X77.206 Y93.486 E0.02773
G1 X76.701 Y92.837 E0.02579
G1 X76.167 Y92.224 E0.02550
G1 X75.134 Y91.121 E0.04736
G1 X74.699 Y90.630 E0.02058
G1 X74.364 Y90.176 E0.01768
G1 X74.187 Y89.785 E0.01347
G1 X74.117 Y89.355 E0.01364
G1 X74.104 Y88.909 E0.01401
G1 X74.136 Y88.441 E0.01472
G1 X74.212 Y87.964 E0.01513
G1 X74.329 Y87.495 E0.01515
G1 X74.488 Y87.049 E0.01486
G1 X74.691 Y86.639 E0.01435
G1 X74.954 Y86.274 E0.01411
G1 X75.291 Y86.007 E0.01347
G1 X75.747 Y85.805 E0.01563
G1 X76.329 Y85.662 E0.01879
G1 X77.063 Y85.578 E0.02318
G1 X77.979 Y85.553 E0.02873
G1 X79.103 Y85.595 E0.03526
G1 X80.463 Y85.710 E0.04278
G1 X83.571 Y86.101 E0.09822
G1 X87.293 Y86.505 E0.11739
G1 X89.328 Y86.689 E0.06407
G1 X91.350 Y86.844 E0.06357
G1 X93.258 Y86.955 E0.05993
G1 X94.953 Y87.010 E0.05318
G1 X96.330 Y86.997 E0.04317
G1 X96.936 Y86.942 E0.01909
G1 X97.645 Y86.821 E0.02255
G1 X98.394 Y86.626 E0.02427
G1 X99.124 Y86.350 E0.02449
G1 X99.775 Y85.992 E0.02327
G1 X100.288 Y85.558 E0.02109
G1 X100.626 Y85.053 E0.01907
G1 X100.774 Y84.432 E0.02000
G1 X100.767 Y83.700 E0.02295
G1 X100.688 Y82.887 E0.02560
G1 X100.380 Y80.684 E0.06974
M204 S1250
G1 X100.355 Y80.225 F9000.000
G1 E-2.24000 F2400.000
;WIPE_START
G1 F7200.000
G1 X103.260 Y80.677 E-0.91200
;WIPE_END
G1 E-0.04800 F2400.000
G1 Z0.400 F9000.000
G1 X74.859 Y100.248
M73 P1 R81
G1 Z0.200
G1 E3.20000 F1500.000
M204 S800
;TYPE:Perimeter
G1 F1200.000
G1 X120.329 Y100.248 E1.42568
G1 X119.734 Y108.272 E0.25228
G1 X119.424 Y113.755 E0.17219
G1 X119.257 Y119.822 E0.19030
G1 X97.395 Y119.822 E0.68547
G1 X97.105 Y117.299 E0.07964
G1 X96.984 Y114.441 E0.08969
G1 X97.032 Y111.729 E0.08502
G1 X97.207 Y109.234 E0.07845
G1 X97.461 Y107.024 E0.06974
G1 X97.753 Y105.169 E0.05887
G1 X98.038 Y103.734 E0.04586
G1 X98.138 Y103.330 E0.01307
G1 X97.064 Y103.261 E0.03373
G1 X95.304 Y103.219 E0.05520
G1 X93.423 Y103.243 E0.05900
G1 X91.477 Y103.336 E0.06108
G1 X89.527 Y103.506 E0.06137
G1 X87.629 Y103.753 E0.06000
G1 X85.844 Y104.082 E0.05691
G1 X84.208 Y104.502 E0.05295
G1 X83.001 Y104.849 E0.03940
G1 X81.882 Y105.124 E0.03614
G1 X80.848 Y105.323 E0.03301
G1 X79.877 Y105.441 E0.03065
G1 X78.953 Y105.471 E0.02899
G1 X78.060 Y105.413 E0.02807
G1 X77.184 Y105.261 E0.02787
G1 X76.301 Y105.015 E0.02874
G1 X75.862 Y104.833 E0.01491
G1 X75.455 Y104.580 E0.01503
G1 X75.104 Y104.261 E0.01484
G1 X74.816 Y103.889 E0.01477
G1 X74.631 Y103.531 E0.01264
G1 X74.486 Y103.081 E0.01482
G1 X74.409 Y102.600 E0.01528
G1 X74.393 Y102.075 E0.01645
G1 X74.499 Y101.317 E0.02402
G1 X74.840 Y100.305 E0.03348
M204 S1250
G1 X75.130 Y100.625 F9000.000
M204 S800
;TYPE:External perimeter
G1 F1200.000
G1 X119.923 Y100.625 E1.40446
G1 X119.358 Y108.248 E0.23966
G1 X119.048 Y113.739 E0.17246
G1 X118.890 Y119.445 E0.17897
G1 X97.731 Y119.445 E0.66343
G1 X97.481 Y117.269 E0.06867
G1 X97.361 Y114.436 E0.08891
G1 X97.409 Y111.746 E0.08436
G1 X97.583 Y109.268 E0.07788
G1 X97.835 Y107.075 E0.06923
G1 X98.124 Y105.235 E0.05839
G1 X98.406 Y103.817 E0.04535
G1 X98.613 Y102.982 E0.02695
G1 X97.081 Y102.885 E0.04814
G1 X95.307 Y102.842 E0.05565
G1 X93.411 Y102.866 E0.05943
G1 X91.452 Y102.960 E0.06152
G1 X89.486 Y103.131 E0.06185
G1 X87.571 Y103.380 E0.06057
G1 X85.763 Y103.714 E0.05763
G1 X84.110 Y104.138 E0.05353
G1 X82.904 Y104.484 E0.03934
G1 X81.801 Y104.756 E0.03561
G1 X80.789 Y104.950 E0.03229
G1 X79.848 Y105.064 E0.02972
G1 X78.959 Y105.093 E0.02789
G1 X78.105 Y105.038 E0.02686
G1 X77.267 Y104.892 E0.02666
G1 X76.424 Y104.658 E0.02743
G1 X76.035 Y104.497 E0.01322
G1 X75.683 Y104.277 E0.01300
G1 X75.382 Y104.004 E0.01274
G1 X75.135 Y103.685 E0.01265
G1 X74.980 Y103.386 E0.01057
G1 X74.854 Y102.993 E0.01294
G1 X74.785 Y102.564 E0.01362
G1 X74.771 Y102.096 E0.01468
G1 X74.867 Y101.403 E0.02191
G1 X75.111 Y100.682 E0.02388
M204 S1250
G1 X75.162 Y100.226 F9000.000
G1 E-2.24000 F2400.000
;WIPE_START
G1 F7200.000
G1 X77.991 Y100.678 E-0.91200
;WIPE_END
G1 E-0.04800 F2400.000
G1 Z0.400 F9000.000
G1 X119.299 Y120.248
G1 Z0.200
G1 E3.20000 F1500.000
M204 S800
;TYPE:Perimeter
G1 F1200.000
G1 X119.375 Y124.037 E0.11883
G1 X119.801 Y128.211 E0.13155
G1 X120.634 Y131.377 E0.10265
G1 X120.810 Y131.866 E0.01628
G1 X121.115 Y132.840 E0.03202
G1 X121.397 Y133.958 E0.03617
G1 X121.491 Y134.515 E0.01769
G1 X121.519 Y135.046 E0.01666
G1 X121.424 Y135.602 E0.01769
G1 X121.166 Y136.135 E0.01858
G1 X120.762 Y136.587 E0.01900
G1 X120.239 Y136.937 E0.01975
G1 X119.615 Y137.180 E0.02099
G1 X118.901 Y137.321 E0.02283
G1 X118.087 Y137.362 E0.02554
G1 X116.714 Y137.255 E0.04317
G1 X116.335 Y137.283 E0.01193
G1 X116.022 Y137.367 E0.01015
G1 X115.767 Y137.502 E0.00907
G1 X115.549 Y137.698 E0.00918
G1 X115.357 Y137.975 E0.01055
G1 X115.200 Y138.363 E0.01313
G1 X115.071 Y138.972 E0.01954
G1 X114.871 Y139.622 E0.02132
G1 X114.404 Y140.174 E0.02267
G1 X113.824 Y140.494 E0.02077
G1 X113.239 Y140.640 E0.01891
G1 X112.689 Y140.683 E0.01730
G1 X112.189 Y140.672 E0.01569
G1 X110.870 Y140.560 E0.04149
G1 X109.257 Y140.315 E0.05116
G1 X105.423 Y139.662 E0.12195
G1 X103.945 Y139.503 E0.04661
G1 X102.160 Y139.370 E0.05613
G1 X100.047 Y139.267 E0.06631
G1 X97.589 Y139.200 E0.07710
G1 X94.765 Y139.176 E0.08856
G1 X91.554 Y139.201 E0.10068
G1 X87.937 Y139.281 E0.11342
G1 X83.893 Y139.420 E0.12689
G1 X80.421 Y139.581 E0.10898
G1 X77.293 Y139.767 E0.09823
G1 X74.482 Y139.967 E0.08835
G1 X65.811 Y140.667 E0.27277
G1 X64.107 Y140.762 E0.05349
G1 X63.398 Y140.727 E0.02227
G1 X62.719 Y140.552 E0.02198
G1 X62.121 Y140.243 E0.02111
G1 X61.625 Y139.810 E0.02063
G1 X61.278 Y139.306 E0.01920
G1 X61.066 Y138.733 E0.01915
G1 X60.994 Y138.074 E0.02080
G1 X61.078 Y137.377 E0.02199
G1 X61.359 Y136.674 E0.02375
G1 X61.786 Y136.021 E0.02445
G1 X62.301 Y135.407 E0.02516
G1 X62.876 Y134.810 E0.02596
G1 X64.656 Y133.071 E0.07803
G1 X65.142 Y132.536 E0.02268
G1 X65.313 Y132.282 E0.00958
G1 X65.420 Y132.022 E0.00883
G1 X65.479 Y131.733 E0.00925
G1 X65.486 Y131.419 E0.00983
G1 X65.441 Y131.092 E0.01037
G1 X65.343 Y130.766 E0.01066
G1 X65.161 Y130.381 E0.01334
G1 X64.969 Y130.095 E0.01082
G1 X64.577 Y129.680 E0.01789
G1 X64.147 Y129.351 E0.01697
G1 X63.648 Y129.055 E0.01818
G1 X62.419 Y128.398 E0.04368
G1 X61.700 Y127.945 E0.02666
G1 X60.934 Y127.349 E0.03045
G1 X59.948 Y126.370 E0.04354
G1 X59.353 Y125.669 E0.02883
G1 X59.021 Y125.181 E0.01851
G1 X58.762 Y124.679 E0.01772
G1 X58.553 Y124.036 E0.02119
G1 X58.485 Y123.310 E0.02286
G1 X58.620 Y122.551 E0.02418
G1 X59.016 Y121.711 E0.02911
G1 X59.562 Y121.012 E0.02781
G1 X60.211 Y120.445 E0.02703
G1 X60.925 Y120.003 E0.02631
G1 X61.672 Y119.677 E0.02557
G1 X62.426 Y119.461 E0.02460
G1 X63.166 Y119.353 E0.02342
G1 X63.834 Y119.359 E0.02094
G1 X71.952 Y120.263 E0.25612
G1 X74.573 Y120.516 E0.08255
G1 X77.280 Y120.730 E0.08515
G1 X79.992 Y120.881 E0.08516
G1 X82.630 Y120.947 E0.08276
G1 X84.841 Y120.917 E0.06933
G1 X87.136 Y120.816 E0.07203
G1 X89.428 Y120.663 E0.07200
G1 X91.626 Y120.478 E0.06918
G1 X93.955 Y120.248 E0.07336
G1 X119.239 Y120.248 E0.79277
M204 S1250
G1 X118.930 Y120.625 F9000.000
M204 S800
;TYPE:External perimeter
G1 F1200.000
G1 X118.999 Y124.060 E0.10773
G1 X119.429 Y128.279 E0.13296
G1 X120.273 Y131.489 E0.10410
G1 X120.453 Y131.986 E0.01655
G1 X120.752 Y132.943 E0.03143
G1 X121.028 Y134.036 E0.03535
G1 X121.115 Y134.556 E0.01654
G1 X121.140 Y135.024 E0.01468
G1 X121.061 Y135.486 E0.01470
G1 X120.850 Y135.923 E0.01523
G1 X120.513 Y136.300 E0.01584
G1 X120.064 Y136.601 E0.01696
G1 X119.509 Y136.816 E0.01865
G1 X118.854 Y136.946 E0.02093
G1 X118.092 Y136.984 E0.02392
G1 X116.715 Y136.877 E0.04330
G1 X116.272 Y136.909 E0.01395
G1 X115.883 Y137.014 E0.01261
G1 X115.549 Y137.191 E0.01185
G1 X115.264 Y137.447 E0.01203
G1 X115.024 Y137.794 E0.01324
G1 X114.838 Y138.252 E0.01549
G1 X114.705 Y138.878 E0.02007
G1 X114.533 Y139.438 E0.01837
G1 X114.161 Y139.878 E0.01806
G1 X113.685 Y140.140 E0.01705
G1 X113.178 Y140.266 E0.01638
G1 X112.678 Y140.305 E0.01573
G1 X112.208 Y140.296 E0.01472
G1 X110.914 Y140.185 E0.04072
G1 X109.317 Y139.943 E0.05064
G1 X105.471 Y139.288 E0.12235
G1 X103.979 Y139.127 E0.04705
G1 X102.183 Y138.993 E0.05647
G1 X100.061 Y138.890 E0.06659
G1 X97.596 Y138.823 E0.07734
G1 X94.765 Y138.799 E0.08876
G1 X91.548 Y138.824 E0.10086
G1 X87.927 Y138.904 E0.11358
G1 X83.878 Y139.044 E0.12703
G1 X80.401 Y139.204 E0.10913
G1 X77.269 Y139.391 E0.09837
G1 X74.454 Y139.591 E0.08848
G1 X65.785 Y140.291 E0.27268
G1 X64.106 Y140.385 E0.05273
G1 X63.455 Y140.352 E0.02045
G1 X62.855 Y140.197 E0.01944
G1 X62.335 Y139.929 E0.01835
G1 X61.909 Y139.557 E0.01772
G1 X61.615 Y139.131 E0.01623
G1 X61.436 Y138.646 E0.01622
G1 X61.373 Y138.076 E0.01798
G1 X61.446 Y137.472 E0.01908
G1 X61.695 Y136.849 E0.02103
G1 X62.089 Y136.246 E0.02257
G1 X62.582 Y135.659 E0.02404
G1 X63.143 Y135.076 E0.02537
G1 X64.928 Y133.333 E0.07821
G1 X65.440 Y132.769 E0.02388
G1 X65.648 Y132.461 E0.01165
G1 X65.783 Y132.132 E0.01118
G1 X65.855 Y131.774 E0.01142
G1 X65.863 Y131.398 E0.01182
G1 X65.810 Y131.011 E0.01223
G1 X65.696 Y130.630 E0.01247
G1 X65.489 Y130.195 E0.01512
G1 X65.264 Y129.859 E0.01268
G1 X64.830 Y129.399 E0.01984
G1 X64.358 Y129.038 E0.01861
G1 X63.833 Y128.727 E0.01914
G1 X62.609 Y128.072 E0.04352
G1 X61.917 Y127.636 E0.02565
G1 X61.183 Y127.065 E0.02915
G1 X60.225 Y126.114 E0.04232
G1 X59.654 Y125.441 E0.02769
G1 X59.346 Y124.988 E0.01716
G1 X59.111 Y124.533 E0.01604
G1 X58.925 Y123.959 E0.01892
G1 X58.866 Y123.326 E0.01995
G1 X58.983 Y122.666 E0.02100
G1 X59.340 Y121.910 E0.02623
G1 X59.837 Y121.272 E0.02536
G1 X60.436 Y120.749 E0.02493
G1 X61.100 Y120.338 E0.02450
G1 X61.800 Y120.032 E0.02394
G1 X62.506 Y119.830 E0.02302
G1 X63.191 Y119.731 E0.02172
G1 X63.811 Y119.736 E0.01943
G1 X71.913 Y120.638 E0.25560
G1 X74.540 Y120.892 E0.08274
G1 X77.255 Y121.106 E0.08538
G1 X79.977 Y121.258 E0.08548
G1 X82.628 Y121.324 E0.08317
G1 X84.852 Y121.294 E0.06974
G1 X87.157 Y121.193 E0.07234
G1 X89.456 Y121.039 E0.07224
G1 X91.661 Y120.854 E0.06937
G1 X93.973 Y120.625 E0.07286
G1 X118.870 Y120.625 E0.78060
M204 S1250
G1 X119.329 Y120.619 F9000.000
G1 E-2.24000 F2400.000
;WIPE_START
G1 F7200.000
G1 X118.978 Y123.503 E-0.91200
;WIPE_END
G1 E-0.04800 F2400.000
G1 Z0.400 F9000.000
G1 X50.021 Y59.248
G1 Z0.200
G1 E3.20000 F1500.000
M204 S800
;TYPE:Perimeter
G1 F1200.000
G1 X127.107 Y59.248 E2.41698
G1 X126.480 Y61.575 E0.07555
G1 X125.511 Y65.547 E0.12821
G1 X124.495 Y70.088 E0.14590
G1 X123.490 Y74.989 E0.15685
G1 X122.596 Y79.822 E0.15412
G1 X99.906 Y79.822 E0.71144
G1 X99.801 Y78.337 E0.04667
G1 X99.770 Y76.672 E0.05223
G1 X99.833 Y74.739 E0.06062
G1 X100.070 Y71.302 E0.10803
G1 X100.343 Y68.347 E0.09304
G1 X100.639 Y65.919 E0.07669
G1 X100.930 Y64.138 E0.05659
G1 X100.925 Y63.910 E0.00713
G1 X100.860 Y63.767 E0.00496
G1 X100.811 Y63.701 E0.00257
