; generated by PrusaSlicer 2.3.3+win64 on 2022-06-16 at 08:16:51 UTC


;
;

;
;
; 

; external perimeters extrusion width = 0.45mm
; perimeters extrusion width = 0.45mm
; infill extrusion width = 0.45mm
; solid infill extrusion width = 0.45mm
; top infill extrusion width = 0.40mm
; first layer extrusion width = 0.42mm

M73 P0 R93
M201 X1250 Y1250 Z400 E5000 ; sets maximum accelerations, mm/sec^2
M203 X180 Y180 Z12 E80 ; sets maximum feedrates, mm/sec
M204 P1250 R1250 T1250 ; sets acceleration (P, T) and retract acceleration (R), mm/sec^2
M205 X8.00 Y8.00 Z2.00 E10.00 ; sets the jerk limits, mm/sec
M205 S0 T0 ; sets the minimum extruding and travel feed rate, mm/sec
M107
;TYPE:Custom
G90 ; use absolute coordinates
M83 ; extruder relative mode
M104 S170 ; set extruder temp for bed leveling
M140 S85 ; set bed temp
M109 R170 ; wait for bed leveling temp
M190 S85 ; wait for bed temp
G28 ; home all without mesh bed level
G29 ; mesh bed leveling 
M104 S230 ; set extruder temp
G92 E0.0
G1 Y-2.0 X179 F2400
G1 Z3 F720
M109 S230 ; wait for extruder temp

; intro line
G1 X170 F1000
G1 Z0.2 F720
G1 X110.0 E8.0 F900
M73 P0 R92
G1 X40.0 E10.0 F700
G92 E0.0

M221 S95 ; set flow
G21 ; set units to millimeters
G90 ; use absolute coordinates
M83 ; use relative distances for extrusion
M900 K0.2 ; Filament gcode
;LAYER_CHANGE
;Z:0.2
;HEIGHT:0.2
;BEFORE_LAYER_CHANGE
G92 E0.0
;0.2


G1 E-3.20000 F2400.000
G1 Z0.200 F9000.000
;AFTER_LAYER_CHANGE
;0.2
G1 Z0.400
G1 X43.168 Y39.911
G1 Z0.200
G1 E3.20000 F1500.000
M204 S800
;TYPE:Skirt
;WIDTH:0.42
G1 F1200.000
G1 X44.120 Y38.357 E0.05715
G1 X44.685 Y37.662 E0.02808
G1 X45.645 Y36.726 E0.04202
G1 X46.837 Y35.860 E0.04620
G1 X47.684 Y35.388 E0.03040
G1 X48.614 Y34.987 E0.03176
G1 X50.336 Y34.497 E0.05613
G1 X51.480 Y34.327 E0.03628
G1 X52.544 Y34.266 E0.03339
G1 X66.136 Y34.156 E0.42619
G1 X129.650 Y33.980 E1.99146
G1 X131.414 Y34.088 E0.05539
G1 X133.110 Y34.428 E0.05424
G1 X134.657 Y35.002 E0.05173
G1 X136.129 Y35.883 E0.05378
G1 X137.295 Y36.949 E0.04954
G1 X138.002 Y37.847 E0.03583
G1 X138.390 Y38.484 E0.02338
G1 X138.957 Y39.809 E0.04520
G1 X139.231 Y40.924 E0.03602
G1 X139.324 Y41.678 E0.02379
G1 X139.032 Y135.487 E2.94133
G1 X138.875 Y136.881 E0.04400
G1 X138.506 Y138.139 E0.04112
G1 X138.141 Y138.954 E0.02800
G1 X137.404 Y140.129 E0.04348
G1 X136.942 Y140.694 E0.02288
G1 X135.937 Y141.674 E0.04402
G1 X134.474 Y142.699 E0.05600
G1 X132.876 Y143.493 E0.05595
G1 X131.264 Y144.085 E0.05386
G1 X129.421 Y144.582 E0.05982
G1 X127.206 Y145.013 E0.07078
G1 X124.785 Y145.333 E0.07654
G1 X122.170 Y145.560 E0.08230
G1 X116.174 Y145.772 E0.18813
G1 X92.044 Y145.994 E0.75662
G1 X80.392 Y146.010 E0.36535
G1 X75.614 Y145.933 E0.14981
G1 X58.112 Y145.316 E0.54912
G1 X55.425 Y145.099 E0.08450
G1 X52.967 Y144.792 E0.07767
G1 X50.479 Y144.315 E0.07944
G1 X48.343 Y143.706 E0.06965
G1 X46.444 Y142.919 E0.06445
G1 X44.433 Y141.691 E0.07387
G1 X42.872 Y140.232 E0.06699
G1 X42.034 Y139.087 E0.04450
G1 X41.608 Y138.328 E0.02728
G1 X41.083 Y137.027 E0.04399
G1 X40.862 Y136.204 E0.02672
G1 X40.720 Y135.358 E0.02689
G1 X40.652 Y133.984 E0.04315
G1 X42.049 Y44.314 E2.81187
G1 X42.174 Y42.946 E0.04306
G1 X42.554 Y41.410 E0.04963
G1 X43.145 Y39.966 E0.04890
M204 S1250
; printing object Stunning Inari-Bojo.stl id:0 copy 0
G1 E-2.24000 F2400.000
;WIPE_START
G1 F7200.000
G1 X44.120 Y38.357 E-0.59598
G1 X44.685 Y37.662 E-0.28358
G1 X44.759 Y37.590 E-0.03244
;WIPE_END
G1 E-0.04800 F2400.000
G1 Z0.400 F9000.000
G1 X111.553 Y100.248
G1 Z0.200
G1 E3.20000 F1500.000
M204 S800
;TYPE:Perimeter
G1 F1200.000
G1 X132.221 Y100.248 E0.64803
G1 X132.247 Y106.647 E0.20064
G1 X132.523 Y116.966 E0.32365
G1 X132.689 Y119.823 E0.08972
G1 X111.027 Y119.823 E0.67922
G1 X111.072 Y117.031 E0.08754
G1 X111.551 Y100.308 E0.52454
M204 S1250
G1 X111.919 Y100.626 F9000.000
M204 S800
;TYPE:External perimeter
G1 F1200.000
G1 X131.845 Y100.626 E0.62477
G1 X131.869 Y106.653 E0.18900
G1 X132.146 Y116.982 E0.32397
G1 X132.290 Y119.446 E0.07737
G1 X111.410 Y119.446 E0.65467
G1 X111.449 Y117.039 E0.07545
G1 X111.918 Y100.685 E0.51298
M204 S1250
G1 X111.923 Y100.226 F9000.000
G1 E-2.24000 F2400.000
;WIPE_START
G1 F7200.000
G1 X114.798 Y100.677 E-0.91200
;WIPE_END
G1 E-0.04800 F2400.000
G1 Z0.400 F9000.000
G1 X111.941 Y80.248
G1 Z0.200
G1 E3.20000 F1500.000
M204 S800
;TYPE:Perimeter
G1 F1200.000
G1 X132.478 Y80.248 E0.64390
G1 X132.346 Y85.081 E0.15159
G1 X132.204 Y95.898 E0.33918
G1 X132.219 Y99.823 E0.12305
G1 X111.564 Y99.823 E0.64764
G1 X111.678 Y95.625 E0.13168
G1 X111.868 Y86.641 E0.28175
G1 X111.941 Y80.308 E0.19856
M204 S1250
G1 X112.314 Y80.626 F9000.000
M204 S800
;TYPE:External perimeter
G1 F1200.000
G1 X132.090 Y80.626 E0.62007
G1 X131.969 Y85.074 E0.13952
G1 X131.827 Y95.896 E0.33937
G1 X131.841 Y99.446 E0.11128
G1 X111.951 Y99.446 E0.62362
G1 X112.055 Y95.634 E0.11956
G1 X112.245 Y86.647 E0.28184
G1 X112.313 Y80.685 E0.18693
M204 S1250
G1 X112.316 Y80.226 F9000.000
G1 E-2.24000 F2400.000
;WIPE_START
G1 F7200.000
G1 X115.193 Y80.677 E-0.91200
;WIPE_END
G1 E-0.04800 F2400.000
G1 Z0.400 F9000.000
G1 X111.780 Y60.248
G1 Z0.200
G1 E3.20000 F1500.000
M204 S800
;TYPE:Perimeter
G1 F1200.000
G1 X133.230 Y60.248 E0.67255
M73 P1 R92
G1 X133.013 Y64.696 E0.13961
G1 X132.632 Y74.560 E0.30952
G1 X132.489 Y79.823 E0.16505
G1 X111.946 Y79.823 E0.64411
G1 X111.974 Y77.381 E0.07657
G1 X111.956 Y68.236 E0.28673
G1 X111.782 Y60.308 E0.24862
M204 S1250
G1 X112.166 Y60.626 F9000.000
M204 S800
;TYPE:External perimeter
G1 F1200.000
G1 X132.834 Y60.626 E0.64805
G1 X132.636 Y64.679 E0.12726
G1 X132.255 Y74.548 E0.30965
G1 X132.122 Y79.445 E0.15362
G1 X112.328 Y79.445 E0.62065
G1 X112.351 Y77.383 E0.06469
G1 X112.334 Y68.231 E0.28693
G1 X112.167 Y60.685 E0.23666
M204 S1250
G1 X112.164 Y60.226 F9000.000
G1 E-2.24000 F2400.000
;WIPE_START
G1 F7200.000
G1 X115.047 Y60.677 E-0.91200
;WIPE_END
G1 E-0.04800 F2400.000
G1 Z0.400 F9000.000
G1 X133.251 Y59.823
G1 Z0.200
G1 E3.20000 F1500.000
M204 S800
;TYPE:Perimeter
G1 F1200.000
G1 X111.778 Y59.823 E0.67329
G1 X111.361 Y51.866 E0.24983
G1 X110.693 Y45.391 E0.20408
G1 X110.626 Y44.581 E0.02549
G1 X110.663 Y43.732 E0.02665
G1 X110.820 Y42.893 E0.02674
G1 X111.113 Y42.085 E0.02695
G1 X111.560 Y41.332 E0.02747
G1 X112.143 Y40.695 E0.02707
G1 X112.906 Y40.154 E0.02933
G1 X113.833 Y39.748 E0.03172
G1 X114.908 Y39.499 E0.03461
G1 X116.140 Y39.414 E0.03874
G1 X117.744 Y39.553 E0.05048
G1 X119.004 Y39.981 E0.04171
G1 X119.928 Y40.698 E0.03668
G1 X120.504 Y41.622 E0.03415
G1 X120.797 Y42.628 E0.03284
G1 X120.924 Y43.652 E0.03236
G1 X121.042 Y45.671 E0.06341
G1 X121.171 Y46.605 E0.02956
G1 X121.420 Y47.463 E0.02799
G1 X121.509 Y47.638 E0.00617
G1 X121.647 Y47.825 E0.00727
G1 X121.817 Y47.992 E0.00749
G1 X121.992 Y48.113 E0.00667
G1 X122.143 Y48.174 E0.00509
G1 X122.247 Y48.185 E0.00331
G1 X122.329 Y48.167 E0.00263
G1 X122.452 Y48.088 E0.00458
G1 X122.669 Y47.835 E0.01043
G1 X122.886 Y47.410 E0.01499
G1 X123.045 Y46.944 E0.01544
G1 X123.203 Y46.317 E0.02028
G1 X123.710 Y43.887 E0.07783
G1 X123.924 Y43.020 E0.02798
G1 X124.181 Y42.178 E0.02761
G1 X124.505 Y41.386 E0.02682
G1 X124.925 Y40.669 E0.02605
G1 X125.453 Y40.104 E0.02425
G1 X126.151 Y39.713 E0.02508
G1 X127.040 Y39.419 E0.02935
G1 X128.070 Y39.212 E0.03295
G1 X129.178 Y39.106 E0.03491
G1 X130.364 Y39.121 E0.03718
G1 X131.515 Y39.298 E0.03652
G1 X132.596 Y39.683 E0.03596
G1 X133.526 Y40.355 E0.03599
G1 X134.145 Y41.369 E0.03726
G1 X134.282 Y42.586 E0.03838
G1 X133.881 Y48.385 E0.18225
G1 X133.445 Y55.850 E0.23446
G1 X133.254 Y59.763 E0.12284
M204 S1250
G1 X132.892 Y59.446 F9000.000
M204 S800
;TYPE:External perimeter
G1 F1200.000
G1 X112.135 Y59.446 E0.65081
M73 P1 R91
G1 X111.737 Y51.836 E0.23891
G1 X111.068 Y45.356 E0.20425
G1 X111.004 Y44.574 E0.02463
G1 X111.038 Y43.775 E0.02507
G1 X111.185 Y42.993 E0.02493
G1 X111.455 Y42.247 E0.02487
G1 X111.865 Y41.558 E0.02514
G1 X112.394 Y40.979 E0.02459
G1 X113.093 Y40.484 E0.02686
G1 X113.952 Y40.108 E0.02941
G1 X114.964 Y39.873 E0.03257
G1 X116.137 Y39.792 E0.03688
G1 X117.666 Y39.924 E0.04813
G1 X118.823 Y40.317 E0.03829
G1 X119.644 Y40.955 E0.03259
G1 X120.156 Y41.778 E0.03040
G1 X120.426 Y42.704 E0.03027
G1 X120.548 Y43.686 E0.03103
G1 X120.667 Y45.708 E0.06350
G1 X120.802 Y46.684 E0.03089
G1 X121.068 Y47.601 E0.02995
G1 X121.187 Y47.837 E0.00827
G1 X121.361 Y48.073 E0.00920
G1 X121.576 Y48.284 E0.00946
G1 X121.812 Y48.446 E0.00898
G1 X122.049 Y48.542 E0.00800
G1 X122.268 Y48.567 E0.00692
G1 X122.477 Y48.520 E0.00671
G1 X122.703 Y48.375 E0.00841
G1 X122.984 Y48.047 E0.01357
G1 X123.234 Y47.557 E0.01723
G1 X123.407 Y47.051 E0.01678
G1 X123.571 Y46.401 E0.02101
G1 X124.078 Y43.970 E0.07786
G1 X124.287 Y43.120 E0.02744
G1 X124.537 Y42.305 E0.02675
G1 X124.844 Y41.553 E0.02544
G1 X125.229 Y40.896 E0.02389
G1 X125.688 Y40.404 E0.02110
G1 X126.303 Y40.060 E0.02211
G1 X127.136 Y39.784 E0.02750
G1 X128.125 Y39.585 E0.03163
G1 X129.194 Y39.483 E0.03365
G1 X130.333 Y39.498 E0.03571
G1 X131.422 Y39.665 E0.03457
G1 X132.418 Y40.020 E0.03315
G1 X133.243 Y40.616 E0.03193
G1 X133.780 Y41.494 E0.03226
G1 X133.903 Y42.594 E0.03468
G1 X133.505 Y48.361 E0.18125
G1 X133.069 Y55.829 E0.23458
G1 X132.895 Y59.386 E0.11163
M204 S1250
G1 X132.885 Y59.845 F9000.000
G1 E-2.24000 F2400.000
;WIPE_START
G1 F7200.000
G1 X130.015 Y59.394 E-0.91200
;WIPE_END
G1 E-0.04800 F2400.000
G1 Z0.400 F9000.000
G1 X70.504 Y59.823
G1 Z0.200
G1 E3.20000 F1500.000
M204 S800
;TYPE:Perimeter
G1 F1200.000
G1 X48.224 Y59.823 E0.69856
G1 X47.961 Y55.265 E0.14314
G1 X47.152 Y44.575 E0.33613
G1 X47.149 Y44.222 E0.01108
G1 X47.210 Y43.708 E0.01622
G1 X47.353 Y43.092 E0.01983
G1 X47.604 Y42.403 E0.02299
G1 X47.990 Y41.682 E0.02563
G1 X48.529 Y40.988 E0.02755
G1 X49.240 Y40.367 E0.02961
G1 X50.176 Y39.850 E0.03352
G1 X51.315 Y39.506 E0.03729
G1 X52.668 Y39.377 E0.04262
G1 X54.298 Y39.542 E0.05138
G1 X55.611 Y40.051 E0.04415
G1 X56.601 Y40.852 E0.03993
G1 X57.288 Y41.837 E0.03766
G1 X57.741 Y42.906 E0.03639
G1 X58.045 Y43.989 E0.03530
G1 X58.494 Y45.997 E0.06451
G1 X58.747 Y46.798 E0.02632
G1 X59.072 Y47.415 E0.02187
G1 X59.240 Y47.609 E0.00804
G1 X59.540 Y47.832 E0.01174
G1 X59.735 Y47.910 E0.00657
G1 X59.820 Y47.917 E0.00267
G1 X59.928 Y47.883 E0.00357
G1 X59.985 Y47.838 E0.00226
G1 X60.084 Y47.726 E0.00469
G1 X60.218 Y47.501 E0.00823
G1 X60.582 Y46.691 E0.02783
G1 X60.837 Y45.896 E0.02617
G1 X61.013 Y45.108 E0.02532
G1 X61.134 Y44.333 E0.02459
G1 X61.312 Y42.841 E0.04712
G1 X61.429 Y42.129 E0.02262
G1 X61.615 Y41.441 E0.02234
G1 X61.922 Y40.786 E0.02269
G1 X62.372 Y40.244 E0.02211
G1 X62.894 Y39.884 E0.01987
G1 X63.515 Y39.627 E0.02108
G1 X64.193 Y39.450 E0.02197
G1 X64.916 Y39.337 E0.02293
G1 X65.664 Y39.280 E0.02354
G1 X66.408 Y39.273 E0.02332
G1 X67.161 Y39.317 E0.02366
G1 X67.870 Y39.411 E0.02242
G1 X68.527 Y39.558 E0.02110
G1 X69.334 Y39.844 E0.02685
G1 X70.531 Y42.022 E0.07792
G1 X70.941 Y46.171 E0.13075
G1 X70.884 Y52.062 E0.18469
G1 X70.507 Y59.763 E0.24175
M204 S1250
G1 X70.145 Y59.446 F9000.000
M204 S800
;TYPE:External perimeter
G1 F1200.000
G1 X48.580 Y59.446 E0.67615
G1 X48.337 Y55.240 E0.13209
G1 X47.529 Y44.559 E0.33583
G1 X47.526 Y44.243 E0.00993
G1 X47.582 Y43.773 E0.01483
G1 X47.715 Y43.199 E0.01846
G1 X47.949 Y42.558 E0.02143
G1 X48.307 Y41.888 E0.02379
G1 X48.804 Y41.249 E0.02540
G1 X49.458 Y40.678 E0.02720
G1 X50.323 Y40.200 E0.03100
G1 X51.388 Y39.878 E0.03487
G1 X52.667 Y39.756 E0.04028
G1 X54.209 Y39.912 E0.04861
G1 X55.419 Y40.381 E0.04070
G1 X56.322 Y41.111 E0.03641
G1 X56.956 Y42.020 E0.03474
G1 X57.384 Y43.031 E0.03441
G1 X57.679 Y44.082 E0.03423
G1 X58.130 Y46.095 E0.06470
G1 X58.397 Y46.944 E0.02789
G1 X58.759 Y47.629 E0.02430
G1 X58.971 Y47.873 E0.01012
G1 X59.090 Y47.981 E0.00505
G1 X59.362 Y48.167 E0.01031
G1 X59.631 Y48.275 E0.00911
G1 X59.855 Y48.294 E0.00702
G1 X59.966 Y48.274 E0.00357
G1 X60.118 Y48.213 E0.00511
G1 X60.244 Y48.115 E0.00502
G1 X60.390 Y47.949 E0.00691
G1 X60.553 Y47.675 E0.01001
G1 X60.935 Y46.826 E0.02918
G1 X61.201 Y45.995 E0.02737
G1 X61.383 Y45.178 E0.02624
G1 X61.507 Y44.385 E0.02519
G1 X61.685 Y42.894 E0.04707
G1 X61.798 Y42.209 E0.02177
G1 X61.970 Y41.571 E0.02070
G1 X62.243 Y40.990 E0.02013
G1 X62.629 Y40.525 E0.01896
G1 X63.075 Y40.217 E0.01699
G1 X63.636 Y39.985 E0.01901
G1 X64.270 Y39.820 E0.02055
G1 X64.959 Y39.712 E0.02187
G1 X65.680 Y39.657 E0.02267
G1 X66.398 Y39.650 E0.02252
G1 X67.125 Y39.693 E0.02283
G1 X67.804 Y39.782 E0.02147
G1 X68.422 Y39.921 E0.01986
G1 X69.073 Y40.151 E0.02164
G1 X70.163 Y42.136 E0.07100
G1 X70.564 Y46.188 E0.12769
G1 X70.507 Y52.051 E0.18381
G1 X70.148 Y59.386 E0.23026
M204 S1250
G1 X70.141 Y59.845 F9000.000
G1 E-2.24000 F2400.000
;WIPE_START
G1 F7200.000
G1 X67.268 Y59.394 E-0.91200
;WIPE_END
G1 E-0.04800 F2400.000
G1 Z0.400 F9000.000
G1 X48.249 Y60.248
G1 Z0.200
G1 E3.20000 F1500.000
M204 S800
;TYPE:Perimeter
G1 F1200.000
G1 X70.474 Y60.248 E0.69686
G1 X69.984 Y68.253 E0.25146
G1 X69.374 Y78.823 E0.33195
G1 X48.934 Y78.823 E0.64087
G1 X48.870 Y74.275 E0.14261
G1 X48.529 Y65.100 E0.28787
G1 X48.252 Y60.308 E0.15048
M204 S1250
G1 X48.649 Y60.626 F9000.000
M204 S800
;TYPE:External perimeter
G1 F1200.000
G1 X70.073 Y60.626 E0.67176
G1 X69.608 Y68.231 E0.23891
G1 X69.018 Y78.445 E0.32081
G1 X49.306 Y78.445 E0.61805
G1 X49.247 Y74.265 E0.13109
G1 X48.906 Y65.082 E0.28813
G1 X48.652 Y60.685 E0.13808
M204 S1250
G1 X48.643 Y60.226 F9000.000
G1 E-2.24000 F2400.000
;WIPE_START
G1 F7200.000
G1 X51.532 Y60.677 E-0.91200
;WIPE_END
G1 E-0.04800 F2400.000
G1 Z0.400 F9000.000
G1 X48.941 Y79.248
G1 Z0.200
G1 E3.20000 F1500.000
M204 S800
;TYPE:Perimeter
G1 F1200.000
G1 X69.363 Y79.248 E0.64033
G1 X68.955 Y88.489 E0.29001
G1 X68.727 Y99.823 E0.35544
G1 X48.620 Y99.823 E0.63046
G1 X48.911 Y91.292 E0.26762
G1 X48.993 Y82.951 E0.26154
G1 X48.941 Y79.308 E0.11423
M204 S1250
G1 X49.323 Y79.626 F9000.000
M204 S800
;TYPE:External perimeter
G1 F1200.000
G1 X68.969 Y79.626 E0.61598
G1 X68.578 Y88.477 E0.27779
G1 X68.358 Y99.446 E0.34399
G1 X49.010 Y99.446 E0.60664
G1 X49.288 Y91.300 E0.25553
G1 X49.370 Y82.950 E0.26182
G1 X49.324 Y79.685 E0.10238
M204 S1250
G1 X49.323 Y79.226 F9000.000
G1 E-2.24000 F2400.000
;WIPE_START
G1 F7200.000
G1 X52.204 Y79.677 E-0.91200
;WIPE_END
G1 E-0.04800 F2400.000
G1 Z0.400 F9000.000
G1 X48.588 Y100.248
G1 Z0.200
G1 E3.20000 F1500.000
M204 S800
;TYPE:Perimeter
G1 F1200.000
G1 X68.748 Y100.248 E0.63211
G1 X68.896 Y110.480 E0.32085
G1 X69.474 Y119.823 E0.29347
G1 X47.173 Y119.823 E0.69923
G1 X47.533 Y115.938 E0.12232
G1 X48.170 Y107.623 E0.26147
G1 X48.584 Y100.308 E0.22972
M204 S1250
G1 X48.944 Y100.626 F9000.000
M204 S800
;TYPE:External perimeter
G1 F1200.000
G1 X68.376 Y100.626 E0.60928
G1 X68.519 Y110.495 E0.30948
G1 X69.073 Y119.446 E0.28118
G1 X47.587 Y119.446 E0.67368
G1 X47.909 Y115.970 E0.10944
G1 X48.546 Y107.648 E0.26168
G1 X48.941 Y100.685 E0.21866
M204 S1250
G1 X48.953 Y100.226 F9000.000
G1 E-2.24000 F2400.000
;WIPE_START
G1 F7200.000
G1 X51.821 Y100.677 E-0.91200
;WIPE_END
G1 E-0.04800 F2400.000
G1 Z0.400 F9000.000
G1 X47.134 Y120.248
G1 Z0.200
G1 E3.20000 F1500.000
M204 S800
;TYPE:Perimeter
G1 F1200.000
G1 X69.500 Y120.248 E0.70129
G1 X69.555 Y121.137 E0.02792
G1 X69.649 Y121.229 E0.00412
G1 X70.594 Y121.417 E0.03020
G1 X72.371 Y121.480 E0.05575
G1 X74.699 Y121.405 E0.07303
G1 X77.415 Y121.231 E0.08535
G1 X86.531 Y120.512 E0.28671
M73 P2 R91
G1 X89.456 Y120.343 E0.09186
G1 X92.114 Y120.276 E0.08337
G1 X94.465 Y120.368 E0.07377
G1 X97.005 Y120.582 E0.07992
G1 X104.716 Y121.418 E0.24320
G1 X106.958 Y121.583 E0.07048
G1 X108.841 Y121.606 E0.05905
G1 X110.206 Y121.450 E0.04306
G1 X110.848 Y121.175 E0.02189
G1 X111.299 Y120.248 E0.03232
G1 X132.714 Y120.248 E0.67147
G1 X133.078 Y126.491 E0.19605
G1 X133.964 Y134.954 E0.26680
G1 X133.865 Y136.237 E0.04037
G1 X133.175 Y137.392 E0.04216
G1 X132.068 Y138.274 E0.04438
G1 X130.600 Y138.970 E0.05093
G1 X128.827 Y139.516 E0.05818
G1 X126.765 Y139.940 E0.06600
G1 X124.440 Y140.258 E0.07358
G1 X121.880 Y140.483 E0.08059
G1 X119.115 Y140.624 E0.08679
G1 X116.181 Y140.690 E0.09203
G1 X93.917 Y140.891 E0.69811
