; generated by PrusaSlicer 2.3.3+win64 on 2022-06-10 at 10:35:37 UTC


;
;

;
;
; 

; external perimeters extrusion width = 0.45mm
; perimeters extrusion width = 0.45mm
; infill extrusion width = 0.45mm
; solid infill extrusion width = 0.45mm
; top infill extrusion width = 0.40mm
; first layer extrusion width = 0.42mm

M73 P0 R99
M201 X1250 Y1250 Z400 E5000 ; sets maximum accelerations, mm/sec^2
M203 X180 Y180 Z12 E80 ; sets maximum feedrates, mm/sec
M204 P1250 R1250 T1250 ; sets acceleration (P, T) and retract acceleration (R), mm/sec^2
M205 X8.00 Y8.00 Z2.00 E10.00 ; sets the jerk limits, mm/sec
M205 S0 T0 ; sets the minimum extruding and travel feed rate, mm/sec
M107
;TYPE:Custom
G90 ; use absolute coordinates
M83 ; extruder relative mode
M104 S170 ; set extruder temp for bed leveling
M140 S85 ; set bed temp
M109 R170 ; wait for bed leveling temp
M190 S85 ; wait for bed temp
G28 ; home all without mesh bed level
G29 ; mesh bed leveling 
M104 S230 ; set extruder temp
G92 E0.0
G1 Y-2.0 X179 F2400
G1 Z3 F720
M109 S230 ; wait for extruder temp

; intro line
G1 X170 F1000
G1 Z0.2 F720
G1 X110.0 E8.0 F900
G1 X40.0 E10.0 F700
G92 E0.0

M221 S95 ; set flow
G21 ; set units to millimeters
G90 ; use absolute coordinates
M83 ; use relative distances for extrusion
M900 K0.2 ; Filament gcode
;LAYER_CHANGE
;Z:0.2
;HEIGHT:0.2
;BEFORE_LAYER_CHANGE
G92 E0.0
;0.2


M73 P0 R98
G1 E-3.20000 F2400.000
G1 Z0.200 F9000.000
;AFTER_LAYER_CHANGE
;0.2
G1 Z0.400
G1 X52.799 Y46.927
G1 Z0.200
G1 E3.20000 F1500.000
M204 S800
;TYPE:Skirt
;WIDTH:0.42
G1 F1200.000
G1 X56.456 Y43.820 E0.15047
G1 X60.792 Y41.157 E0.15952
G1 X65.854 Y38.907 E0.17369
G1 X71.361 Y37.146 E0.18129
G1 X77.676 Y35.750 E0.20278
G1 X84.458 Y34.781 E0.21482
G1 X91.894 Y34.197 E0.23386
G1 X100.106 Y33.998 E0.25755
G1 X106.331 Y34.098 E0.19521
G1 X111.815 Y34.337 E0.17213
G1 X119.848 Y34.854 E0.25239
G1 X121.051 Y34.980 E0.03790
G1 X122.256 Y35.233 E0.03861
G1 X123.243 Y35.559 E0.03260
G1 X124.117 Y35.965 E0.03021
G1 X131.279 Y39.668 E0.25282
G1 X132.074 Y40.159 E0.02929
G1 X133.046 Y40.969 E0.03968
G1 X133.829 Y41.937 E0.03904
G1 X134.384 Y43.017 E0.03806
G1 X134.709 Y44.166 E0.03742
G1 X134.820 Y45.326 E0.03656
G1 X133.012 Y136.021 E2.84424
G1 X132.930 Y137.034 E0.03184
G1 X132.635 Y138.208 E0.03796
G1 X132.053 Y139.406 E0.04176
G1 X131.264 Y140.420 E0.04028
G1 X130.420 Y141.169 E0.03538
G1 X129.833 Y141.578 E0.02245
G1 X128.292 Y142.398 E0.05472
G1 X121.087 Y145.328 E0.24387
G1 X119.352 Y145.817 E0.05653
G1 X118.196 Y145.961 E0.03652
G1 X116.485 Y145.997 E0.05366
G1 X87.038 Y145.213 E0.92363
G1 X82.406 Y144.868 E0.14562
G1 X78.033 Y144.281 E0.13836
G1 X73.975 Y143.453 E0.12984
G1 X70.147 Y142.348 E0.12494
G1 X66.764 Y141.035 E0.11378
G1 X63.721 Y139.492 E0.10695
G1 X60.874 Y137.632 E0.10663
G1 X58.233 Y135.407 E0.10828
G1 X56.092 Y133.065 E0.09951
G1 X54.423 Y130.740 E0.08972
G1 X53.043 Y128.243 E0.08947
G1 X52.022 Y125.805 E0.08285
G1 X51.248 Y123.234 E0.08418
G1 X50.683 Y120.351 E0.09212
G1 X45.366 Y71.316 E1.54649
G1 X45.180 Y67.293 E0.12626
G1 X45.235 Y65.271 E0.06343
G1 X45.394 Y63.265 E0.06308
G1 X45.969 Y59.650 E0.11478
G1 X46.422 Y57.824 E0.05899
G1 X46.972 Y56.093 E0.05695
G1 X47.634 Y54.430 E0.05611
G1 X49.742 Y50.641 E0.13597
G1 X52.761 Y46.973 E0.14893
M204 S1250
; printing object Grand Waasa.stl id:0 copy 0
G1 E-2.24000 F2400.000
;WIPE_START
G1 F7200.000
G1 X54.951 Y45.104 E-0.91200
;WIPE_END
G1 E-0.04800 F2400.000
G1 Z0.400 F9000.000
G1 X78.049 Y108.094
G1 Z0.200
G1 E3.20000 F1500.000
M204 S800
;TYPE:Perimeter
G1 F1200.000
G1 X79.842 Y106.095 E0.08419
G1 X82.165 Y104.555 E0.08739
G1 X84.958 Y103.380 E0.09500
G1 X88.098 Y102.511 E0.10217
G1 X91.513 Y101.877 E0.10890
G1 X95.129 Y101.410 E0.11431
G1 X98.872 Y101.043 E0.11794
G1 X102.702 Y100.714 E0.12053
G1 X103.087 Y100.713 E0.01205
G1 X103.485 Y100.770 E0.01261
G1 X103.866 Y100.884 E0.01248
G1 X104.226 Y101.054 E0.01249
G1 X104.559 Y101.280 E0.01261
G1 X104.853 Y101.564 E0.01283
G1 X105.097 Y101.902 E0.01304
G1 X105.281 Y102.285 E0.01334
G1 X105.395 Y102.709 E0.01376
G1 X105.430 Y103.126 E0.01314
G1 X105.430 Y123.548 E0.64029
G1 X105.398 Y123.935 E0.01220
G1 X105.293 Y124.328 E0.01273
G1 X105.127 Y124.689 E0.01248
G1 X104.901 Y125.007 E0.01221
G1 X104.680 Y125.226 E0.00976
G1 X104.398 Y125.424 E0.01082
G1 X104.059 Y125.588 E0.01181
G1 X103.696 Y125.697 E0.01187
G1 X103.320 Y125.750 E0.01192
G1 X102.966 Y125.749 E0.01109
G1 X95.323 Y125.216 E0.24022
G1 X91.680 Y124.863 E0.11475
G1 X88.247 Y124.358 E0.10879
G1 X85.093 Y123.628 E0.10150
G1 X82.287 Y122.590 E0.09381
G1 X79.908 Y121.156 E0.08710
G1 X78.062 Y119.231 E0.08362
G1 X76.885 Y116.763 E0.08574
G1 X76.482 Y113.744 E0.09548
G1 X76.883 Y110.654 E0.09770
G1 X78.024 Y108.149 E0.08633
M204 S1250
G1 X78.367 Y108.305 F9000.000
M204 S800
;TYPE:External perimeter
G1 F1200.000
G1 X80.091 Y106.383 E0.08094
G1 X82.344 Y104.889 E0.08477
G1 X85.082 Y103.737 E0.09313
G1 X88.183 Y102.879 E0.10089
G1 X91.572 Y102.250 E0.10806
G1 X95.171 Y101.785 E0.11380
G1 X98.907 Y101.419 E0.11769
G1 X102.719 Y101.091 E0.11997
G1 X103.060 Y101.090 E0.01069
G1 X103.404 Y101.139 E0.01088
G1 X103.731 Y101.237 E0.01072
G1 X104.039 Y101.382 E0.01066
G1 X104.320 Y101.574 E0.01068
G1 X104.567 Y101.812 E0.01078
G1 X104.771 Y102.095 E0.01093
G1 X104.926 Y102.417 E0.01119
G1 X105.022 Y102.774 E0.01160
G1 X105.052 Y103.142 E0.01158
G1 X105.052 Y123.533 E0.63933
G1 X105.025 Y123.871 E0.01065
G1 X104.937 Y124.199 E0.01064
G1 X104.799 Y124.499 E0.01037
G1 X104.612 Y124.762 E0.01010
G1 X104.438 Y124.936 E0.00773
G1 X104.207 Y125.098 E0.00884
G1 X103.922 Y125.235 E0.00992
G1 X103.615 Y125.328 E0.01004
G1 X103.294 Y125.373 E0.01017
G1 X102.980 Y125.372 E0.00984
G1 X95.354 Y124.841 E0.23967
G1 X91.726 Y124.488 E0.11430
G1 X88.317 Y123.987 E0.10802
G1 X85.202 Y123.266 E0.10027
G1 X82.451 Y122.249 E0.09195
G1 X80.145 Y120.859 E0.08442
G1 X78.376 Y119.014 E0.08015
G1 X77.251 Y116.654 E0.08197
G1 X76.862 Y113.744 E0.09207
G1 X77.250 Y110.759 E0.09437
G1 X78.343 Y108.360 E0.08267
M204 S1250
G1 X78.186 Y107.948 F9000.000
G1 E-2.24000 F2400.000
;WIPE_START
G1 F7200.000
G1 X80.091 Y106.383 E-0.83558
G1 X80.292 Y106.250 E-0.07642
;WIPE_END
G1 E-0.04800 F2400.000
G1 Z0.400 F9000.000
G1 X106.493 Y99.913
G1 Z0.200
G1 E3.20000 F1500.000
M204 S800
;TYPE:Perimeter
G1 F1200.000
G1 X125.857 Y99.913 E0.60716
G1 X125.766 Y105.615 E0.17882
G1 X125.698 Y112.443 E0.21410
G1 X125.691 Y120.487 E0.25220
G1 X107.463 Y120.487 E0.57152
G1 X107.463 Y103.155 E0.54345
G1 X107.404 Y102.390 E0.02406
G1 X107.238 Y101.701 E0.02220
G1 X106.516 Y99.968 E0.05886
M204 S1250
G1 X107.058 Y100.290 F9000.000
M204 S800
;TYPE:External perimeter
G1 F1200.000
G1 X125.474 Y100.290 E0.57741
G1 X125.388 Y105.610 E0.16684
G1 X125.320 Y112.441 E0.21419
G1 X125.314 Y120.110 E0.24044
G1 X107.840 Y120.110 E0.54788
G1 X107.840 Y103.140 E0.53208
G1 X107.777 Y102.330 E0.02546
G1 X107.598 Y101.584 E0.02408
G1 X107.081 Y100.345 E0.04206
M204 S1250
G1 X107.013 Y99.893 F9000.000
G1 E-2.24000 F2400.000
;WIPE_START
G1 F7200.000
G1 X109.961 Y100.337 E-0.91200
;WIPE_END
G1 E-0.04800 F2400.000
G1 Z0.400 F9000.000
G1 X108.592 Y79.487
G1 Z0.200
G1 E3.20000 F1500.000
M204 S800
;TYPE:Perimeter
G1 F1200.000
G1 X108.592 Y59.913 E0.61373
G1 X127.302 Y59.913 E0.58662
G1 X126.994 Y65.127 E0.16378
G1 X126.618 Y73.232 E0.25438
G1 X126.387 Y79.487 E0.19627
G1 X108.652 Y79.487 E0.55607
M204 S1250
G1 X108.969 Y79.110 F9000.000
M204 S800
;TYPE:External perimeter
G1 F1200.000
G1 X108.969 Y60.290 E0.59009
G1 X126.902 Y60.290 E0.56225
G1 X126.617 Y65.108 E0.15132
G1 X126.241 Y73.216 E0.25451
M73 P1 R98
G1 X126.024 Y79.110 E0.18493
G1 X109.029 Y79.110 E0.53285
M204 S1250
G1 X108.572 Y79.154 F9000.000
G1 E-2.24000 F2400.000
;WIPE_START
G1 F7200.000
G1 X109.020 Y76.230 E-0.91200
;WIPE_END
G1 E-0.04800 F2400.000
G1 Z0.400 F9000.000
G1 X106.594 Y82.214
G1 Z0.200
G1 E3.20000 F1500.000
M204 S800
;TYPE:Perimeter
G1 F1200.000
G1 X106.445 Y82.214 E0.00466
G1 X106.391 Y82.417 E0.00657
G1 X106.186 Y82.856 E0.01520
G1 X105.911 Y83.241 E0.01486
G1 X105.627 Y83.522 E0.01252
G1 X105.283 Y83.763 E0.01314
G1 X104.868 Y83.962 E0.01444
G1 X104.427 Y84.095 E0.01446
G1 X103.964 Y84.160 E0.01465
G1 X103.526 Y84.154 E0.01372
G1 X93.344 Y83.456 E0.32002
G1 X88.496 Y82.990 E0.15271
G1 X83.934 Y82.320 E0.14454
G1 X79.757 Y81.354 E0.13443
G1 X76.056 Y79.985 E0.12372
G1 X72.937 Y78.101 E0.11427
G1 X70.531 Y75.585 E0.10913
G1 X69.001 Y72.365 E0.11178
G1 X68.473 Y68.410 E0.12511
G1 X68.999 Y64.366 E0.12788
G1 X70.522 Y61.027 E0.11507
G1 X72.878 Y58.402 E0.11058
G1 X75.943 Y56.371 E0.11528
G1 X79.631 Y54.817 E0.12547
G1 X83.793 Y53.664 E0.13542
G1 X88.330 Y52.818 E0.14472
G1 X93.144 Y52.191 E0.15220
G1 X98.134 Y51.697 E0.15721
G1 X103.229 Y51.252 E0.16038
G1 X103.716 Y51.249 E0.01526
G1 X104.215 Y51.319 E0.01581
G1 X104.692 Y51.463 E0.01561
G1 X105.139 Y51.677 E0.01553
G1 X105.545 Y51.961 E0.01555
G1 X105.900 Y52.312 E0.01565
G1 X106.194 Y52.725 E0.01589
G1 X106.414 Y53.195 E0.01628
G1 X106.551 Y53.711 E0.01673
G1 X106.594 Y54.229 E0.01630
G1 X106.594 Y82.154 E0.87557
M204 S1250
G1 X106.216 Y81.837 F9000.000
M204 S800
;TYPE:External perimeter
G1 F1200.000
G1 X106.148 Y81.837 E0.00214
G1 X106.035 Y82.287 E0.01456
G1 X105.859 Y82.665 E0.01306
G1 X105.623 Y82.996 E0.01276
G1 X105.384 Y83.231 E0.01051
G1 X105.092 Y83.436 E0.01118
G1 X104.731 Y83.609 E0.01256
G1 X104.346 Y83.726 E0.01263
G1 X103.940 Y83.782 E0.01284
G1 X103.542 Y83.777 E0.01249
G1 X93.375 Y83.081 E0.31953
G1 X88.541 Y82.615 E0.15225
G1 X84.004 Y81.949 E0.14377
G1 X79.866 Y80.992 E0.13319
G1 X76.221 Y79.644 E0.12184
G1 X73.175 Y77.804 E0.11158
G1 X70.846 Y75.369 E0.10566
G1 X69.367 Y72.257 E0.10802
G1 X68.853 Y68.410 E0.12170
G1 X69.366 Y64.471 E0.12454
G1 X70.841 Y61.236 E0.11149
G1 X73.127 Y58.690 E0.10726
G1 X76.122 Y56.705 E0.11266
G1 X79.755 Y55.174 E0.12360
G1 X83.878 Y54.032 E0.13415
G1 X88.389 Y53.191 E0.14389
G1 X93.187 Y52.566 E0.15169
G1 X98.168 Y52.073 E0.15696
G1 X103.247 Y51.629 E0.15984
G1 X103.691 Y51.626 E0.01391
G1 X104.134 Y51.688 E0.01403
G1 X104.555 Y51.816 E0.01380
G1 X104.948 Y52.004 E0.01365
G1 X105.303 Y52.252 E0.01358
G1 X105.612 Y52.557 E0.01362
G1 X105.867 Y52.915 E0.01379
G1 X106.058 Y53.324 E0.01415
G1 X106.178 Y53.775 E0.01462
G1 X106.216 Y54.244 E0.01476
G1 X106.216 Y81.777 E0.86327
M204 S1250
G1 X106.217 Y81.905 F9000.000
G1 E-2.24000 F2400.000
;WIPE_START
G1 F7200.000
G1 X106.148 Y81.837 E-0.02882
G1 X106.035 Y82.287 E-0.14702
G1 X105.859 Y82.665 E-0.13187
G1 X105.623 Y82.996 E-0.12886
G1 X105.384 Y83.231 E-0.10614
G1 X105.092 Y83.436 E-0.11290
G1 X104.731 Y83.609 E-0.12681
G1 X104.346 Y83.726 E-0.12757
G1 X104.339 Y83.727 E-0.00203
;WIPE_END
G1 E-0.04800 F2400.000
G1 Z0.400 F9000.000
G1 X108.592 Y59.487
G1 Z0.200
G1 E3.20000 F1500.000
M204 S800
;TYPE:Perimeter
G1 F1200.000
G1 X108.592 Y54.222 E0.16509
G1 X108.526 Y53.374 E0.02665
G1 X108.339 Y52.607 E0.02477
M73 P1 R97
G1 X108.041 Y51.895 E0.02420
G1 X107.639 Y51.247 E0.02390
G1 X107.143 Y50.672 E0.02380
G1 X106.564 Y50.180 E0.02385
G1 X105.906 Y49.780 E0.02413
G1 X105.181 Y49.481 E0.02458
G1 X104.397 Y49.295 E0.02525
G1 X103.505 Y49.229 E0.02804
G1 X103.237 Y49.244 E0.00844
G1 X103.001 Y49.231 E0.00739
G1 X96.309 Y49.840 E0.21072
G1 X93.863 Y50.087 E0.07708
G1 X91.446 Y50.363 E0.07626
G1 X89.071 Y50.679 E0.07514
G1 X86.751 Y51.044 E0.07361
G1 X84.503 Y51.466 E0.07173
G1 X82.339 Y51.955 E0.06956
G1 X80.274 Y52.519 E0.06711
G1 X78.327 Y53.165 E0.06433
G1 X76.054 Y54.110 E0.07718
G1 X74.035 Y55.184 E0.07169
G1 X72.263 Y56.386 E0.06713
G1 X70.737 Y57.713 E0.06343
G1 X69.167 Y59.487 E0.07428
G1 X51.305 Y59.487 E0.56004
G1 X52.366 Y56.478 E0.10004
G1 X56.382 Y50.609 E0.22298
G1 X62.228 Y46.231 E0.22899
G1 X69.480 Y43.087 E0.24784
G1 X77.608 Y41.010 E0.26305
G1 X86.164 Y39.793 E0.27095
G1 X94.694 Y39.246 E0.26801
G1 X102.746 Y39.179 E0.25247
G1 X109.861 Y39.406 E0.22321
G1 X115.580 Y39.740 E0.17961
G1 X119.458 Y40.000 E0.12186
G1 X120.357 Y40.096 E0.02837
G1 X121.115 Y40.279 E0.02445
G1 X121.739 Y40.559 E0.02142
G1 X122.227 Y40.936 E0.01935
G1 X122.577 Y41.374 E0.01757
G1 X122.804 Y41.816 E0.01560
G1 X123.228 Y42.913 E0.03687
G1 X123.371 Y43.159 E0.00894
G1 X123.587 Y43.378 E0.00963
G1 X123.830 Y43.498 E0.00851
G1 X124.186 Y43.569 E0.01136
G1 X124.668 Y43.587 E0.01512
G1 X125.929 Y43.549 E0.03955
G1 X126.668 Y43.566 E0.02318
G1 X127.461 Y43.673 E0.02511
G1 X128.285 Y43.923 E0.02699
G1 X129.210 Y44.414 E0.03284
G1 X129.642 Y45.051 E0.02412
G1 X129.683 Y45.841 E0.02482
G1 X129.547 Y46.644 E0.02552
G1 X128.657 Y49.982 E0.10834
G1 X128.297 Y51.512 E0.04926
G1 X127.954 Y53.272 E0.05623
G1 X127.659 Y55.273 E0.06342
G1 X127.442 Y57.533 E0.07118
G1 X127.327 Y59.487 E0.06138
G1 X108.652 Y59.487 E0.58552
M204 S1250
G1 X108.969 Y59.110 F9000.000
M204 S800
;TYPE:External perimeter
G1 F1200.000
G1 X108.969 Y54.207 E0.15373
G1 X108.899 Y53.315 E0.02806
G1 X108.699 Y52.488 E0.02666
G1 X108.377 Y51.722 E0.02608
G1 X107.944 Y51.023 E0.02576
G1 X107.410 Y50.404 E0.02565
G1 X106.785 Y49.874 E0.02570
G1 X106.077 Y49.443 E0.02599
G1 X105.297 Y49.121 E0.02644
G1 X104.455 Y48.921 E0.02713
G1 X103.509 Y48.851 E0.02975
G1 X103.237 Y48.866 E0.00855
G1 X102.995 Y48.853 E0.00760
G1 X96.273 Y49.465 E0.21164
G1 X93.822 Y49.712 E0.07722
G1 X91.400 Y49.989 E0.07645
G1 X89.016 Y50.306 E0.07539
G1 X86.687 Y50.672 E0.07393
G1 X84.427 Y51.097 E0.07212
G1 X82.248 Y51.589 E0.07004
G1 X80.165 Y52.158 E0.06769
G1 X78.195 Y52.811 E0.06508
G1 X75.893 Y53.769 E0.07818
G1 X73.840 Y54.861 E0.07289
G1 X72.033 Y56.087 E0.06848
G1 X70.471 Y57.445 E0.06491
G1 X68.997 Y59.110 E0.06972
G1 X51.838 Y59.110 E0.53801
G1 X52.705 Y56.650 E0.08178
G1 X56.658 Y50.874 E0.21947
G1 X62.418 Y46.559 E0.22565
G1 X69.602 Y43.445 E0.24551
G1 X77.682 Y41.380 E0.26146
G1 X86.202 Y40.169 E0.26985
G1 X94.708 Y39.623 E0.26722
G1 X102.741 Y39.556 E0.25190
G1 X109.844 Y39.782 E0.22281
G1 X115.556 Y40.117 E0.17941
G1 X119.425 Y40.375 E0.12157
G1 X120.293 Y40.468 E0.02736
G1 X120.993 Y40.637 E0.02258
G1 X121.544 Y40.885 E0.01893
G1 X121.961 Y41.207 E0.01653
G1 X122.259 Y41.579 E0.01495
G1 X122.459 Y41.970 E0.01379
G1 X122.887 Y43.077 E0.03719
G1 X123.069 Y43.391 E0.01138
G1 X123.364 Y43.688 E0.01311
G1 X123.708 Y43.858 E0.01204
G1 X124.141 Y43.945 E0.01386
G1 X124.666 Y43.965 E0.01648
G1 X125.930 Y43.926 E0.03964
G1 X126.638 Y43.943 E0.02221
G1 X127.381 Y44.043 E0.02351
G1 X128.141 Y44.273 E0.02489
G1 X128.951 Y44.704 E0.02876
G1 X129.271 Y45.175 E0.01788
G1 X129.304 Y45.819 E0.02021
G1 X129.178 Y46.563 E0.02367
G1 X128.291 Y49.891 E0.10796
G1 X127.928 Y51.432 E0.04966
G1 X127.582 Y53.208 E0.05673
G1 X127.285 Y55.227 E0.06399
G1 X127.066 Y57.504 E0.07170
G1 X126.971 Y59.110 E0.05045
G1 X109.029 Y59.110 E0.56256
M204 S1250
G1 X108.570 Y59.122 F9000.000
G1 E-2.24000 F2400.000
;WIPE_START
G1 F7200.000
G1 X108.994 Y56.230 E-0.91200
;WIPE_END
G1 E-0.04800 F2400.000
G1 Z0.400 F9000.000
G1 X68.799 Y59.913
G1 Z0.200
G1 E3.20000 F1500.000
M204 S800
;TYPE:Perimeter
G1 F1200.000
G1 X67.585 Y62.453 E0.08828
G1 X66.999 Y64.297 E0.06066
G1 X66.646 Y66.281 E0.06320
G1 X66.527 Y68.409 E0.06682
G1 X66.640 Y70.442 E0.06385
G1 X66.975 Y72.334 E0.06024
G1 X67.528 Y74.086 E0.05763
G1 X68.301 Y75.704 E0.05621
G1 X69.601 Y77.656 E0.07353
G1 X69.156 Y78.487 E0.02956
G1 X52.052 Y78.487 E0.53630
G1 X51.342 Y76.043 E0.07979
G1 X50.697 Y72.629 E0.10893
G1 X50.370 Y69.182 E0.10858
G1 X50.365 Y65.773 E0.10688
G1 X50.688 Y62.478 E0.10382
G1 X51.232 Y59.913 E0.08220
G1 X68.739 Y59.913 E0.54893
M204 S1250
G1 X68.201 Y60.290 F9000.000
M204 S800
;TYPE:External perimeter
G1 F1200.000
G1 X67.234 Y62.314 E0.07034
G1 X66.632 Y64.206 E0.06225
G1 X66.270 Y66.238 E0.06469
G1 X66.149 Y68.409 E0.06819
G1 X66.265 Y70.486 E0.06521
G1 X66.608 Y72.424 E0.06172
G1 X67.177 Y74.225 E0.05923
G1 X67.972 Y75.891 E0.05787
G1 X69.162 Y77.677 E0.06730
G1 X68.930 Y78.110 E0.01540
G1 X52.335 Y78.110 E0.52034
G1 X51.709 Y75.955 E0.07034
G1 X51.071 Y72.577 E0.10782
G1 X50.748 Y69.164 E0.10749
G1 X50.742 Y65.791 E0.10574
G1 X51.062 Y62.535 E0.10258
G1 X51.537 Y60.290 E0.07196
