; generated by PrusaSlicer 2.3.3+win64 on 2022-06-16 at 07:39:48 UTC


;
;

;
;
; 

; external perimeters extrusion width = 0.45mm
; perimeters extrusion width = 0.45mm
; infill extrusion width = 0.45mm
; solid infill extrusion width = 0.45mm
; top infill extrusion width = 0.40mm
; first layer extrusion width = 0.42mm

M73 P0 R76
M201 X1250 Y1250 Z400 E5000 ; sets maximum accelerations, mm/sec^2
M203 X180 Y180 Z12 E80 ; sets maximum feedrates, mm/sec
M204 P1250 R1250 T1250 ; sets acceleration (P, T) and retract acceleration (R), mm/sec^2
M205 X8.00 Y8.00 Z2.00 E10.00 ; sets the jerk limits, mm/sec
M205 S0 T0 ; sets the minimum extruding and travel feed rate, mm/sec
M107
;TYPE:Custom
G90 ; use absolute coordinates
M83 ; extruder relative mode
M104 S170 ; set extruder temp for bed leveling
M140 S85 ; set bed temp
M109 R170 ; wait for bed leveling temp
M190 S85 ; wait for bed temp
G28 ; home all without mesh bed level
G29 ; mesh bed leveling 
M104 S230 ; set extruder temp
G92 E0.0
G1 Y-2.0 X179 F2400
M73 P0 R75
G1 Z3 F720
M109 S230 ; wait for extruder temp

; intro line
G1 X170 F1000
G1 Z0.2 F720
G1 X110.0 E8.0 F900
G1 X40.0 E10.0 F700
G92 E0.0

M221 S95 ; set flow
G21 ; set units to millimeters
G90 ; use absolute coordinates
M83 ; use relative distances for extrusion
M900 K0.2 ; Filament gcode
;LAYER_CHANGE
;Z:0.2
;HEIGHT:0.2
;BEFORE_LAYER_CHANGE
G92 E0.0
;0.2


G1 E-3.20000 F2400.000
G1 Z0.200 F9000.000
;AFTER_LAYER_CHANGE
;0.2
G1 Z0.400
G1 X44.075 Y39.169
G1 Z0.200
G1 E3.20000 F1500.000
M204 S800
;TYPE:Skirt
;WIDTH:0.42
G1 F1200.000
G1 X45.039 Y38.179 E0.04333
G1 X45.997 Y37.388 E0.03895
G1 X47.064 Y36.682 E0.04010
G1 X48.408 Y35.982 E0.04753
G1 X49.777 Y35.449 E0.04606
G1 X51.496 Y34.991 E0.05579
G1 X53.004 Y34.773 E0.04778
G1 X126.344 Y34.368 E2.29953
G1 X127.782 Y34.460 E0.04520
G1 X128.839 Y34.648 E0.03366
G1 X129.821 Y34.922 E0.03196
G1 X131.914 Y35.684 E0.06984
G1 X133.156 Y36.290 E0.04333
G1 X133.938 Y36.775 E0.02886
G1 X135.155 Y37.759 E0.04907
G1 X135.922 Y38.544 E0.03441
G1 X136.572 Y39.366 E0.03285
G1 X137.428 Y40.791 E0.05213
G1 X137.808 Y41.661 E0.02978
G1 X138.199 Y42.962 E0.04258
G1 X138.340 Y43.805 E0.02681
G1 X138.474 Y46.100 E0.07207
G1 X138.323 Y48.161 E0.06481
G1 X137.925 Y49.767 E0.05187
G1 X108.321 Y140.361 E2.98834
G1 X107.514 Y141.897 E0.05440
G1 X106.654 Y142.990 E0.04359
G1 X105.588 Y143.913 E0.04423
G1 X104.003 Y144.799 E0.05692
G1 X102.286 Y145.287 E0.05599
G1 X100.792 Y145.419 E0.04700
G1 X89.981 Y145.631 E0.33905
G1 X79.208 Y145.328 E0.33790
G1 X77.738 Y145.102 E0.04663
G1 X76.431 Y144.667 E0.04321
G1 X75.299 Y144.076 E0.04003
G1 X74.324 Y143.349 E0.03813
G1 X73.279 Y142.261 E0.04730
G1 X72.362 Y140.839 E0.05304
G1 X71.782 Y139.404 E0.04854
G1 X42.173 Y49.756 E2.96020
G1 X41.840 Y48.528 E0.03990
G1 X41.626 Y47.358 E0.03727
G1 X41.527 Y45.830 E0.04802
G1 X41.623 Y44.510 E0.04150
G1 X41.906 Y43.197 E0.04211
G1 X42.503 Y41.586 E0.05385
G1 X43.188 Y40.349 E0.04436
G1 X44.039 Y39.217 E0.04439
M204 S1250
; printing object Smashing Curcan-Gaaris.stl id:0 copy 0
G1 E-2.24000 F2400.000
;WIPE_START
G1 F7200.000
G1 X45.039 Y38.179 E-0.45644
G1 X45.997 Y37.388 E-0.39342
G1 X46.161 Y37.280 E-0.06214
;WIPE_END
G1 E-0.04800 F2400.000
G1 Z0.400 F9000.000
G1 X69.495 Y100.213
G1 Z0.200
G1 E3.20000 F1500.000
M204 S800
;TYPE:Perimeter
G1 F1200.000
G1 X110.386 Y100.213 E1.28211
G1 X109.891 Y101.936 E0.05621
G1 X109.146 Y104.831 E0.09374
G1 X108.366 Y108.217 E0.10893
G1 X107.838 Y110.646 E0.07796
G1 X106.881 Y115.217 E0.14641
G1 X105.767 Y120.787 E0.17811
G1 X74.504 Y120.787 E0.98025
G1 X73.141 Y113.800 E0.22320
G1 X72.249 Y109.599 E0.13466
G1 X71.883 Y108.065 E0.04944
G1 X71.433 Y106.438 E0.05293
G1 X70.838 Y104.438 E0.06543
G1 X69.513 Y100.270 E0.13713
M204 S1250
G1 X70.010 Y100.590 F9000.000
M204 S800
;TYPE:External perimeter
G1 F1200.000
G1 X109.885 Y100.590 E1.25025
G1 X109.527 Y101.837 E0.04067
G1 X108.779 Y104.742 E0.09406
G1 X107.998 Y108.135 E0.10915
G1 X107.469 Y110.568 E0.07807
G1 X106.512 Y115.141 E0.14651
G1 X105.458 Y120.410 E0.16847
G1 X74.814 Y120.410 E0.96081
G1 X73.510 Y113.725 E0.21356
G1 X72.617 Y109.516 E0.13491
M73 P1 R75
G1 X72.248 Y107.971 E0.04979
G1 X71.796 Y106.334 E0.05325
G1 X71.198 Y104.327 E0.06566
G1 X70.028 Y100.647 E0.12107
M204 S1250
G1 X69.970 Y100.192 F9000.000
G1 E-2.24000 F2400.000
;WIPE_START
G1 F7200.000
G1 X72.908 Y100.643 E-0.91200
;WIPE_END
G1 E-0.04800 F2400.000
G1 Z0.400 F9000.000
G1 X61.406 Y80.213
G1 Z0.200
G1 E3.20000 F1500.000
M204 S800
;TYPE:Perimeter
G1 F1200.000
G1 X84.089 Y80.213 E0.71121
G1 X84.587 Y82.332 E0.06825
G1 X85.458 Y85.830 E0.11303
G1 X86.486 Y89.657 E0.12426
G1 X87.597 Y93.371 E0.12154
G1 X88.713 Y96.520 E0.10477
G1 X90.063 Y99.307 E0.09709
G1 X91.419 Y96.549 E0.09635
G1 X92.485 Y93.457 E0.10255
G1 X93.528 Y89.758 E0.12050
G1 X94.474 Y85.960 E0.12271
G1 X95.780 Y80.213 E0.18480
G1 X118.028 Y80.213 E0.69755
G1 X116.691 Y83.234 E0.10358
G1 X115.821 Y85.312 E0.07065
G1 X114.867 Y87.713 E0.08100
G1 X111.908 Y95.560 E0.26293
G1 X111.259 Y97.412 E0.06154
G1 X110.499 Y99.787 E0.07819
G1 X69.350 Y99.787 E1.29021
G1 X68.496 Y97.276 E0.08316
G1 X67.643 Y94.861 E0.08030
G1 X66.808 Y92.612 E0.07522
G1 X66.024 Y90.631 E0.06681
G1 X65.225 Y88.706 E0.06533
G1 X63.867 Y85.581 E0.10683
G1 X61.431 Y80.267 E0.18329
M204 S1250
G1 E-2.24000 F2400.000
;WIPE_START
G1 F7200.000
G1 X64.311 Y80.261 E-0.91200
;WIPE_END
G1 E-0.04800 F2400.000
G1 Z0.400 F9000.000
G1 X96.081 Y80.590
G1 Z0.200
G1 E3.20000 F1500.000
M204 S800
;TYPE:External perimeter
G1 F1200.000
G1 X117.449 Y80.590 E0.66995
G1 X116.345 Y83.085 E0.08554
G1 X115.472 Y85.170 E0.07087
G1 X114.515 Y87.577 E0.08121
G1 X111.553 Y95.431 E0.26318
G1 X110.902 Y97.292 E0.06184
G1 X110.224 Y99.410 E0.06972
G1 X90.433 Y99.410 E0.62054
G1 X91.768 Y96.694 E0.09489
G1 X92.845 Y93.569 E0.10363
G1 X93.893 Y89.855 E0.12102
G1 X94.841 Y86.048 E0.12301
G1 X96.068 Y80.649 E0.17360
M204 S1250
G1 X96.112 Y80.191 F9000.000
G1 E-2.24000 F2400.000
;WIPE_START
G1 F7200.000
G1 X98.948 Y80.641 E-0.91200
;WIPE_END
G1 E-0.04800 F2400.000
G1 Z0.400 F9000.000
G1 X61.993 Y80.590
G1 Z0.200
G1 E3.20000 F1500.000
M204 S800
G1 F1200.000
G1 X83.790 Y80.590 E0.68342
M73 P1 R74
G1 X84.220 Y82.421 E0.05896
G1 X85.093 Y85.924 E0.11321
G1 X86.123 Y89.760 E0.12453
G1 X87.239 Y93.488 E0.12200
G1 X88.365 Y96.666 E0.10571
G1 X89.694 Y99.410 E0.09561
G1 X69.620 Y99.410 E0.62942
G1 X68.853 Y97.152 E0.07476
G1 X67.998 Y94.733 E0.08046
G1 X67.160 Y92.477 E0.07545
G1 X66.373 Y90.489 E0.06704
G1 X65.572 Y88.559 E0.06552
G1 X64.212 Y85.427 E0.10705
G1 X62.018 Y80.645 E0.16498
M204 S1250
G1 X61.937 Y80.194 F9000.000
G1 E-2.24000 F2400.000
;WIPE_START
G1 F7200.000
G1 X64.898 Y80.637 E-0.91200
;WIPE_END
G1 E-0.04800 F2400.000
G1 Z0.400 F9000.000
G1 X52.330 Y60.213
G1 Z0.200
G1 E3.20000 F1500.000
M204 S800
;TYPE:Perimeter
G1 F1200.000
G1 X81.988 Y60.213 E0.92989
G1 X81.915 Y61.390 E0.03699
G1 X81.881 Y62.870 E0.04639
G1 X81.897 Y64.293 E0.04464
G1 X81.947 Y65.652 E0.04264
G1 X82.099 Y68.161 E0.07882
G1 X82.208 Y69.617 E0.04578
G1 X82.348 Y70.979 E0.04292
G1 X82.514 Y72.266 E0.04069
G1 X82.704 Y73.493 E0.03891
G1 X82.911 Y74.672 E0.03752
G1 X83.365 Y76.949 E0.07280
G1 X83.981 Y79.787 E0.09108
G1 X61.208 Y79.787 E0.71405
G1 X58.466 Y73.741 E0.20815
G1 X55.475 Y66.968 E0.23215
G1 X52.355 Y60.267 E0.23175
M204 S1250
G1 X52.922 Y60.590 F9000.000
M204 S800
;TYPE:External perimeter
G1 F1200.000
G1 X81.586 Y60.590 E0.89877
G1 X81.538 Y61.374 E0.02464
G1 X81.504 Y62.867 E0.04682
G1 X81.520 Y64.302 E0.04499
G1 X81.571 Y65.670 E0.04293
G1 X81.723 Y68.187 E0.07904
G1 X81.832 Y69.651 E0.04603
G1 X81.973 Y71.023 E0.04324
G1 X82.141 Y72.319 E0.04099
G1 X82.332 Y73.554 E0.03917
G1 X82.540 Y74.741 E0.03778
G1 X82.995 Y77.025 E0.07304
G1 X83.514 Y79.410 E0.07651
G1 X61.451 Y79.410 E0.69176
G1 X58.810 Y73.587 E0.20047
G1 X55.819 Y66.812 E0.23221
G1 X52.947 Y60.644 E0.21332
M204 S1250
G1 X52.865 Y60.194 F9000.000
G1 E-2.24000 F2400.000
;WIPE_START
G1 F7200.000
G1 X55.827 Y60.639 E-0.91200
;WIPE_END
G1 E-0.04800 F2400.000
G1 Z0.400 F9000.000
G1 X82.018 Y59.787
G1 Z0.200
G1 E3.20000 F1500.000
M204 S800
;TYPE:Perimeter
G1 F1200.000
G1 X52.116 Y59.787 E0.93753
G1 X50.948 Y57.466 E0.08146
G1 X49.742 Y54.997 E0.08616
G1 X49.263 Y53.961 E0.03580
G1 X48.451 Y52.059 E0.06483
G1 X47.670 Y50.037 E0.06796
G1 X47.032 Y48.229 E0.06013
G1 X46.804 Y47.420 E0.02633
G1 X46.652 Y46.652 E0.02456
G1 X46.592 Y45.902 E0.02359
G1 X46.638 Y45.157 E0.02340
G1 X46.799 Y44.445 E0.02289
G1 X47.090 Y43.699 E0.02512
G1 X47.673 Y42.732 E0.03539
G1 X48.391 Y41.939 E0.03356
G1 X49.172 Y41.316 E0.03131
G1 X49.961 Y40.842 E0.02885
G1 X50.708 Y40.497 E0.02581
G1 X51.372 Y40.256 E0.02215
G1 X52.225 Y40.030 E0.02767
G1 X53.114 Y39.888 E0.02822
G1 X54.036 Y39.838 E0.02894
G1 X54.970 Y39.884 E0.02933
G1 X55.902 Y40.026 E0.02956
G1 X56.819 Y40.270 E0.02975
G1 X57.705 Y40.619 E0.02985
G1 X58.546 Y41.077 E0.03003
G1 X59.304 Y41.638 E0.02959
G1 X59.833 Y42.113 E0.02228
G1 X60.335 Y42.613 E0.02222
G1 X61.718 Y44.080 E0.06322
G1 X62.132 Y44.492 E0.01829
G1 X62.512 Y44.826 E0.01589
G1 X62.862 Y45.075 E0.01346
G1 X63.006 Y45.156 E0.00517
G1 X63.503 Y45.342 E0.01664
G1 X64.098 Y45.485 E0.01921
G1 X64.633 Y45.553 E0.01690
G1 X64.896 Y45.539 E0.00826
G1 X65.303 Y45.437 E0.01314
G1 X65.769 Y45.278 E0.01545
G1 X66.363 Y45.033 E0.02015
G1 X67.536 Y44.366 E0.04229
G1 X68.872 Y43.532 E0.04939
G1 X69.770 Y42.936 E0.03380
G1 X70.199 Y42.670 E0.01584
G1 X70.779 Y42.350 E0.02076
G1 X71.496 Y42.007 E0.02492
G1 X72.335 Y41.675 E0.02830
G1 X73.283 Y41.382 E0.03109
G1 X74.327 Y41.158 E0.03350
G1 X75.436 Y41.040 E0.03496
G1 X76.473 Y41.006 E0.03254
G1 X77.162 Y41.042 E0.02162
G1 X77.924 Y41.143 E0.02410
G1 X78.744 Y41.335 E0.02639
G1 X79.597 Y41.644 E0.02845
G1 X80.458 Y42.095 E0.03046
G1 X81.294 Y42.704 E0.03245
G1 X81.900 Y43.296 E0.02655
G1 X82.395 Y43.905 E0.02459
G1 X82.791 Y44.516 E0.02286
G1 X83.102 Y45.108 E0.02095
G1 X83.339 Y45.663 E0.01893
G1 X83.513 Y46.168 E0.01676
G1 X83.708 Y46.921 E0.02439
G1 X83.791 Y47.422 E0.01592
G1 X83.828 Y47.912 E0.01540
G1 X83.819 Y48.408 E0.01554
G1 X83.772 Y48.920 E0.01613
G1 X83.692 Y49.478 E0.01768
G1 X83.174 Y52.286 E0.08953
G1 X82.665 Y55.419 E0.09952
G1 X82.443 Y56.669 E0.03981
G1 X82.180 Y58.292 E0.05152
G1 X82.024 Y59.727 E0.04529
M204 S1250
G1 X81.679 Y59.410 F9000.000
M204 S800
;TYPE:External perimeter
G1 F1200.000
G1 X52.349 Y59.410 E0.91964
G1 X51.286 Y57.299 E0.07411
G1 X50.082 Y54.835 E0.08596
G1 X49.608 Y53.807 E0.03550
G1 X48.800 Y51.917 E0.06445
G1 X48.024 Y49.907 E0.06758
G1 X47.392 Y48.115 E0.05958
G1 X47.171 Y47.333 E0.02548
G1 X47.026 Y46.600 E0.02340
G1 X46.970 Y45.899 E0.02207
G1 X47.013 Y45.211 E0.02161
G1 X47.160 Y44.556 E0.02105
G1 X47.430 Y43.866 E0.02322
G1 X47.977 Y42.958 E0.03324
G1 X48.650 Y42.214 E0.03146
G1 X49.388 Y41.626 E0.02957
G1 X50.138 Y41.176 E0.02743
G1 X50.852 Y40.846 E0.02467
G1 X51.485 Y40.616 E0.02111
G1 X52.303 Y40.400 E0.02655
G1 X53.154 Y40.264 E0.02702
G1 X54.037 Y40.215 E0.02771
G1 X54.932 Y40.260 E0.02811
G1 X55.825 Y40.396 E0.02831
G1 X56.701 Y40.629 E0.02843
G1 X57.545 Y40.961 E0.02843
G1 X58.342 Y41.396 E0.02847
G1 X59.065 Y41.931 E0.02821
G1 X59.574 Y42.387 E0.02141
G1 X60.065 Y42.876 E0.02173
G1 X61.447 Y44.344 E0.06323
G1 X61.874 Y44.767 E0.01885
G1 X62.278 Y45.122 E0.01686
G1 X62.660 Y45.394 E0.01470
G1 X62.847 Y45.499 E0.00671
G1 X63.392 Y45.703 E0.01827
G1 X64.030 Y45.856 E0.02058
G1 X64.608 Y45.930 E0.01827
G1 X64.967 Y45.910 E0.01127
G1 X65.410 Y45.799 E0.01431
G1 X65.902 Y45.631 E0.01631
G1 X66.529 Y45.372 E0.02126
G1 X67.729 Y44.690 E0.04328
G1 X69.076 Y43.849 E0.04980
G1 X69.974 Y43.253 E0.03378
G1 X70.390 Y42.995 E0.01535
G1 X70.951 Y42.685 E0.02011
G1 X71.647 Y42.353 E0.02417
G1 X72.461 Y42.031 E0.02744
G1 X73.378 Y41.747 E0.03011
G1 X74.387 Y41.531 E0.03235
G1 X75.462 Y41.416 E0.03390
G1 X76.470 Y41.384 E0.03161
G1 X77.128 Y41.417 E0.02065
G1 X77.856 Y41.514 E0.02304
G1 X78.636 Y41.697 E0.02512
G1 X79.445 Y41.990 E0.02696
G1 X80.258 Y42.416 E0.02879
G1 X81.050 Y42.993 E0.03073
G1 X81.621 Y43.550 E0.02502
G1 X82.089 Y44.127 E0.02328
G1 X82.465 Y44.707 E0.02168
G1 X82.761 Y45.270 E0.01994
G1 X82.987 Y45.799 E0.01805
G1 X83.152 Y46.277 E0.01587
G1 X83.339 Y47.000 E0.02339
G1 X83.417 Y47.467 E0.01486
G1 X83.450 Y47.923 E0.01434
G1 X83.443 Y48.387 E0.01455
G1 X83.397 Y48.876 E0.01539
G1 X83.320 Y49.417 E0.01715
G1 X82.803 Y52.222 E0.08941
G1 X82.293 Y55.356 E0.09956
G1 X82.071 Y56.606 E0.03981
G1 X81.806 Y58.241 E0.05192
G1 X81.686 Y59.350 E0.03499
M204 S1250
G1 X81.661 Y59.810 F9000.000
G1 E-2.24000 F2400.000
;WIPE_START
G1 F7200.000
G1 X78.806 Y59.356 E-0.91200
;WIPE_END
G1 E-0.04800 F2400.000
G1 Z0.400 F9000.000
G1 X98.251 Y61.213
G1 Z0.200
G1 E3.20000 F1500.000
M204 S800
;TYPE:Perimeter
G1 F1200.000
G1 X126.860 Y61.213 E0.89704
G1 X126.082 Y62.939 E0.05935
G1 X125.302 Y64.800 E0.06330
G1 X124.643 Y66.259 E0.05019
G1 X123.117 Y69.481 E0.11177
G1 X120.885 Y74.103 E0.16094
G1 X118.235 Y79.787 E0.19663
G1 X95.871 Y79.787 E0.70122
G1 X96.292 Y77.948 E0.05915
G1 X97.169 Y74.778 E0.10314
G1 X97.473 Y73.563 E0.03927
G1 X97.742 Y72.313 E0.04008
G1 X97.965 Y70.987 E0.04214
G1 X98.127 Y69.582 E0.04437
G1 X98.212 Y68.079 E0.04720
G1 X98.292 Y64.223 E0.12093
M73 P2 R74
G1 X98.291 Y62.683 E0.04827
G1 X98.252 Y61.273 E0.04423
M204 S1250
G1 X98.638 Y61.590 F9000.000
M204 S800
;TYPE:External perimeter
G1 F1200.000
G1 X126.277 Y61.590 E0.86658
G1 X125.736 Y62.788 E0.04121
G1 X124.956 Y64.650 E0.06330
G1 X124.300 Y66.101 E0.04992
G1 X122.777 Y69.318 E0.11162
G1 X120.544 Y73.942 E0.16097
G1 X117.995 Y79.410 E0.18917
G1 X96.344 Y79.410 E0.67886
G1 X96.657 Y78.041 E0.04405
G1 X97.533 Y74.874 E0.10302
G1 X97.841 Y73.648 E0.03962
G1 X98.112 Y72.384 E0.04055
G1 X98.339 Y71.040 E0.04272
G1 X98.503 Y69.614 E0.04502
G1 X98.589 Y68.093 E0.04776
G1 X98.669 Y64.226 E0.12127
G1 X98.668 Y62.678 E0.04855
G1 X98.640 Y61.650 E0.03224
M204 S1250
G1 X98.637 Y61.190 F9000.000
G1 E-2.24000 F2400.000
;WIPE_START
G1 F7200.000
G1 X101.520 Y61.644 E-0.91200
;WIPE_END
G1 E-0.04800 F2400.000
G1 Z0.400 F9000.000
G1 X127.116 Y60.787
G1 Z0.200
G1 E3.20000 F1500.000
M204 S800
;TYPE:Perimeter
G1 F1200.000
G1 X98.227 Y60.787 E0.90580
G1 X98.145 Y59.534 E0.03938
G1 X97.969 Y58.032 E0.04739
G1 X97.698 Y56.627 E0.04488
G1 X97.049 Y53.691 E0.09426
G1 X96.495 Y50.845 E0.09093
G1 X96.288 Y49.577 E0.04027
G1 X96.147 Y48.475 E0.03483
G1 X96.088 Y47.563 E0.02867
G1 X96.137 Y46.883 E0.02139
G1 X96.295 Y46.296 E0.01906
G1 X96.496 Y45.740 E0.01853
G1 X96.750 Y45.207 E0.01852
G1 X97.057 Y44.698 E0.01864
G1 X97.418 Y44.214 E0.01893
G1 X97.834 Y43.751 E0.01952
G1 X98.307 Y43.310 E0.02029
G1 X98.834 Y42.889 E0.02113
G1 X99.975 Y42.095 E0.04358
G1 X100.650 Y41.706 E0.02444
G1 X101.293 Y41.424 E0.02199
G1 X101.633 Y41.314 E0.01121
G1 X102.096 Y41.203 E0.01492
G1 X102.737 Y41.090 E0.02043
G1 X103.151 Y41.044 E0.01305
G1 X104.078 Y41.013 E0.02907
G1 X104.629 Y41.040 E0.01729
G1 X105.551 Y41.147 E0.02911
G1 X106.392 Y41.285 E0.02671
G1 X107.188 Y41.472 E0.02566
G1 X107.954 Y41.726 E0.02530
G1 X108.703 Y42.063 E0.02574
G1 X109.445 Y42.492 E0.02687
G1 X110.193 Y43.022 E0.02877
G1 X112.009 Y44.500 E0.07339
G1 X112.879 Y45.073 E0.03269
G1 X113.594 Y45.432 E0.02507
G1 X114.160 Y45.625 E0.01875
G1 X114.591 Y45.698 E0.01372
G1 X114.915 Y45.700 E0.01015
G1 X115.171 Y45.663 E0.00812
G1 X116.018 Y45.470 E0.02722
G1 X116.368 Y45.325 E0.01189
G1 X116.571 Y45.211 E0.00730
G1 X116.950 Y44.961 E0.01424
G1 X117.992 Y44.171 E0.04099
G1 X119.182 Y43.181 E0.04854
G1 X120.303 Y42.173 E0.04727
G1 X120.789 Y41.703 E0.02118
G1 X121.378 Y41.193 E0.02444
G1 X122.125 Y40.691 E0.02820
G1 X122.987 Y40.246 E0.03044
G1 X123.952 Y39.881 E0.03233
G1 X125.004 Y39.628 E0.03393
G1 X126.125 Y39.521 E0.03533
G1 X127.295 Y39.592 E0.03675
G1 X128.453 Y39.869 E0.03731
G1 X129.355 Y40.172 E0.02985
G1 X130.160 Y40.495 E0.02718
G1 X130.553 Y40.694 E0.01381
G1 X130.920 Y40.915 E0.01343
G1 X131.280 Y41.178 E0.01400
G1 X131.608 Y41.472 E0.01382
G1 X131.972 Y41.855 E0.01655
G1 X132.285 Y42.247 E0.01571
G1 X132.547 Y42.636 E0.01471
