; generated by PrusaSlicer 2.3.3+win64 on 2022-06-08 at 12:20:38 UTC


;
;

;
;
; 

; external perimeters extrusion width = 0.45mm
; perimeters extrusion width = 0.45mm
; infill extrusion width = 0.45mm
; solid infill extrusion width = 0.45mm
; top infill extrusion width = 0.40mm
; first layer extrusion width = 0.42mm

M73 P0 R90
M201 X1250 Y1250 Z400 E5000 ; sets maximum accelerations, mm/sec^2
M203 X180 Y180 Z12 E80 ; sets maximum feedrates, mm/sec
M204 P1250 R1250 T1250 ; sets acceleration (P, T) and retract acceleration (R), mm/sec^2
M205 X8.00 Y8.00 Z2.00 E10.00 ; sets the jerk limits, mm/sec
M205 S0 T0 ; sets the minimum extruding and travel feed rate, mm/sec
M107
;TYPE:Custom
G90 ; use absolute coordinates
M83 ; extruder relative mode
M104 S170 ; set extruder temp for bed leveling
M140 S85 ; set bed temp
M109 R170 ; wait for bed leveling temp
M190 S85 ; wait for bed temp
G28 ; home all without mesh bed level
G29 ; mesh bed leveling 
M104 S230 ; set extruder temp
G92 E0.0
G1 Y-2.0 X179 F2400
G1 Z3 F720
M109 S230 ; wait for extruder temp

; intro line
G1 X170 F1000
G1 Z0.2 F720
G1 X110.0 E8.0 F900
G1 X40.0 E10.0 F700
G92 E0.0

M221 S95 ; set flow
G21 ; set units to millimeters
G90 ; use absolute coordinates
M83 ; use relative distances for extrusion
M900 K0.2 ; Filament gcode
;LAYER_CHANGE
;Z:0.2
;HEIGHT:0.2
;BEFORE_LAYER_CHANGE
G92 E0.0
;0.2


G1 E-3.20000 F2400.000
G1 Z0.200 F9000.000
;AFTER_LAYER_CHANGE
;0.2
G1 Z0.400
G1 X76.422 Y35.284
G1 Z0.200
G1 E3.20000 F1500.000
M204 S800
;TYPE:Skirt
;WIDTH:0.42
G1 F1200.000
G1 X77.652 Y34.561 E0.04474
G1 X79.025 Y34.056 E0.04588
G1 X80.486 Y33.768 E0.04668
G1 X81.957 Y33.680 E0.04619
G1 X97.543 Y33.610 E0.48868
G1 X98.616 Y33.665 E0.03370
G1 X100.062 Y33.917 E0.04604
G1 X101.137 Y34.240 E0.03520
G1 X102.175 Y34.674 E0.03526
G1 X102.799 Y35.003 E0.02214
G1 X104.334 Y36.046 E0.05817
G1 X105.727 Y37.617 E0.06583
G1 X135.812 Y85.039 E1.76086
G1 X136.906 Y86.952 E0.06910
G1 X137.872 Y89.076 E0.07316
G1 X138.660 Y91.314 E0.07440
G1 X139.287 Y93.737 E0.07847
G1 X139.714 Y96.137 E0.07644
G1 X139.988 Y98.770 E0.08300
G1 X140.088 Y101.449 E0.08405
G1 X140.025 Y104.164 E0.08514
G1 X139.832 Y106.379 E0.06973
G1 X139.492 Y108.491 E0.06706
G1 X139.011 Y110.580 E0.06721
G1 X138.323 Y112.859 E0.07466
G1 X137.561 Y114.896 E0.06821
G1 X136.642 Y116.954 E0.07065
G1 X135.596 Y118.950 E0.07068
G1 X134.445 Y120.845 E0.06949
G1 X133.083 Y122.786 E0.07434
G1 X131.724 Y124.469 E0.06783
G1 X130.260 Y126.060 E0.06780
G1 X128.598 Y127.635 E0.07179
G1 X126.747 Y129.145 E0.07491
G1 X124.573 Y130.650 E0.08289
G1 X103.183 Y144.765 E0.80354
G1 X102.111 Y145.420 E0.03940
G1 X100.888 Y145.934 E0.04159
G1 X99.469 Y146.279 E0.04577
G1 X98.041 Y146.390 E0.04491
G1 X82.597 Y146.142 E0.48432
G1 X80.915 Y146.015 E0.05288
G1 X79.058 Y145.591 E0.05971
G1 X78.148 Y145.258 E0.03039
G1 X77.172 Y144.780 E0.03408
G1 X53.384 Y129.376 E0.88857
G1 X50.175 Y126.806 E0.12890
G1 X47.285 Y123.713 E0.13272
G1 X44.721 Y120.042 E0.14040
G1 X42.554 Y115.846 E0.14809
G1 X41.580 Y113.253 E0.08683
G1 X40.895 Y110.671 E0.08375
G1 X40.382 Y107.846 E0.09003
G1 X40.081 Y105.215 E0.08303
G1 X39.929 Y102.599 E0.08216
G1 X39.914 Y99.985 E0.08199
G1 X40.016 Y97.683 E0.07223
G1 X40.226 Y95.506 E0.06857
G1 X40.529 Y93.638 E0.05935
G1 X41.183 Y91.323 E0.07543
G1 X42.130 Y88.982 E0.07918
G1 X43.653 Y86.002 E0.10491
G1 X74.537 Y37.217 E1.81037
G1 X75.333 Y36.241 E0.03949
G1 X76.377 Y35.323 E0.04358
M204 S1250
; printing object Neat Curcan-Uusam.stl id:0 copy 0
G1 E-2.24000 F2400.000
;WIPE_START
G1 F7200.000
G1 X77.652 Y34.561 E-0.47049
G1 X78.961 Y34.079 E-0.44151
;WIPE_END
G1 E-0.04800 F2400.000
G1 Z0.400 F9000.000
G1 X80.261 Y92.484
G1 Z0.200
G1 E3.20000 F1500.000
M204 S800
;TYPE:Perimeter
G1 F1200.000
G1 X80.490 Y97.809 E0.16711
G1 X80.699 Y103.757 E0.18662
G1 X80.778 Y106.857 E0.09723
G1 X80.818 Y109.706 E0.08932
G1 X80.803 Y112.063 E0.07390
G1 X80.712 Y113.749 E0.05293
G1 X80.319 Y115.006 E0.04131
G1 X77.386 Y114.586 E0.09291
G1 X75.024 Y114.090 E0.07568
G1 X72.842 Y113.448 E0.07132
G1 X70.855 Y112.643 E0.06719
G1 X69.087 Y111.659 E0.06346
G1 X67.558 Y110.475 E0.06062
G1 X66.300 Y109.078 E0.05895
G1 X65.346 Y107.460 E0.05890
G1 X64.729 Y105.624 E0.06072
G1 X64.466 Y103.565 E0.06508
G1 X64.656 Y101.235 E0.07330
G1 X65.369 Y99.204 E0.06749
G1 X66.522 Y97.493 E0.06470
G1 X68.017 Y96.091 E0.06424
G1 X69.763 Y94.973 E0.06500
G1 X71.682 Y94.105 E0.06606
G1 X73.704 Y93.452 E0.06663
G1 X75.762 Y92.990 E0.06612
G1 X77.788 Y92.690 E0.06421
G1 X80.202 Y92.489 E0.07595
M204 S1250
G1 X79.902 Y92.893 F9000.000
M204 S800
;TYPE:External perimeter
G1 F1200.000
G1 X80.114 Y97.824 E0.15476
G1 X80.322 Y103.769 E0.18651
G1 X80.401 Y106.865 E0.09711
G1 X80.441 Y109.707 E0.08914
G1 X80.426 Y112.051 E0.07350
G1 X80.338 Y113.681 E0.05118
G1 X80.055 Y114.588 E0.02977
G1 X77.452 Y114.214 E0.08246
G1 X75.116 Y113.724 E0.07483
G1 X72.966 Y113.092 E0.07027
G1 X71.019 Y112.303 E0.06588
G1 X69.296 Y111.343 E0.06184
G1 X67.816 Y110.198 E0.05867
G1 X66.606 Y108.854 E0.05670
G1 X65.691 Y107.302 E0.05647
G1 X65.098 Y105.539 E0.05832
G1 X64.845 Y103.556 E0.06267
G1 X65.028 Y101.314 E0.07054
G1 X65.709 Y99.375 E0.06445
G1 X66.811 Y97.739 E0.06185
G1 X68.249 Y96.390 E0.06182
G1 X69.943 Y95.306 E0.06306
G1 X71.818 Y94.457 E0.06454
G1 X73.804 Y93.816 E0.06543
G1 X75.831 Y93.361 E0.06514
G1 X77.831 Y93.064 E0.06339
G1 X79.842 Y92.898 E0.06327
M204 S1250
G1 X80.301 Y92.866 F9000.000
G1 E-2.24000 F2400.000
;WIPE_START
G1 F7200.000
G1 X80.001 Y95.773 E-0.91200
;WIPE_END
G1 E-0.04800 F2400.000
G1 Z0.400 F9000.000
G1 X70.579 Y79.875
G1 Z0.200
G1 E3.20000 F1500.000
M204 S800
;TYPE:Perimeter
G1 F1200.000
G1 X63.755 Y79.875 E0.21396
G1 X63.725 Y78.234 E0.05147
G1 X67.122 Y78.108 E0.10658
G1 X69.776 Y78.200 E0.08327
G1 X70.645 Y78.272 E0.02734
G1 X70.581 Y79.815 E0.04844
M204 S1250
G1 X70.217 Y79.498 F9000.000
M204 S800
;TYPE:External perimeter
G1 F1200.000
G1 X64.125 Y79.498 E0.19101
G1 X64.109 Y78.597 E0.02825
G1 X67.122 Y78.485 E0.09455
G1 X69.754 Y78.577 E0.08257
G1 X70.253 Y78.618 E0.01571
G1 X70.220 Y79.438 E0.02574
M204 S1250
G1 X70.279 Y79.893 F9000.000
G1 E-2.24000 F2400.000
;WIPE_START
G1 F7200.000
G1 X67.340 Y79.466 E-0.91200
;WIPE_END
G1 E-0.04800 F2400.000
G1 Z0.400 F9000.000
G1 X57.652 Y79.833
G1 Z0.200
G1 E3.20000 F1500.000
M204 S800
;TYPE:Perimeter
G1 F1200.000
G1 X57.652 Y80.301 E0.01466
G1 X122.060 Y80.301 E2.01946
G1 X123.187 Y80.684 E0.03732
G1 X127.938 Y83.782 E0.17783
G1 X131.751 Y88.517 E0.19062
G1 X134.147 Y95.133 E0.22063
G1 X134.385 Y98.875 E0.11757
G1 X118.348 Y98.875 E0.50285
G1 X117.780 Y97.712 E0.04058
G1 X116.523 Y96.070 E0.06483
G1 X114.903 Y94.610 E0.06839
G1 X112.924 Y93.348 E0.07358
G1 X110.599 Y92.299 E0.07998
G1 X107.942 Y91.482 E0.08717
G1 X104.968 Y90.914 E0.09492
G1 X101.681 Y90.608 E0.10352
G1 X98.962 Y90.473 E0.08536
G1 X98.558 Y99.875 E0.29508
G1 X82.819 Y99.875 E0.49347
G1 X82.535 Y93.176 E0.21022
G1 X82.397 Y90.437 E0.08600
G1 X79.639 Y90.573 E0.08659
G1 X76.446 Y90.887 E0.10061
G1 X73.559 Y91.462 E0.09229
G1 X70.980 Y92.283 E0.08486
G1 X68.723 Y93.333 E0.07804
G1 X66.803 Y94.595 E0.07205
G1 X65.228 Y96.053 E0.06729
G1 X64.004 Y97.692 E0.06413
G1 X62.963 Y99.875 E0.07585
G1 X45.034 Y99.875 E0.56213
G1 X45.113 Y98.027 E0.05798
G1 X45.275 Y96.248 E0.05601
G1 X45.499 Y94.768 E0.04694
G1 X45.767 Y93.664 E0.03561
G1 X46.043 Y92.827 E0.02764
G1 X46.418 Y91.844 E0.03298
G1 X46.898 Y90.734 E0.03793
G1 X47.490 Y89.526 E0.04218
G1 X48.198 Y88.253 E0.04567
G1 X49.025 Y86.946 E0.04850
G1 X49.978 Y85.636 E0.05078
G1 X51.061 Y84.358 E0.05254
G1 X52.282 Y83.142 E0.05401
G1 X53.651 Y82.019 E0.05554
G1 X56.271 Y80.412 E0.09636
G1 X57.597 Y79.856 E0.04508
M204 S1250
M73 P1 R90
G1 X57.275 Y80.400 F9000.000
M204 S800
;TYPE:External perimeter
G1 F1200.000
G1 X57.275 Y80.678 E0.00872
G1 X121.998 Y80.678 E2.02933
G1 X123.021 Y81.025 E0.03388
G1 X127.681 Y84.065 E0.17447
M73 P1 R89
G1 X131.418 Y88.704 E0.18677
G1 X133.774 Y95.210 E0.21697
G1 X133.984 Y98.498 E0.10329
G1 X118.583 Y98.498 E0.48286
G1 X118.103 Y97.513 E0.03438
G1 X116.801 Y95.813 E0.06711
G1 X115.132 Y94.309 E0.07046
G1 X113.104 Y93.016 E0.07541
G1 X110.733 Y91.945 E0.08158
G1 X108.033 Y91.116 E0.08856
G1 X105.021 Y90.540 E0.09613
G1 X101.708 Y90.232 E0.10435
G1 X98.601 Y90.077 E0.09752
G1 X98.197 Y99.498 E0.29566
G1 X83.181 Y99.498 E0.47082
G1 X82.911 Y93.159 E0.19893
G1 X82.755 Y90.042 E0.09786
G1 X79.611 Y90.197 E0.09869
G1 X76.390 Y90.514 E0.10148
G1 X73.464 Y91.097 E0.09354
G1 X70.842 Y91.931 E0.08628
G1 X68.539 Y93.003 E0.07966
G1 X66.570 Y94.297 E0.07389
G1 X64.946 Y95.799 E0.06935
G1 X63.680 Y97.496 E0.06638
G1 X62.725 Y99.498 E0.06955
G1 X45.428 Y99.498 E0.54233
G1 X45.490 Y98.053 E0.04536
G1 X45.650 Y96.294 E0.05538
G1 X45.869 Y94.841 E0.04607
G1 X46.129 Y93.768 E0.03461
G1 X46.399 Y92.954 E0.02690
G1 X46.767 Y91.987 E0.03245
G1 X47.241 Y90.892 E0.03738
G1 X47.825 Y89.701 E0.04160
G1 X48.522 Y88.446 E0.04503
G1 X49.337 Y87.158 E0.04778
G1 X50.274 Y85.869 E0.04996
G1 X51.338 Y84.614 E0.05161
G1 X52.535 Y83.422 E0.05293
G1 X53.871 Y82.327 E0.05416
G1 X56.443 Y80.748 E0.09464
G1 X57.220 Y80.423 E0.02640
M204 S1250
G1 X57.549 Y80.353 F9000.000
G1 E-2.24000 F2400.000
;WIPE_START
G1 F7200.000
G1 X57.275 Y80.678 E-0.08257
G1 X59.894 Y80.678 E-0.82943
;WIPE_END
G1 E-0.04800 F2400.000
G1 Z0.400 F9000.000
G1 X79.080 Y60.301
G1 Z0.200
G1 E3.20000 F1500.000
M204 S800
;TYPE:Perimeter
G1 F1200.000
G1 X101.838 Y60.301 E0.71355
G1 X101.585 Y63.804 E0.11013
G1 X101.292 Y69.043 E0.16452
G1 X101.151 Y74.402 E0.16807
G1 X101.256 Y79.875 E0.17164
G1 X79.951 Y79.875 E0.66800
G1 X79.083 Y60.361 E0.61246
M204 S1250
G1 X79.474 Y60.678 F9000.000
M204 S800
;TYPE:External perimeter
G1 F1200.000
G1 X101.433 Y60.678 E0.68848
G1 X101.209 Y63.780 E0.09752
G1 X100.915 Y69.028 E0.16479
G1 X100.774 Y74.400 E0.16851
G1 X100.871 Y79.498 E0.15986
G1 X80.311 Y79.498 E0.64464
G1 X79.477 Y60.738 E0.58879
M204 S1250
G1 X79.363 Y60.294 F9000.000
G1 E-2.24000 F2400.000
;WIPE_START
G1 F7200.000
G1 X82.357 Y60.730 E-0.91200
;WIPE_END
G1 E-0.04800 F2400.000
G1 Z0.400 F9000.000
G1 X101.868 Y59.875
G1 Z0.200
G1 E3.20000 F1500.000
M204 S800
;TYPE:Perimeter
G1 F1200.000
G1 X79.062 Y59.875 E0.71509
G1 X78.546 Y47.555 E0.38661
G1 X78.333 Y41.511 E0.18964
G1 X78.497 Y40.499 E0.03216
G1 X79.061 Y39.665 E0.03158
G1 X79.868 Y39.145 E0.03008
G1 X80.770 Y38.875 E0.02954
G1 X81.662 Y38.785 E0.02811
G1 X82.410 Y38.804 E0.02346
G1 X83.323 Y38.914 E0.02881
G1 X84.160 Y39.082 E0.02677
G1 X84.883 Y39.285 E0.02356
G1 X85.443 Y39.501 E0.01880
G1 X86.090 Y39.835 E0.02284
G1 X86.631 Y40.178 E0.02008
G1 X87.090 Y40.538 E0.01829
G1 X87.482 Y40.911 E0.01698
G1 X87.822 Y41.293 E0.01602
G1 X89.069 Y42.875 E0.06315
G1 X89.450 Y43.294 E0.01777
G1 X89.827 Y43.630 E0.01583
G1 X90.140 Y43.832 E0.01169
G1 X90.398 Y43.936 E0.00870
G1 X90.613 Y43.975 E0.00685
G1 X91.041 Y43.968 E0.01342
G1 X91.203 Y43.932 E0.00521
G1 X91.502 Y43.785 E0.01047
G1 X91.751 Y43.589 E0.00994
G1 X91.992 Y43.342 E0.01081
G1 X92.191 Y43.082 E0.01028
G1 X92.365 Y42.804 E0.01029
G1 X93.110 Y41.369 E0.05069
G1 X93.375 Y40.952 E0.01549
G1 X93.703 Y40.528 E0.01679
G1 X94.103 Y40.107 E0.01822
G1 X94.583 Y39.697 E0.01980
G1 X95.101 Y39.349 E0.01956
G1 X95.656 Y39.065 E0.01956
G1 X96.249 Y38.857 E0.01970
G1 X96.873 Y38.728 E0.01996
G1 X97.372 Y38.696 E0.01568
G1 X97.949 Y38.732 E0.01812
G1 X98.642 Y38.867 E0.02215
G1 X99.350 Y39.092 E0.02328
G1 X100.188 Y39.456 E0.02864
G1 X101.536 Y40.884 E0.06158
G1 X102.259 Y43.236 E0.07715
G1 X102.535 Y46.263 E0.09530
G1 X102.511 Y49.923 E0.11476
G1 X102.284 Y54.135 E0.13225
G1 X101.873 Y59.815 E0.17858
M204 S1250
G1 X101.517 Y59.498 F9000.000
M204 S800
;TYPE:External perimeter
G1 F1200.000
G1 X79.423 Y59.498 E0.69275
G1 X78.922 Y47.541 E0.37523
G1 X78.711 Y41.535 E0.18844
G1 X78.856 Y40.641 E0.02839
G1 X79.330 Y39.940 E0.02655
G1 X80.027 Y39.491 E0.02598
G1 X80.844 Y39.247 E0.02674
G1 X81.677 Y39.163 E0.02624
G1 X82.383 Y39.181 E0.02215
G1 X83.263 Y39.287 E0.02779
G1 X84.072 Y39.449 E0.02587
G1 X84.764 Y39.643 E0.02256
G1 X85.288 Y39.845 E0.01760
G1 X85.902 Y40.162 E0.02167
G1 X86.413 Y40.487 E0.01897
G1 X86.843 Y40.823 E0.01713
G1 X87.211 Y41.174 E0.01592
G1 X87.533 Y41.535 E0.01518
G1 X88.781 Y43.118 E0.06320
G1 X89.184 Y43.562 E0.01881
G1 X89.598 Y43.932 E0.01739
G1 X89.966 Y44.168 E0.01373
G1 X90.292 Y44.300 E0.01103
G1 X90.582 Y44.352 E0.00921
G1 X91.085 Y44.345 E0.01579
G1 X91.317 Y44.293 E0.00744
G1 X91.528 Y44.205 E0.00718
G1 X91.714 Y44.098 E0.00673
G1 X92.004 Y43.870 E0.01157
G1 X92.277 Y43.589 E0.01228
G1 X92.502 Y43.297 E0.01155
G1 X92.694 Y42.989 E0.01138
G1 X93.435 Y41.560 E0.05047
G1 X93.684 Y41.169 E0.01455
G1 X93.989 Y40.774 E0.01566
G1 X94.363 Y40.381 E0.01699
G1 X94.812 Y39.998 E0.01851
G1 X95.292 Y39.674 E0.01818
G1 X95.805 Y39.412 E0.01805
G1 X96.350 Y39.221 E0.01811
G1 X96.923 Y39.103 E0.01834
G1 X97.372 Y39.074 E0.01411
G1 X97.901 Y39.107 E0.01660
G1 X98.549 Y39.233 E0.02070
G1 X99.217 Y39.446 E0.02199
G1 X99.966 Y39.771 E0.02562
G1 X101.202 Y41.079 E0.05640
G1 X101.887 Y43.309 E0.07316
G1 X102.158 Y46.279 E0.09349
G1 X102.134 Y49.911 E0.11390
G1 X101.907 Y54.111 E0.13186
G1 X101.522 Y59.438 E0.16747
M204 S1250
G1 X101.509 Y59.898 F9000.000
G1 E-2.24000 F2400.000
;WIPE_START
G1 F7200.000
G1 X98.642 Y59.446 E-0.91200
;WIPE_END
G1 E-0.04800 F2400.000
G1 Z0.400 F9000.000
G1 X106.018 Y78.271
G1 Z0.200
G1 E3.20000 F1500.000
M204 S800
;TYPE:Perimeter
G1 F1200.000
G1 X108.182 Y78.094 E0.06806
G1 X112.769 Y78.158 E0.14386
G1 X113.910 Y78.324 E0.03613
G1 X113.797 Y79.875 E0.04877
G1 X106.083 Y79.875 E0.24186
G1 X106.020 Y78.331 E0.04846
M204 S1250
G1 X106.410 Y78.617 F9000.000
M204 S800
;TYPE:External perimeter
G1 F1200.000
G1 X108.194 Y78.472 E0.05615
G1 X112.739 Y78.534 E0.14252
G1 X113.508 Y78.646 E0.02435
G1 X113.446 Y79.498 E0.02677
G1 X106.445 Y79.498 E0.21951
G1 X106.412 Y78.677 E0.02575
M204 S1250
G1 X106.205 Y78.274 F9000.000
G1 E-2.24000 F2400.000
;WIPE_START
G1 F7200.000
G1 X108.194 Y78.472 E-0.56818
G1 X109.280 Y78.487 E-0.34382
;WIPE_END
G1 E-0.04800 F2400.000
G1 Z0.400 F9000.000
G1 X100.844 Y92.486
G1 Z0.200
G1 E3.20000 F1500.000
M204 S800
;TYPE:Perimeter
G1 F1200.000
G1 X103.381 Y92.689 E0.07981
G1 X105.476 Y92.989 E0.06636
G1 X107.603 Y93.450 E0.06823
G1 X109.693 Y94.101 E0.06865
G1 X111.677 Y94.968 E0.06788
G1 X113.483 Y96.083 E0.06653
G1 X115.030 Y97.482 E0.06541
G1 X116.226 Y99.193 E0.06547
G1 X116.969 Y101.228 E0.06793
G1 X117.170 Y103.567 E0.07358
G1 X116.889 Y105.632 E0.06535
G1 X116.246 Y107.470 E0.06106
G1 X115.257 Y109.088 E0.05947
G1 X113.957 Y110.484 E0.05981
G1 X112.379 Y111.665 E0.06181
G1 X110.554 Y112.648 E0.06497
G1 X108.505 Y113.451 E0.06902
G1 X106.250 Y114.091 E0.07350
G1 X103.805 Y114.586 E0.07821
G1 X100.786 Y115.004 E0.09557
G1 X100.394 Y113.749 E0.04124
G1 X100.303 Y112.063 E0.05293
G1 X100.288 Y109.706 E0.07390
G1 X100.328 Y106.857 E0.08932
G1 X100.407 Y103.757 E0.09723
G1 X100.616 Y97.809 E0.18661
G1 X100.841 Y92.546 E0.16519
M204 S1250
G1 X101.203 Y92.893 F9000.000
M204 S800
;TYPE:External perimeter
G1 F1200.000
G1 X103.339 Y93.064 E0.06719
G1 X105.410 Y93.360 E0.06557
G1 X107.507 Y93.815 E0.06728
G1 X109.561 Y94.455 E0.06748
G1 X111.502 Y95.303 E0.06639
G1 X113.255 Y96.386 E0.06462
G1 X114.745 Y97.733 E0.06299
G1 X115.889 Y99.369 E0.06258
G1 X116.598 Y101.311 E0.06481
G1 X116.790 Y103.557 E0.07070
G1 X116.521 Y105.543 E0.06284
G1 X115.904 Y107.308 E0.05861
G1 X114.955 Y108.859 E0.05702
G1 X113.704 Y110.202 E0.05755
G1 X112.175 Y111.347 E0.05987
G1 X110.396 Y112.305 E0.06337
G1 X108.384 Y113.093 E0.06774
G1 X106.161 Y113.725 E0.07247
G1 X103.742 Y114.214 E0.07738
G1 X101.051 Y114.587 E0.08518
G1 X100.768 Y113.681 E0.02975
G1 X100.680 Y112.051 E0.05118
G1 X100.665 Y109.707 E0.07350
G1 X100.705 Y106.865 E0.08914
G1 X100.784 Y103.769 E0.09711
G1 X100.992 Y97.824 E0.18651
G1 X101.201 Y92.953 E0.15287
M204 S1250
G1 X101.230 Y92.494 F9000.000
G1 E-2.24000 F2400.000
;WIPE_START
G1 F7200.000
G1 X103.339 Y93.064 E-0.67819
G1 X104.070 Y93.169 E-0.23381
;WIPE_END
G1 E-0.04800 F2400.000
