; generated by PrusaSlicer 2.3.3+win64 on 2022-06-16 at 08:27:44 UTC


;
;

;
;
; 

; external perimeters extrusion width = 0.45mm
; perimeters extrusion width = 0.45mm
; infill extrusion width = 0.45mm
; solid infill extrusion width = 0.45mm
; top infill extrusion width = 0.40mm
; first layer extrusion width = 0.42mm

M73 P0 R63
M201 X1250 Y1250 Z400 E5000 ; sets maximum accelerations, mm/sec^2
M203 X180 Y180 Z12 E80 ; sets maximum feedrates, mm/sec
M204 P1250 R1250 T1250 ; sets acceleration (P, T) and retract acceleration (R), mm/sec^2
M205 X8.00 Y8.00 Z2.00 E10.00 ; sets the jerk limits, mm/sec
M205 S0 T0 ; sets the minimum extruding and travel feed rate, mm/sec
M107
;TYPE:Custom
G90 ; use absolute coordinates
M83 ; extruder relative mode
M104 S170 ; set extruder temp for bed leveling
M140 S85 ; set bed temp
M109 R170 ; wait for bed leveling temp
M190 S85 ; wait for bed temp
G28 ; home all without mesh bed level
G29 ; mesh bed leveling 
M104 S230 ; set extruder temp
G92 E0.0
G1 Y-2.0 X179 F2400
G1 Z3 F720
M109 S230 ; wait for extruder temp

; intro line
G1 X170 F1000
G1 Z0.2 F720
G1 X110.0 E8.0 F900
G1 X40.0 E10.0 F700
G92 E0.0

M221 S95 ; set flow
G21 ; set units to millimeters
G90 ; use absolute coordinates
M83 ; use relative distances for extrusion
M900 K0.2 ; Filament gcode
;LAYER_CHANGE
;Z:0.2
;HEIGHT:0.2
;BEFORE_LAYER_CHANGE
G92 E0.0
;0.2


G1 E-3.20000 F2400.000
G1 Z0.200 F9000.000
;AFTER_LAYER_CHANGE
;0.2
G1 Z0.400
G1 X73.115 Y36.536
G1 Z0.200
G1 E3.20000 F1500.000
M204 S800
;TYPE:Skirt
;WIDTH:0.42
G1 F1200.000
G1 X74.344 Y35.387 E0.05276
G1 X75.072 Y34.894 E0.02755
G1 X76.299 Y34.275 E0.04310
G1 X77.967 Y33.754 E0.05478
G1 X78.800 Y33.609 E0.02650
G1 X80.324 Y33.504 E0.04790
G1 X96.026 Y33.468 E0.49234
G1 X97.608 Y33.580 E0.04973
G1 X99.105 Y33.907 E0.04804
G1 X100.519 Y34.455 E0.04754
G1 X101.671 Y35.122 E0.04176
G1 X103.093 Y36.306 E0.05802
G1 X103.959 Y37.328 E0.04200
G1 X104.741 Y38.615 E0.04720
G1 X137.914 Y117.975 E2.69691
G1 X138.543 Y119.945 E0.06485
G1 X138.837 Y121.794 E0.05869
G1 X138.894 Y122.897 E0.03463
G1 X138.731 Y137.499 E0.45787
G1 X138.566 Y138.726 E0.03881
G1 X138.308 Y139.837 E0.03576
G1 X137.884 Y141.059 E0.04056
G1 X137.250 Y142.160 E0.03983
G1 X136.474 Y143.086 E0.03788
G1 X135.550 Y143.896 E0.03853
G1 X134.557 Y144.548 E0.03724
G1 X133.517 Y145.065 E0.03641
G1 X132.362 Y145.483 E0.03852
G1 X131.248 Y145.758 E0.03597
G1 X129.272 Y145.964 E0.06230
G1 X49.204 Y146.532 E2.51055
G1 X48.172 Y146.478 E0.03239
G1 X47.227 Y146.328 E0.03001
G1 X45.570 Y145.772 E0.05479
G1 X44.809 Y145.356 E0.02719
G1 X44.137 Y144.874 E0.02592
G1 X43.306 Y144.070 E0.03627
G1 X42.845 Y143.475 E0.02359
G1 X42.210 Y142.337 E0.04084
G1 X41.837 Y141.409 E0.03137
G1 X41.309 Y139.306 E0.06797
G1 X41.174 Y138.103 E0.03797
G1 X41.152 Y136.971 E0.03549
G1 X41.106 Y123.775 E0.41377
G1 X41.131 Y122.659 E0.03500
G1 X41.309 Y121.380 E0.04049
G1 X41.615 Y120.220 E0.03763
G1 X72.005 Y38.269 E2.74048
G1 X72.398 Y37.536 E0.02608
G1 X73.080 Y36.585 E0.03670
M204 S1250
; printing object Bodacious Turing-Amberis.stl id:0 copy 0
G1 E-2.24000 F2400.000
;WIPE_START
G1 F7200.000
G1 X74.344 Y35.387 E-0.55147
G1 X75.072 Y34.894 E-0.27829
G1 X75.304 Y34.777 E-0.08225
;WIPE_END
G1 E-0.04800 F2400.000
G1 Z0.400 F9000.000
G1 X78.045 Y80.230
G1 Z0.200
G1 E3.20000 F1500.000
M204 S800
;TYPE:Perimeter
G1 F1200.000
G1 X99.527 Y80.230 E0.67356
G1 X99.456 Y83.030 E0.08779
G1 X99.303 Y92.819 E0.30697
G1 X99.286 Y99.805 E0.21904
G1 X78.335 Y99.805 E0.65691
M73 P1 R63
G1 X78.254 Y91.182 E0.27038
G1 X78.046 Y80.290 E0.34155
M204 S1250
G1 X78.429 Y80.608 F9000.000
M204 S800
;TYPE:External perimeter
G1 F1200.000
G1 X99.140 Y80.608 E0.64938
G1 X99.079 Y83.022 E0.07573
G1 X98.925 Y92.815 E0.30710
G1 X98.910 Y99.427 E0.20732
G1 X78.708 Y99.427 E0.63340
G1 X78.632 Y91.176 E0.25872
M73 P1 R62
G1 X78.430 Y80.667 E0.32956
M204 S1250
G1 X78.427 Y80.208 F9000.000
G1 E-2.24000 F2400.000
;WIPE_START
G1 F7200.000
G1 X81.310 Y80.659 E-0.91200
;WIPE_END
G1 E-0.04800 F2400.000
G1 Z0.400 F9000.000
G1 X78.430 Y100.230
G1 Z0.200
G1 E3.20000 F1500.000
M204 S800
;TYPE:Perimeter
G1 F1200.000
G1 X99.285 Y100.230 E0.65388
G1 X99.280 Y102.520 E0.07179
G1 X99.428 Y111.761 E0.28978
G1 X99.733 Y118.805 E0.22105
G1 X77.812 Y118.805 E0.68731
G1 X78.098 Y115.927 E0.09066
G1 X78.301 Y109.409 E0.20447
G1 X78.349 Y100.230 E0.28780
G1 X78.370 Y100.230 E0.00067
M204 S1250
G1 X78.724 Y100.608 F9000.000
M204 S800
;TYPE:External perimeter
G1 F1200.000
G1 X98.907 Y100.608 E0.63282
G1 X98.903 Y102.523 E0.06005
G1 X99.051 Y111.772 E0.29005
G1 X99.339 Y118.427 E0.20886
G1 X78.229 Y118.427 E0.66191
G1 X78.474 Y115.952 E0.07800
G1 X78.679 Y109.416 E0.20503
G1 X78.724 Y100.667 E0.27431
M204 S1250
G1 X78.726 Y100.208 F9000.000
G1 E-2.24000 F2400.000
;WIPE_START
G1 F7200.000
G1 X81.604 Y100.659 E-0.91200
;WIPE_END
G1 E-0.04800 F2400.000
G1 Z0.400 F9000.000
G1 X77.427 Y60.230
G1 Z0.200
G1 E3.20000 F1500.000
M204 S800
;TYPE:Perimeter
G1 F1200.000
G1 X100.142 Y60.230 E0.71223
G1 X99.696 Y73.524 E0.41706
G1 X99.538 Y79.805 E0.19697
G1 X78.029 Y79.805 E0.67439
G1 X77.777 Y70.424 E0.29424
G1 X77.429 Y60.290 E0.31791
M204 S1250
G1 X77.817 Y60.608 F9000.000
M204 S800
;TYPE:External perimeter
G1 F1200.000
G1 X99.753 Y60.608 E0.68777
G1 X99.319 Y73.513 E0.40488
G1 X99.170 Y79.427 E0.18549
G1 X78.396 Y79.427 E0.65135
G1 X78.154 Y70.412 E0.28278
G1 X77.819 Y60.667 E0.30571
M204 S1250
G1 X77.813 Y60.208 F9000.000
G1 E-2.24000 F2400.000
;WIPE_START
G1 F7200.000
G1 X80.699 Y60.660 E-0.91200
;WIPE_END
G1 E-0.04800 F2400.000
G1 Z0.400 F9000.000
G1 X100.160 Y59.805
G1 Z0.200
G1 E3.20000 F1500.000
M204 S800
;TYPE:Perimeter
G1 F1200.000
G1 X77.405 Y59.805 E0.71348
G1 X77.086 Y52.354 E0.23381
G1 X76.729 Y45.965 E0.20065
G1 X76.396 Y42.144 E0.12026
G1 X76.449 Y40.843 E0.04083
G1 X77.036 Y39.736 E0.03929
G1 X78.000 Y39.012 E0.03780
G1 X79.153 Y38.636 E0.03801
G1 X80.397 Y38.527 E0.03915
G1 X81.675 Y38.631 E0.04022
G1 X82.933 Y38.916 E0.04046
G1 X84.111 Y39.367 E0.03954
G1 X85.148 Y39.978 E0.03774
G1 X85.918 Y40.714 E0.03339
G1 X87.207 Y42.347 E0.06524
G1 X87.866 Y43.076 E0.03081
G1 X88.131 Y43.324 E0.01139
G1 X88.359 Y43.502 E0.00907
G1 X88.538 Y43.608 E0.00651
G1 X88.739 Y43.662 E0.00652
G1 X89.064 Y43.636 E0.01025
G1 X89.351 Y43.569 E0.00924
G1 X89.582 Y43.473 E0.00784
G1 X89.777 Y43.347 E0.00727
G1 X89.959 Y43.181 E0.00773
G1 X90.135 Y42.963 E0.00879
G1 X90.311 Y42.685 E0.01031
G1 X90.483 Y42.350 E0.01181
G1 X90.875 Y41.413 E0.03183
G1 X91.457 Y40.470 E0.03476
G1 X92.387 Y39.664 E0.03859
G1 X93.515 Y39.072 E0.03992
G1 X94.769 Y38.703 E0.04100
G1 X96.092 Y38.582 E0.04166
G1 X97.418 Y38.756 E0.04192
G1 X98.667 Y39.284 E0.04251
G1 X99.719 Y40.220 E0.04416
G1 X100.427 Y41.550 E0.04723
G1 X100.712 Y43.210 E0.05281
G1 X100.675 Y45.790 E0.08091
G1 X100.162 Y59.745 E0.43782
M204 S1250
G1 X99.797 Y59.427 F9000.000
M204 S800
;TYPE:External perimeter
G1 F1200.000
G1 X77.766 Y59.427 E0.69075
G1 X77.463 Y52.336 E0.22256
G1 X77.105 Y45.938 E0.20092
G1 X76.774 Y42.135 E0.11969
G1 X76.823 Y40.944 E0.03738
G1 X77.330 Y39.987 E0.03397
G1 X78.177 Y39.351 E0.03320
G1 X79.229 Y39.008 E0.03469
G1 X80.398 Y38.905 E0.03680
G1 X81.618 Y39.004 E0.03837
G1 X82.824 Y39.278 E0.03877
G1 X83.947 Y39.708 E0.03771
G1 X84.919 Y40.280 E0.03538
G1 X85.639 Y40.968 E0.03119
G1 X86.919 Y42.590 E0.06480
G1 X87.597 Y43.340 E0.03170
G1 X87.886 Y43.611 E0.01243
G1 X88.147 Y43.814 E0.01035
G1 X88.374 Y43.949 E0.00828
G1 X88.562 Y44.020 E0.00632
G1 X88.730 Y44.041 E0.00530
G1 X89.123 Y44.009 E0.01236
G1 X89.467 Y43.929 E0.01109
G1 X89.758 Y43.808 E0.00987
G1 X90.008 Y43.647 E0.00933
G1 X90.234 Y43.440 E0.00961
G1 X90.442 Y43.183 E0.01036
G1 X90.638 Y42.873 E0.01152
G1 X90.825 Y42.509 E0.01281
G1 X91.212 Y41.586 E0.03138
G1 X91.747 Y40.717 E0.03202
G1 X92.601 Y39.977 E0.03540
G1 X93.657 Y39.424 E0.03738
G1 X94.840 Y39.075 E0.03868
G1 X96.085 Y38.961 E0.03918
G1 X97.318 Y39.123 E0.03900
G1 X98.462 Y39.607 E0.03896
G1 X99.418 Y40.457 E0.04009
G1 X100.065 Y41.673 E0.04321
G1 X100.334 Y43.239 E0.04982
G1 X100.298 Y45.781 E0.07969
G1 X99.799 Y59.368 E0.42629
M204 S1250
G1 X99.792 Y59.827 F9000.000
G1 E-2.24000 F2400.000
;WIPE_START
G1 F7200.000
G1 X96.919 Y59.375 E-0.91200
;WIPE_END
G1 E-0.04800 F2400.000
G1 Z0.400 F9000.000
G1 X99.752 Y119.230
G1 Z0.200
G1 E3.20000 F1500.000
M204 S800
;TYPE:Perimeter
G1 F1200.000
G1 X99.766 Y119.562 E0.01040
G1 X102.727 Y119.601 E0.09285
G1 X106.117 Y119.585 E0.10630
G1 X109.359 Y119.515 E0.10167
G1 X112.497 Y119.403 E0.09846
G1 X115.573 Y119.258 E0.09654
G1 X124.848 Y118.750 E0.29126
G1 X128.095 Y118.593 E0.10193
G1 X131.605 Y118.455 E0.11014
G1 X132.237 Y118.628 E0.02054
G1 X132.755 Y119.101 E0.02197
G1 X133.103 Y119.666 E0.02083
G1 X133.359 Y120.295 E0.02128
G1 X133.536 Y120.922 E0.02043
G1 X133.672 Y121.634 E0.02272
G1 X133.754 Y122.351 E0.02263
G1 X133.780 Y123.049 E0.02191
G1 X133.746 Y123.709 E0.02073
G1 X133.634 Y124.322 E0.01952
G1 X133.277 Y125.188 E0.02938
G1 X132.759 Y125.906 E0.02775
G1 X132.161 Y126.488 E0.02618
G1 X130.437 Y127.813 E0.06817
G1 X130.019 Y128.219 E0.01826
G1 X129.716 Y128.642 E0.01632
G1 X129.531 Y129.120 E0.01607
G1 X129.470 Y129.718 E0.01886
G1 X129.544 Y130.157 E0.01395
G1 X129.683 Y130.480 E0.01101
G1 X129.900 Y130.772 E0.01141
G1 X130.198 Y131.056 E0.01292
G1 X130.567 Y131.333 E0.01445
G1 X131.446 Y131.902 E0.03284
G1 X131.904 Y132.223 E0.01754
G1 X132.345 Y132.608 E0.01836
G1 X132.713 Y133.078 E0.01872
G1 X133.131 Y133.927 E0.02965
G1 X133.394 Y134.684 E0.02514
G1 X133.557 Y135.424 E0.02375
G1 X133.631 Y136.129 E0.02223
G1 X133.636 Y136.770 E0.02009
G1 X133.591 Y137.337 E0.01784
G1 X133.513 Y137.828 E0.01556
G1 X133.309 Y138.662 E0.02694
G1 X133.152 Y139.061 E0.01343
G1 X132.859 Y139.458 E0.01548
G1 X132.497 Y139.791 E0.01543
G1 X132.081 Y140.076 E0.01582
G1 X131.616 Y140.323 E0.01651
G1 X131.107 Y140.529 E0.01720
G1 X130.562 Y140.693 E0.01786
G1 X129.985 Y140.809 E0.01845
G1 X129.384 Y140.870 E0.01894
G1 X128.796 Y140.866 E0.01845
G1 X119.023 Y140.385 E0.30680
G1 X109.700 Y140.140 E0.29242
G1 X100.791 Y140.087 E0.27935
G1 X92.287 Y140.181 E0.26665
M73 P2 R62
G1 X84.177 Y140.381 E0.25436
G1 X76.454 Y140.643 E0.24229
G1 X62.126 Y141.176 E0.44954
G1 X55.502 Y141.360 E0.20778
G1 X48.979 Y141.431 E0.20452
G1 X48.564 Y141.402 E0.01306
G1 X48.071 Y141.304 E0.01575
G1 X47.781 Y141.199 E0.00969
G1 X47.494 Y141.044 E0.01021
G1 X47.216 Y140.815 E0.01129
G1 X46.997 Y140.525 E0.01140
G1 X46.805 Y140.119 E0.01408
G1 X46.636 Y139.666 E0.01515
G1 X46.499 Y139.189 E0.01557
G1 X46.374 Y138.589 E0.01920
G1 X46.292 Y137.928 E0.02091
G1 X46.268 Y137.213 E0.02241
G1 X46.317 Y136.459 E0.02369
G1 X46.455 Y135.675 E0.02498
G1 X46.702 Y134.874 E0.02627
G1 X47.077 Y134.057 E0.02819
G1 X47.509 Y133.447 E0.02344
G1 X48.028 Y132.931 E0.02296
G1 X48.579 Y132.490 E0.02209
G1 X49.635 Y131.737 E0.04067
G1 X50.077 Y131.388 E0.01766
G1 X50.422 Y131.047 E0.01522
G1 X50.655 Y130.717 E0.01267
G1 X50.783 Y130.382 E0.01125
G1 X50.814 Y129.984 E0.01250
G1 X50.742 Y129.626 E0.01145
G1 X50.576 Y129.270 E0.01232
G1 X50.348 Y128.988 E0.01138
G1 X50.035 Y128.713 E0.01304
G1 X49.656 Y128.456 E0.01436
G1 X48.295 Y127.707 E0.04873
G1 X47.846 Y127.429 E0.01656
G1 X47.421 Y127.082 E0.01720
G1 X46.977 Y126.492 E0.02314
G1 X46.619 Y125.744 E0.02601
G1 X46.373 Y124.933 E0.02655
G1 X46.226 Y123.987 E0.03001
G1 X46.229 Y122.990 E0.03127
G1 X46.422 Y121.981 E0.03221
G1 X46.855 Y121.010 E0.03335
G1 X47.576 Y120.157 E0.03501
G1 X48.592 Y119.511 E0.03776
G1 X49.890 Y119.134 E0.04237
G1 X51.234 Y119.076 E0.04218
G1 X53.665 Y119.092 E0.07620
G1 X68.923 Y119.428 E0.47852
G1 X72.605 Y119.470 E0.11548
G1 X75.614 Y119.457 E0.09432
G1 X77.585 Y119.366 E0.06187
G1 X78.131 Y119.230 E0.01765
G1 X99.692 Y119.230 E0.67601
M204 S1250
G1 X99.390 Y119.608 F9000.000
M204 S800
;TYPE:External perimeter
G1 F1200.000
G1 X99.405 Y119.934 E0.01025
G1 X102.725 Y119.978 E0.10413
G1 X106.122 Y119.963 E0.10651
G1 X109.370 Y119.892 E0.10185
G1 X112.513 Y119.780 E0.09860
G1 X115.592 Y119.635 E0.09665
G1 X124.867 Y119.127 E0.29127
G1 X128.112 Y118.970 E0.10184
G1 X131.562 Y118.834 E0.10826
G1 X132.050 Y118.968 E0.01587
G1 X132.461 Y119.343 E0.01746
G1 X132.765 Y119.837 E0.01819
G1 X133.002 Y120.418 E0.01965
G1 X133.169 Y121.009 E0.01926
G1 X133.299 Y121.691 E0.02176
G1 X133.378 Y122.379 E0.02174
G1 X133.403 Y123.046 E0.02093
G1 X133.371 Y123.665 E0.01943
G1 X133.270 Y124.215 E0.01751
G1 X132.945 Y125.003 E0.02674
G1 X132.472 Y125.658 E0.02533
G1 X131.913 Y126.203 E0.02446
G1 X130.190 Y127.528 E0.06816
G1 X129.732 Y127.972 E0.02001
G1 X129.382 Y128.462 E0.01887
G1 X129.161 Y129.031 E0.01915
G1 X129.090 Y129.731 E0.02206
G1 X129.180 Y130.265 E0.01697
G1 X129.354 Y130.669 E0.01380
G1 X129.616 Y131.023 E0.01381
G1 X129.955 Y131.345 E0.01465
G1 X130.351 Y131.642 E0.01555
G1 X131.235 Y132.214 E0.03301
G1 X131.671 Y132.520 E0.01669
G1 X132.070 Y132.869 E0.01662
G1 X132.392 Y133.280 E0.01638
G1 X132.783 Y134.072 E0.02768
G1 X133.030 Y134.787 E0.02372
G1 X133.184 Y135.485 E0.02240
G1 X133.254 Y136.150 E0.02099
G1 X133.259 Y136.756 E0.01900
G1 X133.216 Y137.293 E0.01687
G1 X133.143 Y137.753 E0.01461
G1 X132.948 Y138.548 E0.02565
G1 X132.819 Y138.877 E0.01108
G1 X132.577 Y139.205 E0.01279
G1 X132.261 Y139.495 E0.01345
G1 X131.885 Y139.753 E0.01430
G1 X131.456 Y139.981 E0.01523
G1 X130.982 Y140.173 E0.01604
G1 X130.470 Y140.327 E0.01675
G1 X129.929 Y140.435 E0.01731
G1 X129.366 Y140.493 E0.01773
G1 X128.806 Y140.489 E0.01756
G1 X119.037 Y140.008 E0.30668
G1 X109.706 Y139.762 E0.29267
G1 X100.790 Y139.710 E0.27957
G1 X92.280 Y139.804 E0.26683
G1 X84.165 Y140.004 E0.25450
G1 X76.440 Y140.266 E0.24236
G1 X62.114 Y140.799 E0.44951
G1 X55.494 Y140.983 E0.20762
G1 X48.990 Y141.054 E0.20395
G1 X48.613 Y141.028 E0.01184
G1 X48.173 Y140.940 E0.01409
G1 X47.935 Y140.854 E0.00793
G1 X47.705 Y140.730 E0.00820
G1 X47.490 Y140.553 E0.00872
G1 X47.322 Y140.329 E0.00879
G1 X47.152 Y139.972 E0.01237
G1 X46.995 Y139.548 E0.01419
G1 X46.865 Y139.098 E0.01468
G1 X46.747 Y138.528 E0.01827
G1 X46.668 Y137.898 E0.01990
G1 X46.645 Y137.219 E0.02129
G1 X46.692 Y136.504 E0.02246
G1 X46.822 Y135.763 E0.02360
G1 X47.055 Y135.009 E0.02475
G1 X47.405 Y134.247 E0.02630
G1 X47.798 Y133.692 E0.02133
G1 X48.280 Y133.212 E0.02131
G1 X48.806 Y132.791 E0.02113
G1 X49.861 Y132.039 E0.04064
G1 X50.327 Y131.671 E0.01860
G1 X50.711 Y131.292 E0.01691
G1 X50.991 Y130.896 E0.01521
G1 X51.155 Y130.465 E0.01446
G1 X51.193 Y129.961 E0.01584
G1 X51.103 Y129.508 E0.01450
G1 X50.898 Y129.069 E0.01520
G1 X50.621 Y128.726 E0.01383
G1 X50.266 Y128.414 E0.01479
G1 X49.853 Y128.134 E0.01564
G1 X48.485 Y127.381 E0.04898
G1 X48.065 Y127.121 E0.01549
G1 X47.695 Y126.819 E0.01499
G1 X47.301 Y126.295 E0.02053
G1 X46.972 Y125.607 E0.02394
G1 X46.742 Y124.849 E0.02482
G1 X46.603 Y123.959 E0.02825
G1 X46.606 Y123.026 E0.02924
G1 X46.784 Y122.095 E0.02973
G1 X47.178 Y121.212 E0.03030
G1 X47.827 Y120.444 E0.03153
G1 X48.749 Y119.858 E0.03426
G1 X49.952 Y119.509 E0.03926
G1 X51.241 Y119.453 E0.04047
G1 X53.659 Y119.470 E0.07582
G1 X68.916 Y119.805 E0.47849
G1 X72.604 Y119.847 E0.11563
G1 X75.623 Y119.834 E0.09467
G1 X77.639 Y119.741 E0.06328
G1 X78.177 Y119.608 E0.01738
G1 X99.330 Y119.608 E0.66325
M204 S1250
G1 X99.717 Y119.597 F9000.000
G1 E-2.24000 F2400.000
;WIPE_START
G1 F7200.000
G1 X99.405 Y119.934 E-0.10607
G1 X101.949 Y119.968 E-0.80593
;WIPE_END
G1 E-0.04800 F2400.000
G1 Z0.400 F9000.000
G1 X101.614 Y117.673
G1 Z0.200
G1 E3.20000 F1500.000
M204 S800
;TYPE:Perimeter
G1 F1200.000
G1 X106.857 Y117.639 E0.16439
G1 X108.616 Y117.600 E0.05514
G1 X112.031 Y117.489 E0.10715
G1 X115.374 Y117.339 E0.10492
G1 X126.831 Y116.737 E0.35973
G1 X131.414 Y116.541 E0.14383
G1 X131.866 Y116.557 E0.01417
G1 X132.170 Y116.603 E0.00965
G1 X132.473 Y116.677 E0.00977
G1 X132.767 Y116.780 E0.00976
G1 X133.052 Y116.912 E0.00986
G1 X133.328 Y117.072 E0.01001
G1 X133.594 Y117.261 E0.01024
G1 X133.846 Y117.476 E0.01039
G1 X134.085 Y117.720 E0.01069
G1 X134.303 Y117.986 E0.01081
G1 X134.667 Y118.533 E0.02059
G1 X134.977 Y119.154 E0.02175
