; generated by PrusaSlicer 2.3.3+win64 on 2022-06-16 at 08:47:44 UTC


;
;

;
;
; 

; external perimeters extrusion width = 0.45mm
; perimeters extrusion width = 0.45mm
; infill extrusion width = 0.45mm
; solid infill extrusion width = 0.45mm
; top infill extrusion width = 0.40mm
; first layer extrusion width = 0.42mm

M73 P0 R89
M201 X1250 Y1250 Z400 E5000 ; sets maximum accelerations, mm/sec^2
M203 X180 Y180 Z12 E80 ; sets maximum feedrates, mm/sec
M204 P1250 R1250 T1250 ; sets acceleration (P, T) and retract acceleration (R), mm/sec^2
M205 X8.00 Y8.00 Z2.00 E10.00 ; sets the jerk limits, mm/sec
M205 S0 T0 ; sets the minimum extruding and travel feed rate, mm/sec
M107
;TYPE:Custom
G90 ; use absolute coordinates
M83 ; extruder relative mode
M104 S170 ; set extruder temp for bed leveling
M140 S85 ; set bed temp
M109 R170 ; wait for bed leveling temp
M190 S85 ; wait for bed temp
G28 ; home all without mesh bed level
G29 ; mesh bed leveling 
M104 S230 ; set extruder temp
G92 E0.0
G1 Y-2.0 X179 F2400
G1 Z3 F720
M109 S230 ; wait for extruder temp

; intro line
G1 X170 F1000
G1 Z0.2 F720
G1 X110.0 E8.0 F900
G1 X40.0 E10.0 F700
G92 E0.0

M221 S95 ; set flow
G21 ; set units to millimeters
G90 ; use absolute coordinates
M83 ; use relative distances for extrusion
M900 K0.2 ; Filament gcode
;LAYER_CHANGE
;Z:0.2
;HEIGHT:0.2
;BEFORE_LAYER_CHANGE
G92 E0.0
;0.2


G1 E-3.20000 F2400.000
G1 Z0.200 F9000.000
;AFTER_LAYER_CHANGE
;0.2
G1 Z0.400
G1 X76.126 Y35.027
G1 Z0.200
G1 E3.20000 F1500.000
M204 S800
;TYPE:Skirt
;WIDTH:0.42
G1 F1200.000
G1 X77.268 Y34.319 E0.04213
G1 X78.536 Y33.814 E0.04278
G1 X79.916 Y33.517 E0.04428
G1 X81.236 Y33.429 E0.04146
G1 X97.068 Y33.403 E0.49641
G1 X99.356 Y33.631 E0.07212
G1 X100.306 Y33.865 E0.03066
G1 X101.841 Y34.466 E0.05169
G1 X102.624 Y34.901 E0.02809
G1 X103.766 Y35.732 E0.04427
G1 X104.665 Y36.600 E0.03918
G1 X105.428 Y37.546 E0.03812
G1 X134.872 Y83.816 E1.71959
G1 X136.750 Y87.089 E0.11830
G1 X138.176 Y90.624 E0.11954
G1 X139.190 Y94.291 E0.11928
G1 X139.870 Y98.068 E0.12033
G1 X140.263 Y101.796 E0.11752
G1 X140.447 Y105.521 E0.11696
G1 X140.472 Y109.098 E0.11216
G1 X140.142 Y121.489 E0.38865
G1 X140.015 Y123.249 E0.05532
G1 X139.701 Y124.968 E0.05479
G1 X139.420 Y125.942 E0.03176
G1 X139.032 Y126.949 E0.03384
G1 X138.555 Y127.892 E0.03316
G1 X137.952 Y128.815 E0.03456
G1 X137.225 Y129.673 E0.03528
G1 X136.271 Y130.518 E0.03994
G1 X135.571 Y130.995 E0.02656
G1 X134.468 Y131.560 E0.03887
G1 X101.217 Y145.417 E1.12947
G1 X99.596 Y145.902 E0.05305
G1 X97.905 Y146.124 E0.05347
G1 X81.866 Y146.597 E0.50311
G1 X80.433 Y146.488 E0.04507
G1 X79.601 Y146.309 E0.02668
G1 X78.373 Y145.871 E0.04088
G1 X46.023 Y131.145 E1.11446
G1 X44.463 Y130.142 E0.05813
G1 X43.164 Y128.908 E0.05619
G1 X42.207 Y127.667 E0.04913
G1 X41.378 Y126.228 E0.05205
G1 X40.824 Y124.953 E0.04362
G1 X40.428 Y123.715 E0.04073
G1 X40.120 Y122.209 E0.04820
G1 X39.616 Y109.930 E0.38533
G1 X39.528 Y105.757 E0.13088
G1 X39.694 Y101.597 E0.13053
G1 X40.021 Y98.750 E0.08985
G1 X40.479 Y96.058 E0.08562
G1 X41.034 Y93.434 E0.08409
G1 X41.754 Y90.769 E0.08656
G1 X42.682 Y88.120 E0.08802
G1 X43.865 Y85.538 E0.08905
G1 X45.216 Y83.259 E0.08307
G1 X74.385 Y36.876 E1.71796
G1 X75.085 Y35.971 E0.03587
G1 X76.082 Y35.067 E0.04219
M204 S1250
; printing object Neat Blad.stl id:0 copy 0
G1 E-2.24000 F2400.000
;WIPE_START
G1 F7200.000
G1 X77.268 Y34.319 E-0.44415
G1 X78.536 Y33.814 E-0.43207
G1 X78.646 Y33.791 E-0.03578
;WIPE_END
G1 E-0.04800 F2400.000
G1 Z0.400 F9000.000
G1 X78.852 Y93.708
G1 Z0.200
G1 E3.20000 F1500.000
M204 S800
;TYPE:Perimeter
G1 F1200.000
G1 X102.191 Y93.708 E0.73176
G1 X101.990 Y95.722 E0.06346
G1 X101.847 Y97.524 E0.05668
G1 X101.715 Y99.775 E0.07070
G1 X101.612 Y102.444 E0.08375
G1 X101.565 Y105.501 E0.09585
G1 X101.591 Y108.915 E0.10706
G1 X101.699 Y112.282 E0.10562
G1 X79.445 Y112.282 E0.69777
G1 X79.387 Y109.162 E0.09784
G1 X79.256 Y104.366 E0.15043
G1 X79.111 Y100.092 E0.13408
G1 X78.855 Y93.768 E0.19846
M204 S1250
G1 X79.245 Y94.085 F9000.000
M204 S800
;TYPE:External perimeter
G1 F1200.000
G1 X101.774 Y94.085 E0.70638
G1 X101.614 Y95.688 E0.05053
G1 X101.471 Y97.498 E0.05692
G1 X101.339 Y99.757 E0.07094
G1 X101.235 Y102.434 E0.08400
G1 X101.188 Y105.500 E0.09613
G1 X101.214 Y108.923 E0.10734
G1 X101.310 Y111.905 E0.09355
G1 X79.815 Y111.905 E0.67396
G1 X79.764 Y109.153 E0.08629
G1 X79.633 Y104.355 E0.15052
G1 X79.488 Y100.078 E0.13416
G1 X79.247 Y94.145 E0.18618
M204 S1250
G1 X79.240 Y93.685 F9000.000
G1 E-2.24000 F2400.000
;WIPE_START
G1 F7200.000
G1 X82.127 Y94.137 E-0.91200
;WIPE_END
G1 E-0.04800 F2400.000
G1 Z0.400 F9000.000
G1 X79.459 Y112.708
G1 Z0.200
G1 E3.20000 F1500.000
M204 S800
;TYPE:Perimeter
G1 F1200.000
G1 X101.715 Y112.708 E0.69781
G1 X101.951 Y116.690 E0.12507
G1 X102.277 Y121.016 E0.13604
G1 X102.444 Y123.725 E0.08509
G1 X102.567 Y126.608 E0.09049
G1 X102.610 Y129.530 E0.09162
G1 X102.541 Y132.282 E0.08632
G1 X78.688 Y132.282 E0.74791
G1 X78.986 Y129.944 E0.07390
G1 X79.288 Y127.256 E0.08483
G1 X79.454 Y123.531 E0.11688
G1 X79.511 Y119.061 E0.14018
G1 X79.460 Y112.768 E0.19732
M204 S1250
G1 X79.839 Y113.085 F9000.000
M204 S800
;TYPE:External perimeter
G1 F1200.000
G1 X101.359 Y113.085 E0.67475
G1 X101.575 Y116.715 E0.11402
G1 X101.901 Y121.042 E0.13605
G1 X102.067 Y123.745 E0.08489
G1 X102.190 Y126.619 E0.09021
G1 X102.233 Y129.528 E0.09122
G1 X102.173 Y131.905 E0.07455
G1 X79.116 Y131.905 E0.72295
G1 X79.361 Y129.989 E0.06056
G1 X79.664 Y127.285 E0.08532
G1 X79.831 Y123.542 E0.11747
G1 X79.888 Y119.062 E0.14049
G1 X79.840 Y113.145 E0.18553
M204 S1250
G1 X79.839 Y112.685 F9000.000
G1 E-2.24000 F2400.000
;WIPE_START
G1 F7200.000
G1 X82.720 Y113.137 E-0.91200
;WIPE_END
G1 E-0.04800 F2400.000
G1 Z0.400 F9000.000
G1 X78.633 Y132.708
M73 P0 R88
G1 Z0.200
G1 E3.20000 F1500.000
M204 S800
;TYPE:Perimeter
G1 F1200.000
G1 X102.509 Y132.708 E0.74862
G1 X102.316 Y134.966 E0.07105
G1 X101.895 Y137.232 E0.07228
G1 X101.202 Y139.072 E0.06165
M73 P1 R88
G1 X100.140 Y140.271 E0.05023
G1 X99.429 Y140.635 E0.02505
G1 X98.681 Y140.892 E0.02479
G1 X97.843 Y141.045 E0.02670
G1 X97.099 Y141.058 E0.02332
G1 X96.117 Y140.896 E0.03121
G1 X95.116 Y140.516 E0.03356
G1 X94.132 Y139.889 E0.03658
G1 X93.202 Y138.992 E0.04054
G1 X92.352 Y137.804 E0.04579
G1 X91.637 Y136.378 E0.05000
G1 X91.528 Y136.195 E0.00669
G1 X91.420 Y136.090 E0.00471
G1 X91.260 Y135.991 E0.00591
G1 X91.056 Y135.911 E0.00688
G1 X90.823 Y135.857 E0.00748
G1 X90.589 Y135.833 E0.00738
G1 X90.191 Y135.844 E0.01247
G1 X90.032 Y135.875 E0.00510
G1 X88.928 Y137.162 E0.05317
G1 X87.457 Y138.593 E0.06433
G1 X85.800 Y139.909 E0.06637
G1 X84.046 Y140.944 E0.06386
G1 X82.301 Y141.496 E0.05736
G1 X80.647 Y141.315 E0.05220
G1 X79.241 Y140.034 E0.05961
G1 X78.506 Y137.769 E0.07469
G1 X78.408 Y134.467 E0.10356
G1 X78.626 Y132.767 E0.05374
M204 S1250
G1 X78.965 Y133.085 F9000.000
M204 S800
;TYPE:External perimeter
G1 F1200.000
G1 X102.099 Y133.085 E0.72533
G1 X101.942 Y134.915 E0.05759
G1 X101.530 Y137.131 E0.07065
G1 X100.874 Y138.874 E0.05842
G1 X99.905 Y139.968 E0.04582
G1 X99.281 Y140.287 E0.02198
G1 X98.585 Y140.526 E0.02306
G1 X97.805 Y140.669 E0.02485
G1 X97.127 Y140.681 E0.02128
G1 X96.216 Y140.530 E0.02896
G1 X95.286 Y140.177 E0.03117
G1 X94.367 Y139.592 E0.03418
G1 X93.488 Y138.744 E0.03828
G1 X92.676 Y137.608 E0.04378
G1 X91.968 Y136.197 E0.04950
G1 X91.827 Y135.959 E0.00868
G1 X91.653 Y135.791 E0.00756
G1 X91.429 Y135.653 E0.00825
G1 X91.168 Y135.550 E0.00882
G1 X90.885 Y135.484 E0.00911
G1 X90.603 Y135.456 E0.00888
G1 X90.154 Y135.468 E0.01409
G1 X89.949 Y135.503 E0.00653
G1 X89.834 Y135.546 E0.00383
G1 X89.776 Y135.594 E0.00237
G1 X88.653 Y136.904 E0.05409
G1 X87.208 Y138.309 E0.06320
G1 X85.586 Y139.598 E0.06496
G1 X83.891 Y140.598 E0.06170
G1 X82.264 Y141.112 E0.05352
G1 X80.810 Y140.953 E0.04586
G1 X79.569 Y139.823 E0.05263
G1 X78.881 Y137.704 E0.06986
G1 X78.786 Y134.486 E0.10094
G1 X78.958 Y133.145 E0.04240
M204 S1250
G1 X78.968 Y132.685 F9000.000
G1 E-2.24000 F2400.000
;WIPE_START
G1 F7200.000
G1 X81.838 Y133.137 E-0.91200
;WIPE_END
G1 E-0.04800 F2400.000
G1 Z0.400 F9000.000
G1 X44.907 Y111.708
G1 Z0.200
G1 E3.20000 F1500.000
M204 S800
;TYPE:Perimeter
G1 F1200.000
G1 X65.879 Y111.708 E0.65757
G1 X65.854 Y118.960 E0.22738
G1 X65.819 Y120.502 E0.04838
G1 X65.753 Y122.077 E0.04942
G1 X65.646 Y123.775 E0.05335
G1 X65.529 Y124.562 E0.02496
G1 X65.280 Y125.276 E0.02370
G1 X64.903 Y125.886 E0.02246
G1 X64.417 Y126.372 E0.02158
G1 X63.849 Y126.732 E0.02108
G1 X63.228 Y126.973 E0.02088
G1 X62.576 Y127.117 E0.02092
G1 X61.931 Y127.184 E0.02035
G1 X61.402 Y127.190 E0.01658
G1 X60.623 Y127.150 E0.02446
G1 X59.672 Y126.878 E0.03101
G1 X58.937 Y126.257 E0.03017
G1 X58.455 Y125.498 E0.02821
G1 X58.113 Y124.708 E0.02699
G1 X57.816 Y123.942 E0.02574
G1 X57.508 Y123.254 E0.02364
G1 X57.151 Y122.697 E0.02074
G1 X56.718 Y122.295 E0.01855
G1 X56.133 Y122.032 E0.02010
G1 X55.304 Y121.944 E0.02614
G1 X55.230 Y121.963 E0.00239
G1 X55.110 Y121.950 E0.00378
G1 X54.775 Y122.033 E0.01082
G1 X54.435 Y122.283 E0.01325
G1 X54.042 Y122.752 E0.01918
G1 X53.628 Y123.397 E0.02402
G1 X52.741 Y124.920 E0.05528
G1 X52.219 Y125.683 E0.02898
G1 X51.584 Y126.363 E0.02917
G1 X50.769 Y126.867 E0.03004
G1 X49.908 Y127.013 E0.02739
G1 X48.941 Y126.834 E0.03084
G1 X48.060 Y126.414 E0.03059
G1 X47.324 Y125.829 E0.02947
G1 X46.724 Y125.138 E0.02870
G1 X46.241 Y124.389 E0.02794
G1 X45.863 Y123.620 E0.02687
G1 X45.579 Y122.868 E0.02522
G1 X45.380 Y122.165 E0.02290
G1 X45.259 Y121.538 E0.02002
G1 X45.219 Y121.044 E0.01554
G1 X45.174 Y118.350 E0.08447
G1 X45.093 Y115.866 E0.07793
G1 X44.910 Y111.768 E0.12863
M204 S1250
G1 X45.302 Y112.085 F9000.000
M204 S800
;TYPE:External perimeter
G1 F1200.000
G1 X65.501 Y112.085 E0.63334
G1 X65.477 Y118.955 E0.21540
G1 X65.442 Y120.490 E0.04815
G1 X65.376 Y122.057 E0.04918
G1 X65.271 Y123.735 E0.05271
G1 X65.161 Y124.472 E0.02334
G1 X64.937 Y125.113 E0.02130
G1 X64.606 Y125.650 E0.01979
G1 X64.180 Y126.076 E0.01889
G1 X63.678 Y126.394 E0.01862
G1 X63.118 Y126.612 E0.01882
G1 X62.516 Y126.744 E0.01933
G1 X61.909 Y126.807 E0.01914
G1 X61.409 Y126.813 E0.01568
G1 X60.685 Y126.776 E0.02273
G1 X59.854 Y126.538 E0.02712
G1 X59.224 Y126.007 E0.02582
G1 X58.790 Y125.320 E0.02547
G1 X58.462 Y124.565 E0.02583
G1 X58.165 Y123.797 E0.02581
G1 X57.840 Y123.075 E0.02483
G1 X57.443 Y122.454 E0.02311
G1 X56.929 Y121.976 E0.02199
G1 X56.233 Y121.663 E0.02395
G1 X55.278 Y121.562 E0.03011
G1 X55.203 Y121.581 E0.00240
G1 X55.084 Y121.568 E0.00378
G1 X54.612 Y121.685 E0.01523
G1 X54.175 Y122.006 E0.01702
G1 X53.738 Y122.528 E0.02135
G1 X53.306 Y123.200 E0.02503
G1 X52.422 Y124.719 E0.05511
G1 X51.924 Y125.446 E0.02766
G1 X51.342 Y126.069 E0.02671
G1 X50.634 Y126.508 E0.02614
G1 X49.911 Y126.630 E0.02298
G1 X49.058 Y126.472 E0.02718
G1 X48.261 Y126.092 E0.02769
G1 X47.586 Y125.555 E0.02704
G1 X47.026 Y124.911 E0.02677
G1 X46.570 Y124.203 E0.02641
G1 X46.209 Y123.470 E0.02561
G1 X45.937 Y122.750 E0.02415
G1 X45.747 Y122.078 E0.02189
G1 X45.633 Y121.487 E0.01886
G1 X45.596 Y121.026 E0.01451
G1 X45.551 Y118.341 E0.08419
G1 X45.470 Y115.852 E0.07809
G1 X45.304 Y112.145 E0.11634
M204 S1250
G1 X45.296 Y111.685 F9000.000
G1 E-2.24000 F2400.000
;WIPE_START
G1 F7200.000
G1 X48.184 Y112.136 E-0.91200
;WIPE_END
G1 E-0.04800 F2400.000
G1 Z0.400 F9000.000
G1 X46.249 Y93.708
G1 Z0.200
G1 E3.20000 F1500.000
M204 S800
;TYPE:Perimeter
G1 F1200.000
G1 X72.052 Y93.708 E0.80903
G1 X72.313 Y95.063 E0.04328
G1 X70.779 Y95.678 E0.05182
G1 X69.007 Y96.857 E0.06673
G1 X67.541 Y98.511 E0.06933
G1 X66.504 Y100.752 E0.07741
G1 X66.036 Y103.759 E0.09542
G1 X65.953 Y106.828 E0.09626
G1 X65.882 Y111.282 E0.13966
G1 X44.881 Y111.282 E0.65845
G1 X44.734 Y107.197 E0.12817
G1 X44.718 Y105.225 E0.06184
G1 X44.766 Y103.284 E0.06086
G1 X44.894 Y101.353 E0.06068
G1 X45.120 Y99.412 E0.06128
G1 X45.497 Y97.108 E0.07319
G1 X45.960 Y94.825 E0.07305
G1 X46.234 Y93.766 E0.03430
M204 S1250
G1 X46.541 Y94.085 F9000.000
M204 S800
;TYPE:External perimeter
G1 F1200.000
G1 X71.740 Y94.085 E0.79012
G1 X71.884 Y94.829 E0.02376
G1 X70.603 Y95.343 E0.04328
G1 X68.757 Y96.570 E0.06948
G1 X67.222 Y98.303 E0.07260
G1 X66.139 Y100.642 E0.08081
G1 X65.660 Y103.725 E0.09784
G1 X65.576 Y106.820 E0.09707
G1 X65.511 Y110.905 E0.12810
G1 X45.245 Y110.905 E0.63541
G1 X45.111 Y107.189 E0.11660
G1 X45.095 Y105.228 E0.06148
G1 X45.142 Y103.301 E0.06042
G1 X45.270 Y101.388 E0.06014
G1 X45.494 Y99.464 E0.06072
G1 X45.868 Y97.176 E0.07269
G1 X46.327 Y94.910 E0.07251
G1 X46.526 Y94.143 E0.02483
M204 S1250
G1 X46.569 Y93.686 F9000.000
G1 E-2.24000 F2400.000
;WIPE_START
G1 F7200.000
G1 X49.406 Y94.136 E-0.91200
;WIPE_END
G1 E-0.04800 F2400.000
G1 Z0.400 F9000.000
G1 X116.266 Y111.708
G1 Z0.200
G1 E3.20000 F1500.000
M204 S800
;TYPE:Perimeter
G1 F1200.000
G1 X135.265 Y111.708 E0.59570
G1 X135.035 Y118.081 E0.19994
G1 X135.010 Y121.344 E0.10232
G1 X134.973 Y122.059 E0.02247
G1 X134.888 Y122.835 E0.02448
G1 X134.735 Y123.644 E0.02580
G1 X134.496 Y124.451 E0.02641
G1 X134.145 Y125.232 E0.02685
G1 X133.650 Y125.948 E0.02728
G1 X132.982 Y126.546 E0.02812
G1 X132.134 Y126.947 E0.02943
G1 X131.194 Y127.088 E0.02977
G1 X130.435 Y126.840 E0.02506
G1 X129.831 Y126.245 E0.02656
G1 X129.376 Y125.548 E0.02610
G1 X128.567 Y124.015 E0.05435
G1 X128.140 Y123.274 E0.02683
G1 X127.682 Y122.637 E0.02458
G1 X127.194 Y122.161 E0.02138
G1 X126.680 Y121.872 E0.01850
G1 X126.098 Y121.771 E0.01852
G1 X125.993 Y121.792 E0.00334
G1 X125.904 Y121.776 E0.00283
G1 X125.424 Y121.869 E0.01534
G1 X124.972 Y122.145 E0.01662
G1 X124.496 Y122.631 E0.02131
G1 X124.003 Y123.292 E0.02586
G1 X122.942 Y124.866 E0.05954
G1 X122.306 Y125.655 E0.03177
G1 X121.535 Y126.351 E0.03255
G1 X120.578 Y126.852 E0.03387
G1 X119.558 Y127.011 E0.03236
G1 X119.178 Y126.979 E0.01195
G1 X118.720 Y126.872 E0.01477
G1 X118.268 Y126.703 E0.01512
G1 X117.826 Y126.477 E0.01559
G1 X117.402 Y126.190 E0.01602
G1 X117.009 Y125.846 E0.01641
G1 X116.659 Y125.439 E0.01681
G1 X116.369 Y124.969 E0.01733
G1 X116.160 Y124.435 E0.01796
G1 X116.063 Y123.881 E0.01764
G1 X115.938 Y121.396 E0.07803
G1 X115.928 Y119.111 E0.07164
G1 X115.995 Y116.951 E0.06773
G1 X116.263 Y111.768 E0.16275
M204 S1250
G1 X116.624 Y112.085 F9000.000
M204 S800
;TYPE:External perimeter
G1 F1200.000
G1 X134.874 Y112.085 E0.57222
G1 X134.658 Y118.072 E0.18785
G1 X134.633 Y121.332 E0.10222
G1 X134.597 Y122.029 E0.02187
G1 X134.515 Y122.780 E0.02367
G1 X134.368 Y123.555 E0.02474
G1 X134.141 Y124.320 E0.02502
G1 X133.816 Y125.046 E0.02497
G1 X133.365 Y125.696 E0.02479
G1 X132.771 Y126.228 E0.02501
G1 X132.023 Y126.583 E0.02597
G1 X131.227 Y126.701 E0.02523
G1 X130.636 Y126.509 E0.01948
G1 X130.125 Y126.005 E0.02251
G1 X129.702 Y125.357 E0.02428
G1 X128.898 Y123.833 E0.05402
G1 X128.457 Y123.069 E0.02765
G1 X127.969 Y122.390 E0.02620
G1 X127.422 Y121.856 E0.02397
G1 X126.808 Y121.512 E0.02209
G1 X126.094 Y121.388 E0.02271
G1 X125.989 Y121.408 E0.00334
G1 X125.901 Y121.393 E0.00282
G1 X125.286 Y121.512 E0.01965
G1 X124.735 Y121.848 E0.02023
G1 X124.209 Y122.385 E0.02357
G1 X123.696 Y123.074 E0.02693
G1 X122.638 Y124.642 E0.05931
G1 X122.031 Y125.396 E0.03033
G1 X121.318 Y126.039 E0.03011
G1 X120.458 Y126.489 E0.03042
G1 X119.545 Y126.632 E0.02899
G1 X119.238 Y126.606 E0.00966
G1 X118.829 Y126.510 E0.01316
G1 X118.420 Y126.358 E0.01368
G1 X118.018 Y126.152 E0.01418
G1 X117.633 Y125.891 E0.01457
G1 X117.277 Y125.579 E0.01484
G1 X116.964 Y125.216 E0.01504
G1 X116.708 Y124.800 E0.01533
G1 X116.525 Y124.333 E0.01571
G1 X116.439 Y123.839 E0.01573
G1 X116.315 Y121.385 E0.07703
G1 X116.305 Y119.116 E0.07116
G1 X116.371 Y116.967 E0.06740
G1 X116.621 Y112.145 E0.15140
M204 S1250
G1 X116.630 Y111.685 F9000.000
G1 E-2.24000 F2400.000
;WIPE_START
G1 F7200.000
G1 X119.501 Y112.135 E-0.91200
;WIPE_END
G1 E-0.04800 F2400.000
G1 Z0.400 F9000.000
G1 X108.578 Y93.708
G1 Z0.200
G1 E3.20000 F1500.000
M204 S800
;TYPE:Perimeter
G1 F1200.000
G1 X133.698 Y93.708 E0.78762
G1 X134.049 Y94.847 E0.03736
G1 X134.801 Y98.963 E0.13121
G1 X135.195 Y103.150 E0.13185
