; generated by PrusaSlicer 2.3.3+win64 on 2022-06-16 at 08:32:29 UTC


;
;

;
;
; 

; external perimeters extrusion width = 0.45mm
; perimeters extrusion width = 0.45mm
; infill extrusion width = 0.45mm
; solid infill extrusion width = 0.45mm
; top infill extrusion width = 0.40mm
; first layer extrusion width = 0.42mm

M73 P0 R65
M201 X1250 Y1250 Z400 E5000 ; sets maximum accelerations, mm/sec^2
M203 X180 Y180 Z12 E80 ; sets maximum feedrates, mm/sec
M204 P1250 R1250 T1250 ; sets acceleration (P, T) and retract acceleration (R), mm/sec^2
M205 X8.00 Y8.00 Z2.00 E10.00 ; sets the jerk limits, mm/sec
M205 S0 T0 ; sets the minimum extruding and travel feed rate, mm/sec
M107
;TYPE:Custom
G90 ; use absolute coordinates
M83 ; extruder relative mode
M104 S170 ; set extruder temp for bed leveling
M140 S85 ; set bed temp
M109 R170 ; wait for bed leveling temp
M190 S85 ; wait for bed temp
G28 ; home all without mesh bed level
G29 ; mesh bed leveling 
M104 S230 ; set extruder temp
G92 E0.0
G1 Y-2.0 X179 F2400
G1 Z3 F720
M109 S230 ; wait for extruder temp

; intro line
G1 X170 F1000
G1 Z0.2 F720
G1 X110.0 E8.0 F900
G1 X40.0 E10.0 F700
G92 E0.0

M221 S95 ; set flow
G21 ; set units to millimeters
G90 ; use absolute coordinates
M83 ; use relative distances for extrusion
M900 K0.2 ; Filament gcode
;LAYER_CHANGE
;Z:0.2
;HEIGHT:0.2
;BEFORE_LAYER_CHANGE
G92 E0.0
;0.2


G1 E-3.20000 F2400.000
G1 Z0.200 F9000.000
;AFTER_LAYER_CHANGE
;0.2
G1 Z0.400
G1 X71.934 Y38.733
G1 Z0.200
G1 E3.20000 F1500.000
M204 S800
;TYPE:Skirt
;WIDTH:0.42
G1 F1200.000
G1 X72.664 Y37.719 E0.03918
G1 X73.263 Y37.092 E0.02719
G1 X74.678 Y36.003 E0.05599
G1 X76.275 Y35.198 E0.05608
G1 X77.750 Y34.727 E0.04853
G1 X78.620 Y34.551 E0.02783
G1 X80.435 Y34.402 E0.05711
G1 X95.473 Y34.261 E0.47153
G1 X96.778 Y34.345 E0.04099
G1 X98.140 Y34.610 E0.04349
G1 X99.365 Y35.006 E0.04038
G1 X100.391 Y35.461 E0.03520
G1 X101.373 Y36.027 E0.03553
G1 X102.443 Y36.821 E0.04179
G1 X103.341 Y37.696 E0.03931
G1 X104.096 Y38.675 E0.03875
G1 X104.695 Y39.777 E0.03933
G1 X136.593 Y124.221 E2.83029
G1 X137.003 Y125.635 E0.04617
G1 X137.238 Y127.141 E0.04778
G1 X137.255 Y128.634 E0.04683
G1 X136.987 Y130.300 E0.05290
G1 X136.514 Y131.681 E0.04578
G1 X135.719 Y133.115 E0.05139
G1 X134.517 Y134.662 E0.06143
G1 X133.244 Y135.859 E0.05480
G1 X120.512 Y145.823 E0.50690
G1 X119.387 Y146.510 E0.04134
G1 X118.307 Y147.013 E0.03735
G1 X116.853 Y147.493 E0.04802
G1 X115.636 Y147.729 E0.03886
G1 X114.323 Y147.817 E0.04125
G1 X63.071 Y147.817 E1.60699
G1 X61.408 Y147.667 E0.05233
G1 X59.895 Y147.264 E0.04911
G1 X58.355 Y146.578 E0.05284
G1 X57.019 Y145.721 E0.04978
G1 X43.696 Y135.593 E0.52472
G1 X42.632 Y134.695 E0.04368
G1 X42.068 Y134.087 E0.02600
G1 X41.289 Y132.980 E0.04242
G1 X40.872 Y132.181 E0.02825
G1 X40.404 Y130.902 E0.04271
G1 X40.129 Y129.507 E0.04458
G1 X40.067 Y128.564 E0.02963
G1 X40.231 Y126.541 E0.06363
G1 X40.809 Y124.326 E0.07178
G1 X71.331 Y39.961 E2.81302
M73 P0 R64
G1 X71.908 Y38.787 E0.04099
M204 S1250
; printing object Powerful Robo.stl id:0 copy 0
G1 E-2.24000 F2400.000
;WIPE_START
G1 F7200.000
G1 X72.664 Y37.719 E-0.41446
G1 X73.263 Y37.092 E-0.27465
G1 X73.821 Y36.663 E-0.22289
;WIPE_END
G1 E-0.04800 F2400.000
G1 Z0.400 F9000.000
G1 X77.698 Y80.270
G1 Z0.200
G1 E3.20000 F1500.000
M204 S800
;TYPE:Perimeter
G1 F1200.000
G1 X99.775 Y80.270 E0.69222
G1 X99.437 Y89.807 E0.29920
G1 X109.470 Y99.875 E0.44568
G1 X109.065 Y100.844 E0.03293
G1 X69.686 Y100.844 E1.23470
G1 X69.278 Y99.889 E0.03258
G1 X70.619 Y98.486 E0.06084
G1 X72.936 Y95.973 E0.10717
G1 X74.953 Y93.671 E0.09596
G1 X76.638 Y91.611 E0.08346
M73 P1 R64
G1 X77.822 Y90.000 E0.06268
G1 X77.835 Y89.114 E0.02776
G1 X77.803 Y86.085 E0.09498
G1 X77.699 Y80.330 E0.18048
M204 S1250
G1 X78.082 Y80.647 F9000.000
M204 S800
;TYPE:External perimeter
G1 F1200.000
G1 X99.384 Y80.647 E0.66793
G1 X99.054 Y89.957 E0.29208
G1 X109.025 Y99.963 E0.44290
G1 X108.814 Y100.467 E0.01714
G1 X69.935 Y100.467 E1.21902
G1 X69.723 Y99.969 E0.01697
G1 X70.894 Y98.744 E0.05314
G1 X73.216 Y96.225 E0.10743
G1 X75.241 Y93.915 E0.09631
G1 X76.936 Y91.842 E0.08396
G1 X78.197 Y90.126 E0.06677
G1 X78.212 Y89.115 E0.03169
G1 X78.180 Y86.080 E0.09518
G1 X78.083 Y80.707 E0.16849
M204 S1250
G1 X78.080 Y80.247 F9000.000
G1 E-2.24000 F2400.000
;WIPE_START
G1 F7200.000
G1 X80.963 Y80.699 E-0.91200
;WIPE_END
G1 E-0.04800 F2400.000
G1 Z0.400 F9000.000
G1 X77.185 Y62.270
G1 Z0.200
G1 E3.20000 F1500.000
M204 S800
;TYPE:Perimeter
G1 F1200.000
G1 X100.323 Y62.270 E0.72548
G1 X100.176 Y67.998 E0.17965
G1 X99.791 Y79.844 E0.37163
G1 X77.687 Y79.844 E0.69303
G1 X77.430 Y69.718 E0.31760
G1 X77.187 Y62.330 E0.23178
M204 S1250
G1 X77.575 Y62.647 F9000.000
M204 S800
;TYPE:External perimeter
G1 F1200.000
G1 X99.936 Y62.647 E0.70113
G1 X99.799 Y67.987 E0.16748
G1 X99.426 Y79.467 E0.36014
G1 X78.055 Y79.467 E0.67006
G1 X77.807 Y69.707 E0.30611
G1 X77.577 Y62.707 E0.21960
M204 S1250
G1 X77.571 Y62.247 F9000.000
G1 E-2.24000 F2400.000
;WIPE_START
G1 F7200.000
G1 X80.457 Y62.699 E-0.91200
;WIPE_END
G1 E-0.04800 F2400.000
G1 Z0.400 F9000.000
G1 X100.340 Y61.844
G1 Z0.200
G1 E3.20000 F1500.000
M204 S800
;TYPE:Perimeter
G1 F1200.000
G1 X77.164 Y61.844 E0.72666
G1 X76.967 Y56.877 E0.15585
G1 X76.676 Y51.115 E0.18092
G1 X76.350 Y46.347 E0.14984
G1 X75.983 Y42.926 E0.10788
G1 X75.982 Y42.235 E0.02167
G1 X76.206 Y41.534 E0.02306
G1 X76.608 Y40.944 E0.02237
G1 X77.129 Y40.470 E0.02209
G1 X77.732 Y40.099 E0.02220
G1 X78.395 Y39.820 E0.02257
G1 X79.101 Y39.622 E0.02300
G1 X79.834 Y39.507 E0.02325
G1 X80.554 Y39.474 E0.02261
G1 X81.285 Y39.526 E0.02298
G1 X82.938 Y39.877 E0.05298
G1 X84.258 Y40.431 E0.04488
G1 X85.280 Y41.132 E0.03888
G1 X86.054 Y41.906 E0.03432
G1 X86.639 Y42.669 E0.03015
G1 X87.108 Y43.346 E0.02581
G1 X87.516 Y43.872 E0.02086
G1 X87.902 Y44.214 E0.01617
G1 X88.331 Y44.404 E0.01473
G1 X88.952 Y44.450 E0.01951
G1 X89.186 Y44.374 E0.00772
G1 X89.522 Y44.105 E0.01349
G1 X89.961 Y43.605 E0.02085
G1 X91.029 Y42.183 E0.05579
G1 X91.665 Y41.399 E0.03165
G1 X92.402 Y40.650 E0.03294
G1 X93.269 Y40.002 E0.03394
G1 X94.291 Y39.543 E0.03513
G1 X95.430 Y39.376 E0.03609
G1 X96.147 Y39.424 E0.02256
G1 X96.825 Y39.554 E0.02163
G1 X97.452 Y39.751 E0.02063
G1 X98.025 Y40.003 E0.01961
G1 X98.538 Y40.295 E0.01850
G1 X98.986 Y40.613 E0.01725
G1 X99.373 Y40.951 E0.01609
G1 X99.694 Y41.304 E0.01496
G1 X99.944 Y41.675 E0.01404
G1 X100.116 Y42.086 E0.01397
G1 X100.383 Y44.744 E0.08377
G1 X100.485 Y49.095 E0.13646
G1 X100.464 Y54.735 E0.17684
G1 X100.341 Y61.784 E0.22104
M204 S1250
G1 X99.969 Y61.467 F9000.000
M204 S800
;TYPE:External perimeter
G1 F1200.000
G1 X77.526 Y61.467 E0.70367
G1 X77.343 Y56.861 E0.14455
G1 X77.053 Y51.092 E0.18109
G1 X76.726 Y46.314 E0.15018
G1 X76.360 Y42.905 E0.10749
G1 X76.359 Y42.293 E0.01919
G1 X76.549 Y41.701 E0.01949
G1 X76.894 Y41.193 E0.01927
G1 X77.356 Y40.773 E0.01959
G1 X77.905 Y40.435 E0.02019
G1 X78.520 Y40.176 E0.02092
G1 X79.182 Y39.991 E0.02156
G1 X79.872 Y39.883 E0.02190
G1 X80.549 Y39.852 E0.02126
G1 X81.232 Y39.900 E0.02147
G1 X82.825 Y40.238 E0.05105
G1 X84.076 Y40.763 E0.04255
G1 X85.038 Y41.423 E0.03658
G1 X85.770 Y42.155 E0.03245
G1 X86.334 Y42.892 E0.02909
G1 X86.804 Y43.569 E0.02585
G1 X87.240 Y44.131 E0.02228
G1 X87.695 Y44.535 E0.01911
G1 X88.238 Y44.776 E0.01862
G1 X88.998 Y44.831 E0.02388
G1 X89.368 Y44.711 E0.01218
G1 X89.784 Y44.379 E0.01669
G1 X90.254 Y43.843 E0.02235
G1 X91.327 Y42.415 E0.05601
G1 X91.947 Y41.651 E0.03086
G1 X92.650 Y40.934 E0.03148
G1 X93.461 Y40.329 E0.03173
G1 X94.397 Y39.909 E0.03218
G1 X95.445 Y39.755 E0.03319
G1 X96.099 Y39.799 E0.02057
G1 X96.732 Y39.920 E0.02021
G1 X97.320 Y40.105 E0.01930
G1 X97.855 Y40.340 E0.01835
G1 X98.335 Y40.613 E0.01729
G1 X98.752 Y40.910 E0.01606
G1 X99.108 Y41.221 E0.01482
G1 X99.396 Y41.537 E0.01342
G1 X99.611 Y41.855 E0.01202
G1 X99.747 Y42.180 E0.01104
G1 X100.007 Y44.768 E0.08155
G1 X100.108 Y49.099 E0.13584
G1 X100.087 Y54.731 E0.17660
G1 X99.970 Y61.407 E0.20934
M204 S1250
G1 X99.968 Y61.867 F9000.000
G1 E-2.24000 F2400.000
;WIPE_START
G1 F7200.000
G1 X97.090 Y61.415 E-0.91200
;WIPE_END
G1 E-0.04800 F2400.000
G1 Z0.400 F9000.000
G1 X98.824 Y121.270
G1 Z0.200
G1 E3.20000 F1500.000
M204 S800
;TYPE:Perimeter
G1 F1200.000
G1 X128.700 Y121.270 E0.93674
G1 X129.913 Y122.724 E0.05939
G1 X130.495 Y123.502 E0.03044
G1 X130.882 Y124.097 E0.02227
G1 X131.278 Y124.797 E0.02521
G1 X131.646 Y125.587 E0.02731
G1 X131.945 Y126.451 E0.02868
G1 X132.131 Y127.377 E0.02963
G1 X132.153 Y128.351 E0.03053
G1 X131.949 Y129.341 E0.03169
G1 X131.489 Y130.256 E0.03212
G1 X131.039 Y130.878 E0.02407
G1 X130.574 Y131.426 E0.02253
G1 X130.039 Y131.920 E0.02282
G1 X129.412 Y132.331 E0.02351
G1 X128.685 Y132.628 E0.02461
G1 X127.861 Y132.789 E0.02635
G1 X126.969 Y132.803 E0.02795
G1 X125.953 Y132.674 E0.03212
G1 X124.800 Y132.397 E0.03719
G1 X123.043 Y131.822 E0.05796
G1 X122.542 Y131.701 E0.01616
G1 X122.008 Y131.607 E0.01700
G1 X121.466 Y131.546 E0.01709
G1 X120.898 Y131.525 E0.01783
G1 X120.409 Y131.546 E0.01535
G1 X119.985 Y131.611 E0.01345
G1 X119.653 Y131.713 E0.01090
G1 X119.435 Y131.831 E0.00776
G1 X119.321 Y131.942 E0.00501
G1 X119.182 Y132.216 E0.00964
G1 X119.132 Y132.565 E0.01104
G1 X119.173 Y133.053 E0.01535
G1 X119.302 Y133.672 E0.01983
G1 X119.682 Y135.208 E0.04962
G1 X119.842 Y136.113 E0.02881
G1 X119.912 Y137.099 E0.03098
G1 X119.838 Y138.157 E0.03326
G1 X119.565 Y139.284 E0.03636
G1 X119.169 Y140.111 E0.02875
G1 X118.572 Y140.866 E0.03016
G1 X117.833 Y141.514 E0.03081
G1 X116.989 Y142.046 E0.03130
G1 X116.066 Y142.447 E0.03156
G1 X115.091 Y142.693 E0.03152
G1 X114.119 Y142.750 E0.03054
G1 X113.134 Y142.580 E0.03135
G1 X112.202 Y142.127 E0.03248
G1 X111.458 Y141.412 E0.03236
G1 X109.496 Y138.781 E0.10290
G1 X107.411 Y135.833 E0.11321
G1 X105.217 Y132.618 E0.12203
G1 X102.967 Y129.225 E0.12766
G1 X100.707 Y125.744 E0.13012
G1 X98.376 Y122.087 E0.13597
G1 X98.795 Y121.323 E0.02734
M204 S1250
G1 X99.047 Y121.647 F9000.000
M204 S800
;TYPE:External perimeter
G1 F1200.000
G1 X128.523 Y121.647 E0.92420
G1 X129.617 Y122.958 E0.05354
G1 X130.185 Y123.718 E0.02973
G1 X130.560 Y124.293 E0.02152
G1 X130.943 Y124.969 E0.02437
G1 X131.296 Y125.728 E0.02624
G1 X131.581 Y126.550 E0.02728
G1 X131.755 Y127.419 E0.02778
G1 X131.775 Y128.316 E0.02815
G1 X131.590 Y129.216 E0.02879
G1 X131.166 Y130.060 E0.02961
G1 X130.742 Y130.645 E0.02266
G1 X130.301 Y131.164 E0.02135
G1 X129.806 Y131.621 E0.02113
G1 X129.236 Y131.996 E0.02139
G1 X128.577 Y132.265 E0.02231
G1 X127.821 Y132.412 E0.02415
G1 X126.990 Y132.426 E0.02606
G1 X126.021 Y132.303 E0.03062
G1 X124.903 Y132.034 E0.03607
G1 X123.146 Y131.459 E0.05795
G1 X122.619 Y131.332 E0.01700
G1 X122.062 Y131.233 E0.01775
G1 X121.494 Y131.170 E0.01789
G1 X120.897 Y131.147 E0.01874
G1 X120.372 Y131.171 E0.01648
G1 X119.901 Y131.243 E0.01494
G1 X119.507 Y131.363 E0.01293
G1 X119.210 Y131.524 E0.01058
G1 X119.013 Y131.715 E0.00862
G1 X118.817 Y132.101 E0.01356
G1 X118.753 Y132.554 E0.01434
G1 X118.799 Y133.107 E0.01740
G1 X118.934 Y133.755 E0.02077
G1 X119.312 Y135.287 E0.04945
G1 X119.467 Y136.160 E0.02780
G1 X119.534 Y137.099 E0.02953
G1 X119.464 Y138.099 E0.03144
G1 X119.207 Y139.157 E0.03414
G1 X118.847 Y139.910 E0.02618
G1 X118.297 Y140.605 E0.02776
G1 X117.607 Y141.211 E0.02880
G1 X116.812 Y141.712 E0.02946
G1 X115.944 Y142.089 E0.02969
G1 X115.034 Y142.319 E0.02943
G1 X114.141 Y142.371 E0.02805
G1 X113.251 Y142.217 E0.02831
G1 X112.421 Y141.814 E0.02894
G1 X111.742 Y141.161 E0.02952
G1 X109.801 Y138.559 E0.10178
G1 X107.720 Y135.618 E0.11296
G1 X105.530 Y132.408 E0.12185
G1 X103.282 Y129.018 E0.12753
G1 X101.024 Y125.540 E0.13002
G1 X98.814 Y122.073 E0.12893
G1 X99.018 Y121.700 E0.01334
M204 S1250
G1 X98.985 Y121.252 F9000.000
G1 E-2.24000 F2400.000
;WIPE_START
G1 F7200.000
G1 X101.898 Y121.695 E-0.91200
;WIPE_END
G1 E-0.04800 F2400.000
G1 Z0.400 F9000.000
G1 X127.588 Y119.936
G1 Z0.200
G1 E3.20000 F1500.000
M204 S800
;TYPE:Perimeter
G1 F1200.000
G1 X127.163 Y120.844 E0.03145
G1 X97.595 Y120.844 E0.92708
G1 X94.374 Y115.674 E0.19098
G1 X91.043 Y110.217 E0.20046
G1 X90.677 Y109.736 E0.01897
G1 X90.274 Y109.392 E0.01659
G1 X89.824 Y109.147 E0.01608
G1 X89.341 Y108.999 E0.01583
G1 X88.797 Y108.949 E0.01713
G1 X88.291 Y108.999 E0.01592
G1 X87.807 Y109.146 E0.01588
G1 X87.357 Y109.391 E0.01606
G1 X86.954 Y109.735 E0.01659
G1 X86.588 Y110.217 E0.01898
G1 X83.215 Y115.735 E0.20278
G1 X80.667 Y119.844 E0.15162
G1 X50.546 Y119.844 E0.94442
M73 P2 R64
G1 X50.127 Y118.917 E0.03188
G1 X50.952 Y117.984 E0.03905
G1 X52.334 Y116.585 E0.06167
G1 X55.744 Y113.329 E0.14781
G1 X59.047 Y110.142 E0.14392
G1 X62.218 Y107.039 E0.13912
G1 X65.227 Y104.045 E0.13307
G1 X67.955 Y101.270 E0.12201
G1 X110.849 Y101.270 E1.34492
G1 X113.881 Y104.396 E0.13653
G1 X116.384 Y107.044 E0.11426
G1 X118.740 Y109.622 E0.10951
G1 X121.110 Y112.301 E0.11215
G1 X123.654 Y115.259 E0.12232
G1 X127.549 Y119.890 E0.18974
M204 S1250
G1 X127.144 Y119.994 F9000.000
M204 S800
;TYPE:External perimeter
G1 F1200.000
G1 X126.923 Y120.467 E0.01637
G1 X97.804 Y120.467 E0.91299
G1 X94.695 Y115.476 E0.18437
G1 X91.355 Y110.004 E0.20101
G1 X90.952 Y109.475 E0.02085
G1 X90.489 Y109.080 E0.01910
G1 X89.971 Y108.797 E0.01852
G1 X89.414 Y108.627 E0.01824
G1 X88.796 Y108.570 E0.01947
G1 X88.217 Y108.627 E0.01822
G1 X87.660 Y108.796 E0.01826
G1 X87.142 Y109.079 E0.01851
G1 X86.679 Y109.474 E0.01910
G1 X86.276 Y110.004 E0.02085
G1 X82.894 Y115.537 E0.20334
G1 X80.457 Y119.467 E0.14500
G1 X50.789 Y119.467 E0.93020
G1 X50.571 Y118.984 E0.01661
G1 X51.227 Y118.241 E0.03108
G1 X52.599 Y116.854 E0.06117
G1 X56.005 Y113.601 E0.14767
G1 X59.309 Y110.412 E0.14399
G1 X62.483 Y107.307 E0.13921
G1 X65.494 Y104.311 E0.13319
G1 X68.113 Y101.647 E0.11712
G1 X110.689 Y101.647 E1.33496
M73 P2 R63
G1 X113.608 Y104.657 E0.13145
G1 X116.107 Y107.301 E0.11408
G1 X118.460 Y109.874 E0.10931
G1 X120.826 Y112.549 E0.11197
G1 X123.366 Y115.503 E0.12218
G1 X127.106 Y119.948 E0.18212
M204 S1250
G1 X127.479 Y120.214 F9000.000
G1 E-2.24000 F2400.000
;WIPE_START
G1 F7200.000
G1 X126.923 Y120.467 E-0.17421
G1 X124.593 Y120.467 E-0.73779
;WIPE_END
G1 E-0.04800 F2400.000
G1 Z0.400 F9000.000
G1 X79.890 Y121.084
G1 Z0.200
G1 E3.20000 F1500.000
M204 S800
;TYPE:Perimeter
G1 F1200.000
G1 X76.854 Y125.874 E0.17783
G1 X74.606 Y129.344 E0.12962
G1 X72.383 Y132.694 E0.12608
G1 X70.235 Y135.829 E0.11914
G1 X68.215 Y138.650 E0.10880
G1 X66.345 Y141.098 E0.09657
G1 X65.334 Y142.064 E0.04387
G1 X64.166 Y142.626 E0.04065
G1 X62.975 Y142.766 E0.03759
G1 X61.825 Y142.556 E0.03666
G1 X60.747 Y142.068 E0.03707
G1 X59.783 Y141.380 E0.03715
G1 X58.949 Y140.542 E0.03709
G1 X58.270 Y139.597 E0.03646
G1 X57.772 Y138.585 E0.03538
G1 X57.503 Y137.554 E0.03340
G1 X57.466 Y136.903 E0.02045
G1 X57.512 Y136.261 E0.02019
G1 X57.759 Y134.415 E0.05840
G1 X57.783 Y133.860 E0.01741
G1 X57.742 Y133.350 E0.01603
G1 X57.624 Y132.894 E0.01478
G1 X57.412 Y132.479 E0.01459
G1 X57.095 Y132.109 E0.01529
G1 X56.517 Y131.748 E0.02138
G1 X55.867 Y131.642 E0.02065
G1 X55.104 Y131.732 E0.02409
G1 X54.186 Y131.982 E0.02981
G1 X53.140 Y132.313 E0.03440
G1 X51.977 Y132.623 E0.03776
G1 X50.706 Y132.795 E0.04020
G1 X49.357 Y132.704 E0.04240
G1 X47.914 Y132.224 E0.04769
G1 X46.418 Y131.245 E0.05604
G1 X45.569 Y130.153 E0.04336
G1 X45.218 Y128.804 E0.04371
G1 X45.300 Y127.350 E0.04567
G1 X45.716 Y125.832 E0.04933
G1 X46.400 Y124.265 E0.05362
G1 X47.306 Y122.665 E0.05763
G1 X48.394 Y121.063 E0.06071
G1 X49.013 Y120.270 E0.03156
G1 X79.440 Y120.270 E0.95401
G1 X79.861 Y121.031 E0.02728
M204 S1250
G1 X79.452 Y121.071 F9000.000
M204 S800
;TYPE:External perimeter
G1 F1200.000
G1 X76.536 Y125.670 E0.17076
G1 X74.291 Y129.137 E0.12950
G1 X72.070 Y132.483 E0.12593
G1 X69.926 Y135.612 E0.11893
G1 X67.912 Y138.426 E0.10849
G1 X66.063 Y140.845 E0.09546
G1 X65.116 Y141.750 E0.04107
G1 X64.059 Y142.259 E0.03679
G1 X62.987 Y142.385 E0.03384
G1 X61.938 Y142.193 E0.03344
G1 X60.936 Y141.740 E0.03446
G1 X60.028 Y141.092 E0.03500
G1 X59.237 Y140.297 E0.03515
G1 X58.594 Y139.403 E0.03454
G1 X58.127 Y138.453 E0.03319
