; generated by PrusaSlicer 2.3.3+win64 on 2022-06-16 at 06:18:18 UTC


;
;

;
;
; 

; external perimeters extrusion width = 0.45mm
; perimeters extrusion width = 0.45mm
; infill extrusion width = 0.45mm
; solid infill extrusion width = 0.45mm
; top infill extrusion width = 0.40mm
; first layer extrusion width = 0.42mm

M73 P0 R89
M201 X1250 Y1250 Z400 E5000 ; sets maximum accelerations, mm/sec^2
M203 X180 Y180 Z12 E80 ; sets maximum feedrates, mm/sec
M204 P1250 R1250 T1250 ; sets acceleration (P, T) and retract acceleration (R), mm/sec^2
M205 X8.00 Y8.00 Z2.00 E10.00 ; sets the jerk limits, mm/sec
M205 S0 T0 ; sets the minimum extruding and travel feed rate, mm/sec
M107
;TYPE:Custom
G90 ; use absolute coordinates
M83 ; extruder relative mode
M104 S170 ; set extruder temp for bed leveling
M140 S85 ; set bed temp
M109 R170 ; wait for bed leveling temp
M190 S85 ; wait for bed temp
G28 ; home all without mesh bed level
G29 ; mesh bed leveling 
M104 S230 ; set extruder temp
G92 E0.0
G1 Y-2.0 X179 F2400
G1 Z3 F720
M109 S230 ; wait for extruder temp

; intro line
G1 X170 F1000
G1 Z0.2 F720
G1 X110.0 E8.0 F900
G1 X40.0 E10.0 F700
G92 E0.0

M221 S95 ; set flow
G21 ; set units to millimeters
G90 ; use absolute coordinates
M83 ; use relative distances for extrusion
M900 K0.2 ; Filament gcode
;LAYER_CHANGE
;Z:0.2
;HEIGHT:0.2
;BEFORE_LAYER_CHANGE
G92 E0.0
;0.2


G1 E-3.20000 F2400.000
G1 Z0.200 F9000.000
;AFTER_LAYER_CHANGE
;0.2
G1 Z0.400
G1 X45.336 Y38.043
G1 Z0.200
G1 E3.20000 F1500.000
M204 S800
;TYPE:Skirt
;WIDTH:0.42
G1 F1200.000
G1 X46.210 Y37.035 E0.04185
G1 X46.930 Y36.417 E0.02974
G1 X47.789 Y35.841 E0.03245
G1 X48.866 Y35.300 E0.03778
G1 X50.940 Y34.626 E0.06838
G1 X53.299 Y34.242 E0.07492
M73 P0 R88
G1 X56.111 Y34.089 E0.08831
G1 X125.055 Y35.779 E2.16234
G1 X126.046 Y35.959 E0.03157
G1 X126.912 Y36.224 E0.02839
G1 X127.719 Y36.578 E0.02763
G1 X128.444 Y37.004 E0.02638
G1 X134.081 Y41.530 E0.22665
G1 X135.139 Y42.642 E0.04814
G1 X135.879 Y43.743 E0.04160
G1 X136.475 Y45.014 E0.04400
G1 X136.999 Y46.719 E0.05593
G1 X137.317 Y48.688 E0.06253
G1 X137.485 Y51.376 E0.08446
G1 X137.729 Y137.389 E2.69687
G1 X137.678 Y138.140 E0.02361
G1 X137.475 Y139.163 E0.03268
G1 X136.967 Y140.486 E0.04444
G1 X136.612 Y141.102 E0.02231
G1 X135.954 Y141.974 E0.03425
G1 X134.822 Y143.049 E0.04894
G1 X133.747 Y143.770 E0.04060
G1 X132.542 Y144.351 E0.04194
G1 X130.842 Y144.926 E0.05626
G1 X129.264 Y145.282 E0.05071
G1 X127.424 Y145.560 E0.05835
G1 X123.038 Y145.867 E0.13786
G1 X117.612 Y145.890 E0.17013
G1 X54.700 Y145.285 E1.97265
G1 X53.399 Y145.174 E0.04094
G1 X52.514 Y144.994 E0.02832
G1 X51.116 Y144.497 E0.04652
G1 X50.333 Y144.075 E0.02790
G1 X45.139 Y140.646 E0.19513
G1 X44.290 Y139.820 E0.03713
G1 X43.723 Y139.059 E0.02978
G1 X43.176 Y138.062 E0.03564
G1 X42.838 Y137.159 E0.03025
G1 X42.611 Y136.199 E0.03092
G1 X42.511 Y135.317 E0.02781
G1 X42.271 Y118.275 E0.53441
G1 X43.486 Y56.745 E1.92959
G1 X44.024 Y41.251 E0.48611
G1 X44.173 Y40.513 E0.02360
G1 X44.507 Y39.518 E0.03290
G1 X45.306 Y38.096 E0.05116
M204 S1250
; printing object Cool Albar.stl id:0 copy 0
G1 E-2.24000 F2400.000
;WIPE_START
G1 F7200.000
G1 X46.210 Y37.035 E-0.44135
G1 X46.930 Y36.417 E-0.30031
G1 X47.377 Y36.118 E-0.17034
;WIPE_END
G1 E-0.04800 F2400.000
G1 Z0.400 F9000.000
G1 X83.058 Y80.557
G1 Z0.200
G1 E3.20000 F1500.000
M204 S800
;TYPE:Perimeter
G1 F1200.000
G1 X114.172 Y80.557 E0.97558
G1 X114.574 Y81.531 E0.03303
G1 X113.341 Y82.757 E0.05453
G1 X105.478 Y90.190 E0.33926
G1 X97.437 Y97.530 E0.34135
G1 X94.515 Y100.131 E0.12267
G1 X63.709 Y100.131 E0.96588
G1 X63.304 Y99.168 E0.03277
G1 X65.818 Y96.595 E0.11279
G1 X72.478 Y90.159 E0.29039
G1 X80.024 Y83.221 E0.32142
G1 X83.012 Y80.597 E0.12470
M204 S1250
G1 X83.200 Y80.934 F9000.000
M204 S800
;TYPE:External perimeter
G1 F1200.000
G1 X113.920 Y80.934 E0.96322
G1 X114.129 Y81.441 E0.01720
G1 X113.078 Y82.486 E0.04647
G1 X105.221 Y89.913 E0.33900
G1 X97.185 Y97.250 E0.34118
G1 X94.371 Y99.754 E0.11810
G1 X63.960 Y99.754 E0.95353
G1 X63.748 Y99.252 E0.01707
G1 X66.084 Y96.862 E0.10477
G1 X72.737 Y90.434 E0.29007
G1 X80.276 Y83.501 E0.32113
G1 X83.155 Y80.974 E0.12011
M204 S1250
G1 X83.309 Y80.549 F9000.000
G1 E-2.24000 F2400.000
;WIPE_START
G1 F7200.000
G1 X86.035 Y80.970 E-0.91200
;WIPE_END
G1 E-0.04800 F2400.000
G1 Z0.400 F9000.000
G1 X92.511 Y100.557
G1 Z0.200
G1 E3.20000 F1500.000
M204 S800
;TYPE:Perimeter
G1 F1200.000
G1 X92.897 Y101.571 E0.03402
G1 X89.725 Y104.395 E0.13318
G1 X82.847 Y110.403 E0.28633
G1 X77.306 Y115.169 E0.22915
G1 X72.637 Y119.131 E0.19199
G1 X47.243 Y119.131 E0.79624
G1 X49.035 Y115.768 E0.11949
G1 X51.658 Y112.106 E0.14125
G1 X55.360 Y107.645 E0.18174
G1 X60.096 Y102.451 E0.22039
G1 X61.946 Y100.557 E0.08302
G1 X92.451 Y100.557 E0.95646
M204 S1250
M73 P1 R88
G1 X92.251 Y100.934 F9000.000
M204 S800
;TYPE:External perimeter
G1 F1200.000
G1 X92.452 Y101.462 E0.01772
G1 X89.475 Y104.113 E0.12497
G1 X82.600 Y110.118 E0.28623
G1 X77.061 Y114.883 E0.22907
G1 X72.499 Y118.754 E0.18761
G1 X47.871 Y118.754 E0.77220
G1 X49.356 Y115.967 E0.09901
G1 X51.957 Y112.336 E0.14004
G1 X55.645 Y107.893 E0.18105
G1 X60.370 Y102.710 E0.21991
G1 X62.105 Y100.934 E0.07784
G1 X92.191 Y100.934 E0.94333
M204 S1250
G1 X92.638 Y100.831 F9000.000
G1 E-2.24000 F2400.000
;WIPE_START
G1 F7200.000
G1 X92.452 Y101.462 E-0.18661
G1 X90.741 Y102.985 E-0.72539
;WIPE_END
G1 E-0.04800 F2400.000
G1 Z0.400 F9000.000
G1 X47.489 Y119.557
G1 Z0.200
G1 E3.20000 F1500.000
M204 S800
;TYPE:Perimeter
G1 F1200.000
G1 X77.408 Y119.557 E0.93809
G1 X79.984 Y119.869 E0.08136
G1 X86.832 Y120.096 E0.21485
G1 X94.769 Y120.059 E0.24885
G1 X111.415 Y119.748 E0.52203
G1 X118.903 Y119.756 E0.23478
G1 X125.043 Y120.062 E0.19276
G1 X129.382 Y120.851 E0.13827
G1 X131.354 Y122.639 E0.08346
G1 X131.034 Y123.854 E0.03940
G1 X130.505 Y124.634 E0.02955
G1 X129.832 Y125.317 E0.03006
G1 X127.551 Y127.226 E0.09326
G1 X126.895 Y127.873 E0.02889
G1 X126.389 Y128.525 E0.02588
G1 X126.072 Y129.174 E0.02263
G1 X125.963 Y129.827 E0.02077
G1 X126.076 Y130.473 E0.02058
G1 X126.393 Y130.990 E0.01901
G1 X126.939 Y131.478 E0.02295
G1 X127.701 Y131.959 E0.02825
G1 X129.585 Y132.989 E0.06734
G1 X130.567 Y133.643 E0.03697
G1 X131.468 Y134.478 E0.03853
G1 X132.183 Y135.559 E0.04063
G1 X132.661 Y137.119 E0.05117
G1 X131.567 Y139.180 E0.07317
G1 X128.509 Y140.216 E0.10121
G1 X124.072 Y140.681 E0.13990
G1 X118.460 Y140.758 E0.17595
G1 X111.978 Y140.557 E0.20335
G1 X104.956 Y140.182 E0.22049
G1 X90.655 Y139.295 E0.44924
G1 X84.070 Y138.982 E0.20671
G1 X78.316 Y138.886 E0.18043
G1 X75.508 Y138.925 E0.08806
G1 X72.724 Y138.990 E0.08730
G1 X67.401 Y139.184 E0.16702
G1 X64.946 Y139.308 E0.07707
G1 X60.626 Y139.588 E0.13572
G1 X58.850 Y139.739 E0.05590
G1 X57.379 Y139.892 E0.04637
G1 X56.224 Y140.046 E0.03652
G1 X55.030 Y140.153 E0.03761
G1 X54.019 Y140.057 E0.03185
G1 X53.198 Y139.757 E0.02740
G1 X52.582 Y139.278 E0.02446
G1 X52.184 Y138.705 E0.02187
G1 X51.955 Y138.134 E0.01930
G1 X51.718 Y137.181 E0.03080
G1 X51.548 Y137.167 E0.00536
G1 X50.081 Y137.195 E0.04599
G1 X49.466 Y137.121 E0.01943
G1 X48.835 Y136.914 E0.02082
G1 X48.251 Y136.482 E0.02280
G1 X47.847 Y135.813 E0.02451
G1 X47.700 Y135.015 E0.02542
G1 X47.634 Y132.571 E0.07667
G1 X47.489 Y119.617 E0.40619
M204 S1250
G1 X47.870 Y119.934 F9000.000
M204 S800
;TYPE:External perimeter
G1 F1200.000
G1 X77.385 Y119.934 E0.92542
G1 X79.955 Y120.246 E0.08117
G1 X86.827 Y120.473 E0.21559
G1 X94.773 Y120.436 E0.24915
G1 X111.418 Y120.125 E0.52199
G1 X118.893 Y120.133 E0.23437
G1 X125.000 Y120.438 E0.19171
G1 X129.209 Y121.203 E0.13412
G1 X130.931 Y122.765 E0.07290
G1 X130.686 Y123.696 E0.03020
G1 X130.212 Y124.394 E0.02645
G1 X129.576 Y125.039 E0.02841
G1 X127.297 Y126.947 E0.09317
G1 X126.612 Y127.622 E0.03016
G1 X126.067 Y128.325 E0.02789
G1 X125.710 Y129.057 E0.02556
G1 X125.580 Y129.828 E0.02451
G1 X125.717 Y130.609 E0.02486
G1 X126.100 Y131.235 E0.02299
G1 X126.711 Y131.780 E0.02568
G1 X127.509 Y132.284 E0.02960
G1 X129.390 Y133.312 E0.06720
G1 X130.333 Y133.940 E0.03551
G1 X131.179 Y134.724 E0.03616
G1 X131.839 Y135.721 E0.03750
G1 X132.255 Y137.080 E0.04457
G1 X131.304 Y138.871 E0.06357
G1 X128.428 Y139.845 E0.09519
G1 X124.049 Y140.304 E0.13805
M73 P1 R87
G1 X118.463 Y140.381 E0.17515
G1 X111.994 Y140.181 E0.20295
G1 X104.977 Y139.805 E0.22031
G1 X90.676 Y138.918 E0.44928
G1 X84.082 Y138.605 E0.20698
G1 X78.316 Y138.509 E0.18080
G1 X75.501 Y138.548 E0.08830
G1 X72.713 Y138.613 E0.08743
G1 X67.384 Y138.808 E0.16718
G1 X64.924 Y138.931 E0.07724
G1 X60.598 Y139.212 E0.13592
G1 X58.815 Y139.363 E0.05613
G1 X57.334 Y139.517 E0.04666
G1 X56.183 Y139.672 E0.03644
G1 X55.031 Y139.775 E0.03626
G1 X54.103 Y139.686 E0.02923
G1 X53.383 Y139.423 E0.02403
G1 X52.859 Y139.015 E0.02081
G1 X52.518 Y138.525 E0.01873
G1 X52.315 Y138.019 E0.01709
G1 X52.111 Y137.168 E0.02745
G1 X52.032 Y136.926 E0.00799
G1 X51.979 Y136.857 E0.00270
G1 X51.863 Y136.814 E0.00388
G1 X51.560 Y136.789 E0.00956
G1 X50.100 Y136.817 E0.04576
G1 X49.548 Y136.751 E0.01744
G1 X49.010 Y136.575 E0.01774
G1 X48.535 Y136.223 E0.01854
G1 X48.205 Y135.677 E0.02001
G1 X48.076 Y134.976 E0.02235
G1 X48.011 Y132.564 E0.07566
G1 X47.871 Y119.994 E0.39414
M204 S1250
G1 X47.868 Y119.534 F9000.000
G1 E-2.24000 F2400.000
;WIPE_START
G1 F7200.000
G1 X50.751 Y119.988 E-0.91200
;WIPE_END
G1 E-0.04800 F2400.000
G1 Z0.400 F9000.000
G1 X131.917 Y61.131
G1 Z0.200
G1 E3.20000 F1500.000
M204 S800
;TYPE:Perimeter
G1 F1200.000
G1 X56.588 Y61.131 E2.36189
G1 X55.259 Y60.952 E0.04205
G1 X50.538 Y59.479 E0.15508
G1 X48.552 Y57.045 E0.09850
G1 X48.867 Y55.271 E0.05647
G1 X49.570 Y54.058 E0.04395
G1 X50.547 Y53.162 E0.04157
G1 X51.647 Y52.493 E0.04038
G1 X53.812 Y51.466 E0.07512
G1 X54.699 Y50.964 E0.03196
G1 X55.336 Y50.426 E0.02613
G1 X55.705 Y49.817 E0.02232
G1 X55.817 Y49.035 E0.02478
G1 X55.686 Y48.588 E0.01460
G1 X55.301 Y48.089 E0.01977
G1 X54.642 Y47.537 E0.02695
G1 X53.779 Y46.966 E0.03244
G1 X51.801 Y45.766 E0.07254
G1 X50.837 Y45.093 E0.03686
G1 X49.987 Y44.319 E0.03603
G1 X49.347 Y43.377 E0.03574
G1 X49.065 Y42.139 E0.03981
G1 X49.775 Y40.619 E0.05259
G1 X51.400 Y39.769 E0.05752
G1 X53.473 Y39.351 E0.06631
G1 X55.896 Y39.194 E0.07610
G1 X58.554 Y39.223 E0.08335
G1 X61.191 Y39.379 E0.08283
G1 X63.634 Y39.607 E0.07693
G1 X65.687 Y39.850 E0.06481
G1 X67.787 Y40.152 E0.06653
G1 X73.797 Y40.857 E0.18974
G1 X80.300 Y41.344 E0.20445
G1 X87.069 Y41.642 E0.21246
G1 X93.871 Y41.782 E0.21330
G1 X100.466 Y41.794 E0.20680
G1 X106.620 Y41.709 E0.19296
G1 X112.098 Y41.559 E0.17184
G1 X116.664 Y41.375 E0.14326
G1 X120.080 Y41.188 E0.10728
G1 X122.091 Y41.031 E0.06326
G1 X122.903 Y40.901 E0.02578
G1 X123.325 Y40.852 E0.01331
G1 X123.785 Y40.828 E0.01444
G1 X124.273 Y40.844 E0.01532
G1 X124.782 Y40.924 E0.01614
G1 X125.295 Y41.101 E0.01701
G1 X125.782 Y41.414 E0.01815
G1 X126.158 Y41.863 E0.01838
G1 X126.350 Y42.260 E0.01381
G1 X126.463 Y42.636 E0.01233
G1 X126.530 Y42.995 E0.01143
G1 X126.647 Y43.891 E0.02836
G1 X126.738 Y44.228 E0.01091
G1 X126.795 Y44.310 E0.00315
G1 X127.123 Y44.481 E0.01159
G1 X127.547 Y44.572 E0.01361
G1 X128.762 Y44.655 E0.03819
G1 X129.492 Y44.765 E0.02314
G1 X130.263 Y45.058 E0.02587
G1 X130.982 Y45.624 E0.02869
G1 X131.552 Y46.488 E0.03244
G1 X131.952 Y47.652 E0.03859
G1 X132.187 Y49.150 E0.04756
G1 X132.283 Y50.330 E0.03711
G1 X132.333 Y51.398 E0.03352
G1 X132.347 Y52.382 E0.03086
G1 X132.332 Y53.289 E0.02846
G1 X132.296 Y54.130 E0.02637
G1 X132.103 Y56.982 E0.08964
G1 X132.041 Y59.275 E0.07193
G1 X131.921 Y61.071 E0.05643
M204 S1250
G1 X131.565 Y60.754 F9000.000
M204 S800
;TYPE:External perimeter
G1 F1200.000
G1 X56.614 Y60.754 E2.35004
G1 X55.341 Y60.583 E0.04026
G1 X50.758 Y59.153 E0.15052
G1 X48.953 Y56.940 E0.08952
G1 X49.227 Y55.403 E0.04896
G1 X49.868 Y54.297 E0.04007
G1 X50.774 Y53.465 E0.03860
G1 X51.827 Y52.825 E0.03861
G1 X53.986 Y51.801 E0.07493
G1 X54.916 Y51.275 E0.03350
G1 X55.626 Y50.674 E0.02917
G1 X56.067 Y49.947 E0.02666
G1 X56.202 Y49.008 E0.02975
G1 X56.028 Y48.414 E0.01939
G1 X55.575 Y47.826 E0.02329
G1 X54.868 Y47.234 E0.02890
G1 X53.981 Y46.648 E0.03334
G1 X52.007 Y45.450 E0.07240
G1 X51.073 Y44.798 E0.03571
G1 X50.274 Y44.070 E0.03387
G1 X49.698 Y43.223 E0.03211
G1 X49.461 Y42.181 E0.03353
G1 X50.062 Y40.894 E0.04454
G1 X51.527 Y40.128 E0.05184
G1 X53.523 Y39.726 E0.06383
G1 X55.906 Y39.571 E0.07486
G1 X58.540 Y39.600 E0.08261
G1 X61.162 Y39.755 E0.08235
G1 X63.594 Y39.982 E0.07659
G1 X65.638 Y40.224 E0.06452
G1 X67.738 Y40.526 E0.06654
G1 X73.761 Y41.233 E0.19014
G1 X80.277 Y41.721 E0.20488
G1 X87.057 Y42.019 E0.21278
G1 X93.867 Y42.159 E0.21355
G1 X100.469 Y42.171 E0.20700
G1 X106.628 Y42.086 E0.19313
G1 X112.111 Y41.936 E0.17200
G1 X116.682 Y41.751 E0.14342
G1 X120.105 Y41.564 E0.10750
G1 X122.136 Y41.406 E0.06388
G1 X122.955 Y41.275 E0.02600
G1 X123.357 Y41.228 E0.01269
G1 X123.789 Y41.206 E0.01357
G1 X124.238 Y41.220 E0.01408
G1 X124.690 Y41.292 E0.01437
G1 X125.129 Y41.442 E0.01455
G1 X125.529 Y41.700 E0.01492
G1 X125.839 Y42.070 E0.01512
G1 X125.997 Y42.397 E0.01140
G1 X126.096 Y42.726 E0.01077
G1 X126.158 Y43.054 E0.01047
G1 X126.275 Y43.955 E0.02850
G1 X126.326 Y44.195 E0.00767
G1 X126.394 Y44.386 E0.00637
G1 X126.474 Y44.525 E0.00502
G1 X126.571 Y44.619 E0.00424
G1 X126.994 Y44.839 E0.01494
G1 X127.494 Y44.946 E0.01604
G1 X128.721 Y45.030 E0.03855
G1 X129.396 Y45.132 E0.02140
G1 X130.075 Y45.390 E0.02279
G1 X130.701 Y45.883 E0.02497
G1 X131.211 Y46.656 E0.02903
G1 X131.584 Y47.743 E0.03605
G1 X131.812 Y49.195 E0.04608
G1 X131.906 Y50.354 E0.03647
G1 X131.956 Y51.409 E0.03313
G1 X131.970 Y52.381 E0.03048
G1 X131.955 Y53.278 E0.02812
G1 X131.919 Y54.109 E0.02607
G1 X131.727 Y56.964 E0.08973
G1 X131.665 Y59.258 E0.07193
G1 X131.569 Y60.694 E0.04514
M204 S1250
G1 X131.559 Y61.154 F9000.000
G1 X132.006 Y61.557
M204 S800
;TYPE:Perimeter
G1 F1200.000
G1 X131.159 Y63.189 E0.05765
G1 X130.853 Y63.683 E0.01823
G1 X126.530 Y69.129 E0.21801
G1 X120.525 Y75.612 E0.27705
G1 X115.981 Y80.131 E0.20095
G1 X85.087 Y80.131 E0.96866
G1 X84.703 Y79.112 E0.03415
G1 X88.407 Y75.860 E0.15454
G1 X97.575 Y68.157 E0.37545
M73 P2 R87
G1 X105.783 Y61.557 E0.33023
G1 X131.946 Y61.557 E0.82033
M204 S1250
G1 X131.385 Y61.934 F9000.000
M204 S800
;TYPE:External perimeter
G1 F1200.000
G1 X130.831 Y63.003 E0.03775
G1 X130.544 Y63.466 E0.01709
G1 X126.243 Y68.883 E0.21687
G1 X120.254 Y75.350 E0.27636
G1 X115.826 Y79.754 E0.19583
G1 X85.348 Y79.754 E0.95560
G1 X85.148 Y79.223 E0.01779
G1 X88.653 Y76.146 E0.14623
G1 X97.815 Y68.448 E0.37520
G1 X105.916 Y61.934 E0.32594
G1 X131.325 Y61.934 E0.79671
M204 S1250
G1 X131.772 Y62.035 F9000.000
G1 E-2.24000 F2400.000
;WIPE_START
G1 F7200.000
G1 X130.831 Y63.003 E-0.37288
G1 X130.544 Y63.466 E-0.17261
G1 X129.824 Y64.373 E-0.36652
;WIPE_END
G1 E-0.04800 F2400.000
G1 Z0.400 F9000.000
G1 X128.541 Y42.658
G1 Z0.200
G1 E3.20000 F1500.000
M204 S800
;TYPE:Perimeter
G1 F1200.000
G1 X129.607 Y42.816 E0.03378
G1 X130.200 Y42.957 E0.01913
G1 X130.815 Y43.179 E0.02048
G1 X131.430 Y43.501 E0.02177
G1 X132.030 Y43.942 E0.02336
G1 X132.598 Y44.531 E0.02566
G1 X133.120 Y45.298 E0.02909
G1 X133.574 Y46.279 E0.03390
G1 X133.933 Y47.507 E0.04011
G1 X134.171 Y49.029 E0.04829
G1 X134.244 Y49.877 E0.02669
G1 X134.294 Y50.689 E0.02552
G1 X134.332 Y52.185 E0.04692
G1 X134.309 Y53.511 E0.04158
G1 X134.253 Y54.697 E0.03723
G1 X134.103 Y57.073 E0.07465
G1 X134.044 Y59.382 E0.07242
G1 X134.006 Y60.163 E0.02450
G1 X133.939 Y60.892 E0.02296
G1 X133.840 Y61.579 E0.02177
G1 X133.698 Y62.234 E0.02100
G1 X133.505 Y62.869 E0.02082
G1 X133.248 Y63.498 E0.02130
G1 X132.918 Y64.136 E0.02251
G1 X132.506 Y64.787 E0.02416
G1 X129.212 Y69.034 E0.16853
G1 X124.773 Y74.010 E0.20906
G1 X119.446 Y79.516 E0.24022
G1 X113.488 Y85.353 E0.26151
G1 X107.154 Y91.327 E0.27299
G1 X100.703 Y97.243 E0.27445
G1 X94.388 Y102.910 E0.26604
G1 X88.464 Y108.135 E0.24765
G1 X83.185 Y112.725 E0.21934
G1 X78.408 Y116.831 E0.19750
G1 X78.732 Y117.828 E0.03287
G1 X80.791 Y117.976 E0.06472
G1 X82.580 Y118.053 E0.05613
G1 X86.952 Y118.141 E0.13712
G1 X90.197 Y118.145 E0.10176
