; generated by PrusaSlicer 2.3.3+win64 on 2022-06-16 at 07:34:51 UTC


;
;

;
;
; 

; external perimeters extrusion width = 0.45mm
; perimeters extrusion width = 0.45mm
; infill extrusion width = 0.45mm
; solid infill extrusion width = 0.45mm
; top infill extrusion width = 0.40mm
; first layer extrusion width = 0.42mm

M73 P0 R81
M201 X1250 Y1250 Z400 E5000 ; sets maximum accelerations, mm/sec^2
M203 X180 Y180 Z12 E80 ; sets maximum feedrates, mm/sec
M204 P1250 R1250 T1250 ; sets acceleration (P, T) and retract acceleration (R), mm/sec^2
M205 X8.00 Y8.00 Z2.00 E10.00 ; sets the jerk limits, mm/sec
M205 S0 T0 ; sets the minimum extruding and travel feed rate, mm/sec
M107
;TYPE:Custom
G90 ; use absolute coordinates
M83 ; extruder relative mode
M104 S170 ; set extruder temp for bed leveling
M140 S85 ; set bed temp
M109 R170 ; wait for bed leveling temp
M190 S85 ; wait for bed temp
G28 ; home all without mesh bed level
G29 ; mesh bed leveling 
M104 S230 ; set extruder temp
G92 E0.0
G1 Y-2.0 X179 F2400
G1 Z3 F720
M109 S230 ; wait for extruder temp

; intro line
G1 X170 F1000
G1 Z0.2 F720
G1 X110.0 E8.0 F900
G1 X40.0 E10.0 F700
G92 E0.0

M221 S95 ; set flow
G21 ; set units to millimeters
G90 ; use absolute coordinates
M83 ; use relative distances for extrusion
M900 K0.2 ; Filament gcode
;LAYER_CHANGE
;Z:0.2
;HEIGHT:0.2
;BEFORE_LAYER_CHANGE
G92 E0.0
;0.2


G1 E-3.20000 F2400.000
G1 Z0.200 F9000.000
;AFTER_LAYER_CHANGE
;0.2
G1 Z0.400
G1 X52.313 Y35.953
G1 Z0.200
G1 E3.20000 F1500.000
M204 S800
;TYPE:Skirt
;WIDTH:0.42
G1 F1200.000
G1 X53.893 Y35.249 E0.05422
G1 X54.969 Y34.960 E0.03493
G1 X56.032 Y34.803 E0.03369
G1 X68.964 Y34.368 E0.40572
G1 X119.236 Y34.086 E1.57625
G1 X121.166 Y34.258 E0.06076
G1 X122.732 Y34.663 E0.05073
G1 X123.576 Y34.996 E0.02845
G1 X125.209 Y35.922 E0.05886
G1 X126.566 Y37.088 E0.05610
G1 X127.229 Y37.864 E0.03199
G1 X127.979 Y39.060 E0.04426
G1 X128.625 Y40.650 E0.05380
G1 X129.075 Y42.538 E0.06087
G1 X129.309 Y44.454 E0.06053
G1 X131.737 Y135.309 E2.84969
G1 X131.670 Y136.963 E0.05191
G1 X131.441 Y138.434 E0.04667
G1 X130.920 Y140.135 E0.05579
G1 X130.156 Y141.632 E0.05271
G1 X129.186 Y142.922 E0.05059
G1 X128.277 Y143.805 E0.03975
G1 X127.432 Y144.415 E0.03267
G1 X126.433 Y144.962 E0.03571
G1 X125.429 Y145.357 E0.03381
G1 X123.883 Y145.739 E0.04994
G1 X122.504 Y145.893 E0.04352
G1 X120.976 Y145.904 E0.04790
G1 X78.226 Y144.253 E1.34139
M73 P0 R80
G1 X76.687 Y144.078 E0.04859
G1 X75.185 Y143.598 E0.04943
G1 X73.677 Y142.766 E0.05400
G1 X72.343 Y141.633 E0.05490
G1 X71.255 Y140.274 E0.05457
G1 X70.711 Y139.250 E0.03636
G1 X70.412 Y138.398 E0.02830
G1 X48.487 Y44.964 E3.00914
G1 X48.309 Y43.814 E0.03649
G1 X48.270 Y42.602 E0.03802
G1 X48.348 Y41.688 E0.02876
G1 X48.535 Y40.812 E0.02809
G1 X48.899 Y39.775 E0.03444
G1 X49.391 Y38.813 E0.03390
G1 X49.968 Y37.972 E0.03197
G1 X50.640 Y37.218 E0.03165
G1 X51.466 Y36.509 E0.03414
G1 X52.263 Y35.986 E0.02989
M204 S1250
; printing object Glorious Amur.stl id:0 copy 0
G1 E-2.24000 F2400.000
;WIPE_START
G1 F7200.000
G1 X53.893 Y35.249 E-0.56634
G1 X54.947 Y34.966 E-0.34566
;WIPE_END
G1 E-0.04800 F2400.000
G1 Z0.400 F9000.000
G1 X88.113 Y100.213
G1 Z0.200
G1 E3.20000 F1500.000
M204 S800
;TYPE:Perimeter
G1 F1200.000
G1 X122.511 Y100.213 E1.07853
G1 X122.771 Y105.864 E0.17738
G1 X123.261 Y113.378 E0.23608
G1 X123.660 Y117.341 E0.12489
G1 X124.015 Y119.787 E0.07750
G1 X105.374 Y119.787 E0.58449
G1 X105.494 Y113.588 E0.19440
G1 X105.498 Y110.467 E0.09785
G1 X105.436 Y108.005 E0.07725
G1 X105.313 Y106.571 E0.04511
G1 X104.793 Y106.918 E0.01962
G1 X103.775 Y107.848 E0.04321
G1 X102.565 Y109.183 E0.05648
G1 X101.249 Y110.875 E0.06722
G1 X99.902 Y112.885 E0.07586
G1 X98.594 Y115.174 E0.08265
G1 X97.393 Y117.704 E0.08783
G1 X96.614 Y119.787 E0.06973
G1 X78.326 Y119.787 E0.57341
G1 X79.035 Y117.629 E0.07121
G1 X79.827 Y115.381 E0.07475
G1 X80.624 Y113.279 E0.07049
G1 X81.431 Y111.317 E0.06652
G1 X82.248 Y109.488 E0.06279
G1 X83.079 Y107.789 E0.05932
G1 X83.926 Y106.211 E0.05616
G1 X84.792 Y104.748 E0.05330
G1 X85.681 Y103.396 E0.05073
G1 X86.589 Y102.155 E0.04822
G1 X88.076 Y100.260 E0.07553
M204 S1250
G1 X88.297 Y100.590 F9000.000
M204 S800
;TYPE:External perimeter
G1 F1200.000
G1 X122.151 Y100.590 E1.06149
G1 X122.394 Y105.885 E0.16620
G1 X122.885 Y113.409 E0.23640
G1 X123.286 Y117.387 E0.12536
G1 X123.580 Y119.410 E0.06410
G1 X105.758 Y119.410 E0.55877
G1 X105.871 Y113.592 E0.18245
G1 X105.875 Y110.463 E0.09811
G1 X105.812 Y107.984 E0.07776
G1 X105.675 Y106.377 E0.05054
G1 X105.577 Y106.101 E0.00919
G1 X105.465 Y106.124 E0.00357
G1 X105.451 Y106.084 E0.00133
G1 X105.324 Y106.110 E0.00407
G1 X104.560 Y106.621 E0.02882
G1 X103.508 Y107.582 E0.04467
G1 X102.276 Y108.940 E0.05749
G1 X100.944 Y110.654 E0.06808
G1 X99.582 Y112.686 E0.07669
G1 X98.260 Y114.999 E0.08353
G1 X97.046 Y117.557 E0.08878
G1 X96.352 Y119.410 E0.06203
G1 X78.847 Y119.410 E0.54888
G1 X79.392 Y117.751 E0.05476
G1 X80.181 Y115.510 E0.07448
G1 X80.975 Y113.417 E0.07018
G1 X81.777 Y111.465 E0.06617
G1 X82.590 Y109.648 E0.06241
G1 X83.414 Y107.961 E0.05889
G1 X84.255 Y106.396 E0.05569
M73 P1 R80
G1 X85.112 Y104.948 E0.05278
G1 X85.991 Y103.611 E0.05016
G1 X86.889 Y102.382 E0.04773
G1 X88.260 Y100.637 E0.06957
M204 S1250
G1 X88.383 Y100.199 F9000.000
G1 E-2.24000 F2400.000
;WIPE_START
G1 F7200.000
G1 X91.140 Y100.633 E-0.91200
;WIPE_END
G1 E-0.04800 F2400.000
G1 Z0.400 F9000.000
G1 X89.612 Y99.787
G1 Z0.200
G1 E3.20000 F1500.000
M204 S800
;TYPE:Perimeter
G1 F1200.000
G1 X89.188 Y98.880 E0.03140
G1 X90.770 Y96.986 E0.07737
G1 X93.005 Y94.415 E0.10682
G1 X94.979 Y92.267 E0.09146
G1 X93.215 Y91.133 E0.06576
G1 X91.936 Y90.263 E0.04850
G1 X90.493 Y89.241 E0.05543
G1 X88.925 Y88.081 E0.06115
G1 X87.276 Y86.797 E0.06554
G1 X85.585 Y85.403 E0.06872
G1 X83.897 Y83.912 E0.07061
G1 X82.830 Y82.896 E0.04621
G1 X81.645 Y81.690 E0.05300
G1 X80.218 Y80.159 E0.06562
G1 X80.630 Y79.213 E0.03235
G1 X122.260 Y79.213 E1.30528
G1 X122.226 Y80.877 E0.05219
G1 X122.199 Y86.256 E0.16865
G1 X122.264 Y92.247 E0.18788
G1 X122.481 Y99.787 E0.23650
G1 X89.672 Y99.787 E1.02872
M204 S1250
G1 X89.852 Y99.410 F9000.000
M204 S800
;TYPE:External perimeter
G1 F1200.000
G1 X89.631 Y98.937 E0.01636
G1 X91.057 Y97.230 E0.06973
G1 X93.287 Y94.666 E0.10656
G1 X94.916 Y92.880 E0.07579
G1 X95.566 Y92.196 E0.02959
G1 X93.423 Y90.818 E0.07990
G1 X92.151 Y89.953 E0.04824
G1 X90.715 Y88.935 E0.05520
G1 X89.153 Y87.781 E0.06089
G1 X87.512 Y86.503 E0.06522
G1 X85.830 Y85.116 E0.06835
G1 X84.152 Y83.634 E0.07019
G1 X83.094 Y82.627 E0.04579
G1 X81.918 Y81.429 E0.05264
G1 X80.663 Y80.083 E0.05771
G1 X80.877 Y79.590 E0.01685
G1 X121.875 Y79.590 E1.28546
G1 X121.849 Y80.872 E0.04021
G1 X121.822 Y86.257 E0.16883
G1 X121.887 Y92.255 E0.18808
G1 X122.093 Y99.410 E0.22443
G1 X89.912 Y99.410 E1.00903
M204 S1250
G1 X89.478 Y99.553 F9000.000
G1 E-2.24000 F2400.000
;WIPE_START
G1 F7200.000
G1 X89.631 Y98.937 E-0.17412
G1 X91.057 Y97.230 E-0.70427
G1 X91.126 Y97.150 E-0.03361
;WIPE_END
G1 E-0.04800 F2400.000
G1 Z0.400 F9000.000
G1 X63.962 Y59.213
G1 Z0.200
G1 E3.20000 F1500.000
M204 S800
;TYPE:Perimeter
G1 F1200.000
G1 X85.350 Y59.213 E0.67060
G1 X87.600 Y62.065 E0.11390
G1 X90.933 Y66.056 E0.16302
G1 X94.294 Y69.824 E0.15832
G1 X97.586 Y73.224 E0.14839
G1 X100.708 Y76.106 E0.13323
G1 X102.699 Y77.659 E0.07915
G1 X102.311 Y78.787 E0.03742
G1 X78.988 Y78.787 E0.73126
G1 X77.129 Y76.648 E0.08886
G1 X75.214 Y74.392 E0.09278
G1 X73.049 Y71.800 E0.10589
G1 X70.609 Y68.841 E0.12024
G1 X64.799 Y61.703 E0.28857
G1 X63.532 Y60.101 E0.06404
G1 X63.936 Y59.267 E0.02906
M204 S1250
G1 X64.199 Y59.590 F9000.000
M204 S800
;TYPE:External perimeter
G1 F1200.000
G1 X85.168 Y59.590 E0.65746
G1 X87.307 Y62.303 E0.10833
G1 X90.647 Y66.302 E0.16338
G1 X94.017 Y70.081 E0.15875
G1 X97.323 Y73.494 E0.14896
G1 X100.464 Y76.394 E0.13405
G1 X102.254 Y77.790 E0.07120
G1 X102.041 Y78.410 E0.02054
G1 X79.160 Y78.410 E0.71743
G1 X77.415 Y76.402 E0.08341
G1 X75.502 Y74.149 E0.09267
G1 X73.339 Y71.559 E0.10581
G1 X70.901 Y68.602 E0.12017
G1 X65.093 Y61.467 E0.28845
G1 X63.975 Y60.053 E0.05654
G1 X64.173 Y59.644 E0.01423
M204 S1250
G1 X64.140 Y59.194 F9000.000
G1 E-2.24000 F2400.000
;WIPE_START
G1 F7200.000
G1 X67.053 Y59.637 E-0.91200
;WIPE_END
G1 E-0.04800 F2400.000
G1 Z0.400 F9000.000
G1 X84.333 Y57.918
G1 Z0.200
G1 E3.20000 F1500.000
M204 S800
;TYPE:Perimeter
G1 F1200.000
G1 X83.897 Y58.787 E0.03047
G1 X62.485 Y58.787 E0.67136
G1 X59.994 Y55.473 E0.12998
G1 X58.132 Y52.828 E0.10142
G1 X56.607 Y50.485 E0.08765
G1 X55.401 Y48.431 E0.07471
G1 X54.492 Y46.651 E0.06267
G1 X53.863 Y45.127 E0.05169
G1 X53.498 Y43.829 E0.04225
G1 X53.396 Y42.714 E0.03513
G1 X53.591 Y41.809 E0.02901
G1 X53.902 Y41.252 E0.02001
G1 X54.269 Y40.811 E0.01798
G1 X54.702 Y40.453 E0.01761
G1 X55.188 Y40.180 E0.01749
G1 X55.712 Y39.987 E0.01750
G1 X56.266 Y39.868 E0.01776
G1 X56.841 Y39.814 E0.01813
G1 X57.438 Y39.817 E0.01870
G1 X58.005 Y39.868 E0.01785
G1 X58.568 Y39.961 E0.01790
G1 X59.220 Y40.125 E0.02107
G1 X59.874 Y40.368 E0.02187
G1 X60.504 Y40.660 E0.02176
G1 X61.106 Y40.985 E0.02147
G1 X61.679 Y41.328 E0.02093
G1 X63.385 Y42.485 E0.06462
G1 X64.263 Y43.020 E0.03226
G1 X64.615 Y43.192 E0.01225
G1 X64.939 Y43.307 E0.01080
G1 X65.313 Y43.364 E0.01185
G1 X65.468 Y43.344 E0.00490
G1 X65.567 Y43.288 E0.00356
G1 X65.705 Y43.107 E0.00714
G1 X65.863 Y42.664 E0.01475
G1 X65.981 Y41.793 E0.02755
G1 X66.185 Y41.035 E0.02461
G1 X66.702 Y40.315 E0.02780
G1 X67.437 Y39.782 E0.02846
G1 X68.337 Y39.471 E0.02987
G1 X69.324 Y39.417 E0.03098
G1 X70.330 Y39.629 E0.03223
G1 X71.459 Y40.170 E0.03927
G1 X72.590 Y41.045 E0.04484
G1 X73.696 Y42.281 E0.05198
G1 X74.739 Y43.877 E0.05981
G1 X76.496 Y46.811 E0.10721
G1 X78.744 Y50.226 E0.12819
G1 X81.410 Y54.005 E0.14500
G1 X84.297 Y57.870 E0.15127
M204 S1250
G1 X83.891 Y57.957 F9000.000
M204 S800
;TYPE:External perimeter
G1 F1200.000
G1 X83.664 Y58.410 E0.01587
G1 X62.673 Y58.410 E0.65816
G1 X60.299 Y55.251 E0.12390
G1 X58.444 Y52.617 E0.10102
G1 X56.928 Y50.287 E0.08717
G1 X55.731 Y48.249 E0.07409
G1 X54.834 Y46.493 E0.06184
G1 X54.220 Y45.003 E0.05052
G1 X53.870 Y43.761 E0.04047
G1 X53.777 Y42.737 E0.03224
G1 X53.948 Y41.944 E0.02544
G1 X54.214 Y41.466 E0.01715
G1 X54.536 Y41.079 E0.01578
G1 X54.916 Y40.766 E0.01544
G1 X55.347 Y40.524 E0.01548
G1 X55.817 Y40.350 E0.01573
G1 X56.323 Y40.241 E0.01623
G1 X56.858 Y40.191 E0.01684
G1 X57.420 Y40.194 E0.01761
G1 X57.957 Y40.243 E0.01693
G1 X58.491 Y40.330 E0.01697
G1 X59.108 Y40.486 E0.01993
G1 X59.729 Y40.716 E0.02077
G1 X60.335 Y40.997 E0.02094
G1 X60.920 Y41.313 E0.02084
G1 X61.476 Y41.646 E0.02033
G1 X63.178 Y42.800 E0.06449
G1 X64.086 Y43.354 E0.03334
G1 X64.469 Y43.540 E0.01334
G1 X64.847 Y43.674 E0.01257
G1 X65.312 Y43.744 E0.01474
G1 X65.590 Y43.709 E0.00879
G1 X65.820 Y43.578 E0.00830
G1 X66.040 Y43.289 E0.01139
G1 X66.231 Y42.754 E0.01783
G1 X66.351 Y41.868 E0.02803
G1 X66.531 Y41.200 E0.02170
G1 X66.973 Y40.584 E0.02374
G1 X67.613 Y40.120 E0.02478
G1 X68.410 Y39.845 E0.02646
G1 X69.295 Y39.797 E0.02777
G1 X70.208 Y39.989 E0.02926
G1 X71.260 Y40.493 E0.03660
G1 X72.333 Y41.323 E0.04250
G1 X73.396 Y42.511 E0.05000
G1 X74.420 Y44.078 E0.05868
G1 X76.176 Y47.012 E0.10723
G1 X78.433 Y50.438 E0.12863
G1 X81.105 Y54.226 E0.14535
G1 X83.855 Y57.909 E0.14413
M204 S1250
G1 X84.216 Y58.191 F9000.000
G1 E-2.24000 F2400.000
;WIPE_START
G1 F7200.000
G1 X83.664 Y58.410 E-0.16966
G1 X81.320 Y58.410 E-0.74234
;WIPE_END
G1 E-0.04800 F2400.000
G1 Z0.400 F9000.000
G1 X100.994 Y59.213
G1 Z0.200
G1 E3.20000 F1500.000
M204 S800
;TYPE:Perimeter
G1 F1200.000
G1 X123.513 Y59.213 E0.70608
G1 X122.907 Y65.007 E0.18267
G1 X122.780 Y66.536 E0.04810
G1 X122.624 Y68.940 E0.07554
G1 X122.463 Y72.167 E0.10132
G1 X122.323 Y76.163 E0.12535
G1 X122.269 Y78.787 E0.08230
G1 X103.485 Y78.787 E0.58896
G1 X103.141 Y73.522 E0.16542
G1 X102.872 Y70.471 E0.09606
G1 X102.689 Y68.792 E0.05293
G1 X102.469 Y67.033 E0.05558
G1 X102.209 Y65.214 E0.05761
G1 X101.844 Y63.093 E0.06749
G1 X101.410 Y60.992 E0.06727
G1 X101.008 Y59.271 E0.05541
M204 S1250
G1 X101.469 Y59.590 F9000.000
M204 S800
;TYPE:External perimeter
G1 F1200.000
G1 X123.095 Y59.590 E0.67805
G1 X122.531 Y64.972 E0.16967
M73 P1 R79
G1 X122.404 Y66.508 E0.04833
G1 X122.247 Y68.918 E0.07573
G1 X122.087 Y72.151 E0.10149
G1 X121.946 Y76.152 E0.12553
G1 X121.900 Y78.410 E0.07080
G1 X103.838 Y78.410 E0.56630
G1 X103.517 Y73.494 E0.15448
G1 X103.247 Y70.434 E0.09631
G1 X103.064 Y68.749 E0.05315
G1 X102.843 Y66.983 E0.05578
G1 X102.582 Y65.156 E0.05788
G1 X102.214 Y63.023 E0.06785
G1 X101.779 Y60.911 E0.06762
G1 X101.483 Y59.648 E0.04066
M204 S1250
G1 X101.441 Y59.191 F9000.000
G1 E-2.24000 F2400.000
;WIPE_START
G1 F7200.000
G1 X104.363 Y59.641 E-0.91200
;WIPE_END
G1 E-0.04800 F2400.000
G1 Z0.400 F9000.000
G1 X123.558 Y58.787
G1 Z0.200
G1 E3.20000 F1500.000
M204 S800
;TYPE:Perimeter
G1 F1200.000
G1 X100.891 Y58.787 E0.71071
G1 X100.417 Y56.924 E0.06027
G1 X99.894 Y55.000 E0.06252
G1 X98.473 Y49.914 E0.16558
G1 X98.110 Y48.511 E0.04545
G1 X97.832 Y47.252 E0.04043
G1 X97.731 Y45.973 E0.04022
G1 X97.943 Y44.697 E0.04054
G1 X98.446 Y43.522 E0.04010
G1 X99.219 Y42.502 E0.04012
G1 X100.229 Y41.693 E0.04058
G1 X101.451 Y41.154 E0.04185
G1 X102.844 Y40.944 E0.04418
G1 X104.242 Y41.097 E0.04410
G1 X105.820 Y41.665 E0.05258
G1 X107.441 Y42.662 E0.05968
G1 X107.979 Y43.091 E0.02158
G1 X108.432 Y43.502 E0.01917
G1 X108.835 Y43.920 E0.01822
G1 X109.197 Y44.353 E0.01769
G1 X109.529 Y44.806 E0.01761
G1 X109.850 Y45.288 E0.01816
G1 X111.274 Y47.663 E0.08682
G1 X111.402 Y47.830 E0.00661
G1 X111.526 Y47.936 E0.00512
G1 X111.669 Y48.016 E0.00512
G1 X111.821 Y48.065 E0.00502
G1 X112.094 Y48.099 E0.00863
G1 X112.221 Y48.088 E0.00398
G1 X112.324 Y48.055 E0.00339
G1 X112.458 Y47.946 E0.00541
G1 X112.524 Y47.820 E0.00446
G1 X112.648 Y47.423 E0.01304
G1 X112.766 Y46.938 E0.01565
G1 X113.200 Y44.580 E0.07520
G1 X113.339 Y43.935 E0.02068
G1 X113.510 Y43.286 E0.02105
G1 X113.721 Y42.637 E0.02140
G1 X114.001 Y41.965 E0.02282
G1 X114.532 Y41.163 E0.03016
G1 X115.281 Y40.472 E0.03195
G1 X116.173 Y39.926 E0.03279
G1 X117.167 Y39.522 E0.03363
G1 X118.227 Y39.269 E0.03417
G1 X119.296 Y39.179 E0.03364
G1 X120.319 Y39.259 E0.03217
G1 X121.345 Y39.548 E0.03343
G1 X122.319 Y40.083 E0.03485
G1 X123.163 Y40.903 E0.03687
G1 X123.796 Y42.256 E0.04686
G1 X124.147 Y44.083 E0.05831
G1 X124.297 Y46.285 E0.06920
G1 X124.294 Y48.797 E0.07876
G1 X124.175 Y51.530 E0.08577
G1 X123.968 Y54.387 E0.08982
G1 X123.564 Y58.727 E0.13669
M204 S1250
G1 X123.215 Y58.410 F9000.000
M204 S800
;TYPE:External perimeter
G1 F1200.000
G1 X101.184 Y58.410 E0.69075
G1 X100.781 Y56.828 E0.05118
G1 X100.258 Y54.900 E0.06265
G1 X98.837 Y49.816 E0.16551
G1 X98.477 Y48.423 E0.04513
G1 X98.206 Y47.196 E0.03940
G1 X98.110 Y45.989 E0.03795
G1 X98.308 Y44.804 E0.03767
M73 P2 R79
G1 X98.775 Y43.713 E0.03723
G1 X99.491 Y42.767 E0.03720
G1 X100.427 Y42.018 E0.03756
G1 X101.557 Y41.520 E0.03873
G1 X102.852 Y41.325 E0.04106
G1 X104.156 Y41.467 E0.04116
G1 X105.656 Y42.007 E0.04996
G1 X107.224 Y42.971 E0.05773
G1 X107.735 Y43.379 E0.02049
G1 X108.170 Y43.773 E0.01840
G1 X108.554 Y44.172 E0.01739
G1 X108.900 Y44.586 E0.01691
G1 X109.220 Y45.022 E0.01696
G1 X109.531 Y45.490 E0.01761
G1 X110.962 Y47.875 E0.08720
G1 X111.127 Y48.091 E0.00852
G1 X111.310 Y48.248 E0.00757
G1 X111.518 Y48.363 E0.00746
G1 X111.740 Y48.435 E0.00730
G1 X112.088 Y48.478 E0.01100
G1 X112.295 Y48.460 E0.00653
G1 X112.482 Y48.400 E0.00615
G1 X112.640 Y48.303 E0.00580
G1 X112.768 Y48.167 E0.00587
G1 X112.874 Y47.965 E0.00714
G1 X113.012 Y47.524 E0.01449
G1 X113.135 Y47.017 E0.01636
G1 X113.570 Y44.653 E0.07535
G1 X113.706 Y44.023 E0.02023
G1 X113.871 Y43.392 E0.02044
G1 X114.075 Y42.768 E0.02058
G1 X114.336 Y42.143 E0.02123
G1 X114.822 Y41.409 E0.02760
G1 X115.510 Y40.774 E0.02936
G1 X116.344 Y40.264 E0.03066
G1 X117.282 Y39.882 E0.03177
G1 X118.287 Y39.642 E0.03238
G1 X119.297 Y39.558 E0.03179
G1 X120.253 Y39.632 E0.03004
G1 X121.201 Y39.899 E0.03091
G1 X122.093 Y40.389 E0.03190
G1 X122.850 Y41.125 E0.03311
