; generated by PrusaSlicer 2.3.3+win64 on 2022-06-09 at 13:26:30 UTC


;
;

;
;
; 

; external perimeters extrusion width = 0.45mm
; perimeters extrusion width = 0.45mm
; infill extrusion width = 0.45mm
; solid infill extrusion width = 0.45mm
; top infill extrusion width = 0.40mm
; first layer extrusion width = 0.42mm

M73 P0 R95
M201 X1250 Y1250 Z400 E5000 ; sets maximum accelerations, mm/sec^2
M203 X180 Y180 Z12 E80 ; sets maximum feedrates, mm/sec
M204 P1250 R1250 T1250 ; sets acceleration (P, T) and retract acceleration (R), mm/sec^2
M205 X8.00 Y8.00 Z2.00 E10.00 ; sets the jerk limits, mm/sec
M205 S0 T0 ; sets the minimum extruding and travel feed rate, mm/sec
M107
;TYPE:Custom
G90 ; use absolute coordinates
M83 ; extruder relative mode
M104 S170 ; set extruder temp for bed leveling
M140 S85 ; set bed temp
M109 R170 ; wait for bed leveling temp
M190 S85 ; wait for bed temp
G28 ; home all without mesh bed level
G29 ; mesh bed leveling 
M104 S230 ; set extruder temp
G92 E0.0
G1 Y-2.0 X179 F2400
G1 Z3 F720
M109 S230 ; wait for extruder temp

; intro line
G1 X170 F1000
G1 Z0.2 F720
G1 X110.0 E8.0 F900
G1 X40.0 E10.0 F700
G92 E0.0

M221 S95 ; set flow
G21 ; set units to millimeters
G90 ; use absolute coordinates
M83 ; use relative distances for extrusion
M900 K0.2 ; Filament gcode
;LAYER_CHANGE
;Z:0.2
;HEIGHT:0.2
;BEFORE_LAYER_CHANGE
G92 E0.0
;0.2


G1 E-3.20000 F2400.000
G1 Z0.200 F9000.000
;AFTER_LAYER_CHANGE
;0.2
G1 Z0.400
G1 X43.339 Y37.667
G1 Z0.200
G1 E3.20000 F1500.000
M204 S800
;TYPE:Skirt
;WIDTH:0.42
G1 F1200.000
G1 X44.668 Y36.494 E0.05557
G1 X46.034 Y35.639 E0.05051
G1 X47.514 Y35.020 E0.05030
G1 X48.508 Y34.746 E0.03234
G1 X50.120 Y34.508 E0.05108
G1 X118.079 Y34.086 E2.13086
G1 X123.889 Y34.149 E0.18217
G1 X129.461 Y34.374 E0.17484
G1 X130.642 Y34.498 E0.03724
G1 X131.725 Y34.721 E0.03465
G1 X133.030 Y35.137 E0.04297
G1 X134.081 Y35.610 E0.03611
G1 X135.184 Y36.270 E0.04031
G1 X136.025 Y36.903 E0.03300
G1 X136.790 Y37.616 E0.03279
G1 X137.575 Y38.518 E0.03748
G1 X138.305 Y39.588 E0.04062
G1 X138.867 Y40.664 E0.03806
G1 X139.291 Y41.789 E0.03770
G1 X139.591 Y42.948 E0.03754
G1 X139.755 Y44.035 E0.03448
G1 X139.808 Y45.127 E0.03426
G1 X139.798 Y58.008 E0.40389
G1 X139.644 Y89.688 E0.99332
M73 P0 R94
G1 X139.403 Y95.732 E0.18967
G1 X138.739 Y101.307 E0.17602
G1 X137.742 Y106.387 E0.16233
G1 X136.518 Y110.904 E0.14673
G1 X135.193 Y114.768 E0.12807
G1 X133.829 Y118.078 E0.11226
G1 X132.505 Y120.840 E0.09604
G1 X131.373 Y122.915 E0.07410
G1 X129.877 Y125.283 E0.08781
G1 X125.941 Y130.302 E0.20000
G1 X122.002 Y134.367 E0.17748
G1 X117.799 Y137.826 E0.17068
G1 X113.913 Y140.339 E0.14510
G1 X109.942 Y142.310 E0.13900
G1 X106.320 Y143.656 E0.12113
G1 X102.747 Y144.607 E0.11596
G1 X99.616 Y145.178 E0.09979
G1 X96.767 Y145.521 E0.08996
G1 X92.422 Y145.883 E0.13672
G1 X91.027 Y145.914 E0.04373
G1 X87.004 Y145.692 E0.12634
G1 X83.990 Y145.299 E0.09530
G1 X80.440 Y144.607 E0.11341
G1 X76.337 Y143.495 E0.13329
G1 X71.950 Y141.904 E0.14633
G1 X67.401 Y139.755 E0.15773
G1 X62.732 Y136.923 E0.17123
G1 X58.159 Y133.376 E0.18146
G1 X53.775 Y129.024 E0.19368
G1 X52.242 Y127.268 E0.07309
G1 X50.394 Y124.973 E0.09238
G1 X48.415 Y122.186 E0.10717
G1 X46.410 Y118.852 E0.12201
G1 X44.415 Y114.760 E0.14273
G1 X42.688 Y110.097 E0.15592
G1 X41.334 Y104.810 E0.17110
G1 X40.485 Y98.958 E0.18541
G1 X40.234 Y92.281 E0.20952
G1 X40.192 Y45.278 E1.47375
G1 X40.300 Y43.774 E0.04726
G1 X40.611 Y42.357 E0.04548
G1 X41.224 Y40.730 E0.05453
G1 X42.267 Y38.970 E0.06413
G1 X43.301 Y37.713 E0.05105
M204 S1250
; printing object Shiny Migelo.stl id:0 copy 0
G1 E-2.24000 F2400.000
;WIPE_START
G1 F7200.000
G1 X44.668 Y36.494 E-0.57999
G1 X45.557 Y35.938 E-0.33201
;WIPE_END
G1 E-0.04800 F2400.000
G1 Z0.400 F9000.000
G1 X113.293 Y80.248
G1 Z0.200
G1 E3.20000 F1500.000
M204 S800
;TYPE:Perimeter
G1 F1200.000
G1 X133.521 Y80.248 E0.63422
G1 X133.951 Y82.258 E0.06445
G1 X134.427 Y85.865 E0.11407
G1 X134.598 Y89.663 E0.11921
G1 X134.373 Y95.358 E0.17871
G1 X133.843 Y99.822 E0.14095
G1 X114.472 Y99.822 E0.60738
G1 X114.663 Y98.765 E0.03369
G1 X114.990 Y95.212 E0.11187
G1 X115.041 Y91.930 E0.10289
G1 X114.883 Y89.056 E0.09026
G1 X114.581 Y86.719 E0.07390
G1 X114.071 Y84.019 E0.08615
G1 X113.305 Y80.307 E0.11883
M204 S1250
G1 X113.756 Y80.625 F9000.000
M204 S800
;TYPE:External perimeter
G1 F1200.000
G1 X133.216 Y80.625 E0.61015
G1 X133.579 Y82.322 E0.05442
G1 X134.051 Y85.898 E0.11309
G1 X134.221 Y89.664 E0.11820
G1 X133.997 Y95.328 E0.17774
G1 X133.508 Y99.445 E0.12998
G1 X114.923 Y99.445 E0.58273
G1 X115.037 Y98.816 E0.02005
G1 X115.367 Y95.232 E0.11284
G1 X115.418 Y91.923 E0.10376
G1 X115.259 Y89.022 E0.09111
G1 X114.953 Y86.659 E0.07468
G1 X114.441 Y83.945 E0.08660
G1 X113.768 Y80.684 E0.10442
M204 S1250
G1 X113.730 Y80.226 F9000.000
G1 E-2.24000 F2400.000
;WIPE_START
G1 F7200.000
G1 X116.648 Y80.675 E-0.91200
;WIPE_END
G1 E-0.04800 F2400.000
G1 Z0.400 F9000.000
G1 X114.395 Y100.248
G1 Z0.200
G1 E3.20000 F1500.000
M204 S800
;TYPE:Perimeter
G1 F1200.000
G1 X133.816 Y100.248 E0.60895
G1 X132.843 Y105.235 E0.15933
G1 X131.722 Y109.386 E0.13482
G1 X130.485 Y112.993 E0.11955
G1 X129.225 Y116.041 E0.10340
G1 X127.883 Y118.822 E0.09684
G1 X104.701 Y118.822 E0.72684
G1 X104.323 Y117.671 E0.03797
G1 X106.708 Y115.917 E0.09282
G1 X109.342 Y113.002 E0.12319
G1 X111.396 Y109.703 E0.12184
G1 X112.927 Y106.145 E0.12146
G1 X113.996 Y102.454 E0.12048
G1 X114.384 Y100.307 E0.06841
M204 S1250
G1 X114.710 Y100.625 F9000.000
M204 S800
;TYPE:External perimeter
G1 F1200.000
G1 X133.359 Y100.625 E0.58472
G1 X132.475 Y105.150 E0.14455
G1 X131.361 Y109.276 E0.13401
G1 X130.132 Y112.860 E0.11879
G1 X128.881 Y115.887 E0.10269
G1 X127.646 Y118.445 E0.08907
G1 X104.974 Y118.445 E0.71085
G1 X104.767 Y117.813 E0.02085
G1 X106.962 Y116.198 E0.08545
G1 X109.645 Y113.230 E0.12544
G1 X111.731 Y109.879 E0.12379
G1 X113.283 Y106.272 E0.12309
G1 X114.364 Y102.540 E0.12183
G1 X114.699 Y100.684 E0.05914
M204 S1250
G1 X114.743 Y100.226 F9000.000
G1 E-2.24000 F2400.000
;WIPE_START
G1 F7200.000
G1 X117.579 Y100.675 E-0.91200
;WIPE_END
G1 E-0.04800 F2400.000
G1 Z0.400 F9000.000
G1 X95.763 Y60.248
G1 Z0.200
G1 E3.20000 F1500.000
M204 S800
;TYPE:Perimeter
G1 F1200.000
G1 X133.474 Y60.248 E1.18239
G1 X133.897 Y61.159 E0.03150
G1 X133.293 Y61.874 E0.02935
G1 X132.410 Y62.461 E0.03322
G1 X131.345 Y62.872 E0.03581
G1 X130.287 Y63.119 E0.03406
G1 X129.249 Y63.243 E0.03277
G1 X128.279 Y63.270 E0.03044
G1 X127.367 Y63.226 E0.02860
G1 X126.933 Y63.172 E0.01372
G1 X126.441 Y63.070 E0.01576
G1 X126.612 Y63.294 E0.00884
G1 X126.868 Y63.709 E0.01529
G1 X127.743 Y65.282 E0.05642
G1 X128.903 Y67.504 E0.07861
G1 X130.086 Y69.983 E0.08612
G1 X131.236 Y72.709 E0.09275
G1 X132.301 Y75.669 E0.09865
G1 X133.503 Y79.822 E0.13556
G1 X113.138 Y79.822 E0.63853
M73 P1 R94
G1 X112.784 Y78.429 E0.04506
G1 X111.865 Y75.682 E0.09082
G1 X110.668 Y73.041 E0.09092
G1 X109.122 Y70.557 E0.09174
G1 X107.154 Y68.280 E0.09437
G1 X104.684 Y66.253 E0.10018
G1 X101.625 Y64.525 E0.11016
G1 X97.554 Y63.028 E0.13600
G1 X97.250 Y62.871 E0.01072
G1 X96.971 Y62.682 E0.01055
G1 X96.719 Y62.463 E0.01049
G1 X96.495 Y62.215 E0.01048
G1 X96.304 Y61.945 E0.01038
G1 X96.145 Y61.650 E0.01050
G1 X96.025 Y61.334 E0.01059
G1 X95.777 Y60.306 E0.03315
M204 S1250
G1 X96.242 Y60.625 F9000.000
M204 S800
;TYPE:External perimeter
G1 F1200.000
G1 X133.233 Y60.625 E1.15983
G1 X133.453 Y61.100 E0.01641
G1 X133.039 Y61.590 E0.02013
G1 X132.236 Y62.124 E0.03024
G1 X131.233 Y62.511 E0.03369
G1 X130.222 Y62.747 E0.03258
G1 X129.222 Y62.866 E0.03158
G1 X128.282 Y62.893 E0.02946
G1 X127.400 Y62.850 E0.02770
G1 X126.992 Y62.799 E0.01288
G1 X126.581 Y62.720 E0.01313
G1 X126.235 Y62.594 E0.01154
G1 X125.937 Y62.454 E0.01034
G1 X125.451 Y62.362 E0.01550
G1 X125.671 Y62.753 E0.01406
G1 X125.994 Y63.106 E0.01501
G1 X126.301 Y63.508 E0.01586
G1 X126.543 Y63.900 E0.01444
G1 X127.411 Y65.461 E0.05599
G1 X128.565 Y67.673 E0.07824
G1 X129.742 Y70.138 E0.08564
G1 X130.885 Y72.846 E0.09216
G1 X131.942 Y75.785 E0.09795
G1 X133.001 Y79.445 E0.11945
G1 X113.431 Y79.445 E0.61360
G1 X113.146 Y78.323 E0.03631
G1 X112.216 Y75.544 E0.09187
G1 X111.001 Y72.863 E0.09230
G1 X109.426 Y70.333 E0.09344
G1 X107.418 Y68.009 E0.09631
G1 X104.898 Y65.940 E0.10222
G1 X101.784 Y64.181 E0.11214
G1 X97.706 Y62.682 E0.13622
G1 X97.443 Y62.546 E0.00928
G1 X97.201 Y62.383 E0.00914
G1 X96.983 Y62.193 E0.00906
G1 X96.790 Y61.979 E0.00904
G1 X96.625 Y61.746 E0.00895
G1 X96.489 Y61.493 E0.00902
G1 X96.386 Y61.222 E0.00907
G1 X96.256 Y60.683 E0.01739
M204 S1250
G1 X96.205 Y60.227 F9000.000
G1 E-2.24000 F2400.000
;WIPE_START
G1 F7200.000
G1 X99.136 Y60.679 E-0.91200
;WIPE_END
G1 E-0.04800 F2400.000
G1 Z0.400 F9000.000
G1 X134.640 Y59.822
G1 Z0.200
G1 E3.20000 F1500.000
M204 S800
;TYPE:Perimeter
G1 F1200.000
G1 X95.869 Y59.822 E1.21563
G1 X95.682 Y54.156 E0.17774
G1 X95.634 Y51.441 E0.08514
G1 X95.631 Y48.710 E0.08564
G1 X95.688 Y46.114 E0.08141
G1 X95.825 Y43.799 E0.07273
G1 X96.065 Y41.892 E0.06025
G1 X96.478 Y40.415 E0.04808
G1 X97.321 Y39.601 E0.03675
G1 X108.797 Y39.280 E0.35995
G1 X115.112 Y39.173 E0.19804
G1 X120.849 Y39.171 E0.17989
G1 X123.628 Y39.217 E0.08712
G1 X126.384 Y39.298 E0.08646
G1 X129.196 Y39.419 E0.08826
G1 X130.641 Y39.648 E0.04586
G1 X131.909 Y40.166 E0.04295
G1 X132.947 Y40.918 E0.04018
G1 X133.744 Y41.848 E0.03839
G1 X134.300 Y42.895 E0.03719
G1 X134.625 Y44.006 E0.03629
G1 X134.724 Y45.137 E0.03561
G1 X134.604 Y46.247 E0.03500
G1 X134.259 Y47.291 E0.03449
G1 X133.702 Y48.190 E0.03314
G1 X133.149 Y48.810 E0.02606
G1 X132.627 Y49.307 E0.02259
G1 X132.133 Y49.723 E0.02025
G1 X130.972 Y50.632 E0.04622
G1 X130.756 Y50.842 E0.00945
G1 X130.628 Y51.013 E0.00669
G1 X130.568 Y51.153 E0.00480
G1 X130.542 Y51.346 E0.00609
G1 X130.554 Y51.559 E0.00668
G1 X130.590 Y51.763 E0.00651
G1 X130.647 Y51.938 E0.00578
G1 X130.729 Y52.101 E0.00572
G1 X130.849 Y52.274 E0.00659
G1 X131.018 Y52.465 E0.00801
G1 X131.527 Y52.903 E0.02107
G1 X132.346 Y53.476 E0.03132
G1 X133.151 Y54.144 E0.03281
G1 X133.817 Y55.007 E0.03417
G1 X134.301 Y55.973 E0.03389
G1 X134.605 Y57.003 E0.03368
G1 X134.732 Y58.063 E0.03345
G1 X134.643 Y59.762 E0.05336
M204 S1250
G1 X134.282 Y59.445 F9000.000
M204 S800
;TYPE:External perimeter
G1 F1200.000
G1 X96.234 Y59.445 E1.19298
G1 X96.059 Y54.147 E0.16621
G1 X96.012 Y51.438 E0.08496
G1 X96.008 Y48.714 E0.08541
G1 X96.065 Y46.129 E0.08105
G1 X96.201 Y43.833 E0.07212
G1 X96.435 Y41.967 E0.05898
G1 X96.814 Y40.615 E0.04400
G1 X97.478 Y39.974 E0.02896
G1 X108.805 Y39.657 E0.35530
G1 X115.116 Y39.550 E0.19791
G1 X117.558 Y39.538 E0.07655
G1 X120.846 Y39.548 E0.10310
G1 X123.619 Y39.594 E0.08697
G1 X126.370 Y39.675 E0.08630
G1 X129.159 Y39.794 E0.08750
G1 X130.539 Y40.014 E0.04382
G1 X131.724 Y40.498 E0.04016
G1 X132.689 Y41.197 E0.03737
G1 X133.430 Y42.062 E0.03569
G1 X133.949 Y43.038 E0.03466
G1 X134.252 Y44.076 E0.03391
G1 X134.345 Y45.133 E0.03328
G1 X134.233 Y46.166 E0.03259
G1 X133.915 Y47.131 E0.03184
G1 X133.399 Y47.963 E0.03071
G1 X132.877 Y48.547 E0.02456
G1 X132.375 Y49.026 E0.02175
G1 X131.896 Y49.431 E0.01967
G1 X130.724 Y50.347 E0.04665
G1 X130.472 Y50.592 E0.01102
G1 X130.300 Y50.823 E0.00902
G1 X130.201 Y51.052 E0.00784
G1 X130.164 Y51.332 E0.00884
G1 X130.179 Y51.602 E0.00849
G1 X130.223 Y51.855 E0.00804
G1 X130.297 Y52.082 E0.00749
G1 X130.404 Y52.295 E0.00747
G1 X130.552 Y52.508 E0.00814
G1 X130.748 Y52.728 E0.00926
G1 X130.996 Y52.960 E0.01064
G1 X131.301 Y53.205 E0.01226
G1 X132.117 Y53.776 E0.03122
G1 X132.878 Y54.408 E0.03101
G1 X133.496 Y55.208 E0.03171
G1 X133.948 Y56.112 E0.03169
G1 X134.234 Y57.080 E0.03164
G1 X134.354 Y58.075 E0.03143
G1 X134.285 Y59.385 E0.04113
M204 S1250
G1 X134.285 Y59.845 F9000.000
G1 E-2.24000 F2400.000
;WIPE_START
G1 F7200.000
G1 X131.405 Y59.390 E-0.91200
;WIPE_END
G1 E-0.04800 F2400.000
G1 Z0.400 F9000.000
G1 X83.251 Y39.596
G1 Z0.200
G1 E3.20000 F1500.000
M204 S800
;TYPE:Perimeter
G1 F1200.000
G1 X83.563 Y40.702 E0.03605
G1 X83.667 Y42.066 E0.04288
G1 X83.732 Y43.997 E0.06058
G1 X83.773 Y46.386 E0.07491
G1 X83.790 Y51.880 E0.17228
G1 X83.717 Y59.822 E0.24902
G1 X45.399 Y59.822 E1.20144
G1 X45.357 Y58.877 E0.02965
G1 X45.387 Y58.260 E0.01938
G1 X45.463 Y57.669 E0.01869
G1 X45.575 Y57.115 E0.01772
G1 X45.710 Y56.608 E0.01645
G1 X45.866 Y56.141 E0.01544
G1 X46.337 Y55.122 E0.03520
G1 X46.893 Y54.338 E0.03014
G1 X47.494 Y53.771 E0.02592
G1 X48.088 Y53.382 E0.02224
G1 X49.013 Y52.917 E0.03249
G1 X49.273 Y52.748 E0.00973
G1 X49.418 Y52.587 E0.00680
G1 X49.525 Y52.330 E0.00872
G1 X49.582 Y51.834 E0.01564
G1 X49.561 Y51.591 E0.00766
G1 X49.497 Y51.409 E0.00605
G1 X49.377 Y51.222 E0.00696
G1 X49.177 Y51.006 E0.00924
G1 X48.887 Y50.756 E0.01200
G1 X47.600 Y49.752 E0.05117
G1 X47.078 Y49.287 E0.02191
G1 X46.534 Y48.729 E0.02444
G1 X46.183 Y48.278 E0.01795
G1 X45.859 Y47.724 E0.02009
G1 X45.588 Y47.088 E0.02169
G1 X45.391 Y46.374 E0.02323
G1 X45.290 Y45.593 E0.02469
G1 X45.311 Y44.755 E0.02626
G1 X45.479 Y43.881 E0.02793
G1 X45.813 Y42.986 E0.02993
G1 X46.332 Y42.092 E0.03241
G1 X47.043 Y41.220 E0.03530
G1 X47.465 Y40.817 E0.01827
G1 X47.895 Y40.488 E0.01698
G1 X48.337 Y40.218 E0.01625
G1 X48.773 Y40.010 E0.01513
G1 X49.207 Y39.853 E0.01447
G1 X49.627 Y39.740 E0.01364
G1 X50.037 Y39.663 E0.01309
G1 X50.756 Y39.597 E0.02263
M73 P1 R93
G1 X76.707 Y39.568 E0.81368
G1 X83.191 Y39.595 E0.20331
M204 S1250
G1 X82.966 Y39.971 F9000.000
M204 S800
;TYPE:External perimeter
G1 F1200.000
G1 X83.190 Y40.768 E0.02595
G1 X83.290 Y42.087 E0.04145
G1 X83.355 Y44.007 E0.06024
G1 X83.395 Y46.390 E0.07473
G1 X83.413 Y51.879 E0.17212
G1 X83.344 Y59.445 E0.23723
G1 X45.760 Y59.445 E1.17842
G1 X45.734 Y58.878 E0.01779
G1 X45.763 Y58.294 E0.01835
G1 X45.836 Y57.730 E0.01781
G1 X45.942 Y57.201 E0.01694
G1 X46.072 Y56.716 E0.01572
G1 X46.217 Y56.280 E0.01442
G1 X46.664 Y55.312 E0.03344
G1 X47.179 Y54.587 E0.02787
G1 X47.729 Y54.068 E0.02370
G1 X48.276 Y53.709 E0.02052
G1 X49.202 Y53.245 E0.03247
G1 X49.521 Y53.037 E0.01194
G1 X49.742 Y52.791 E0.01037
G1 X49.894 Y52.426 E0.01240
G1 X49.961 Y51.839 E0.01851
G1 X49.933 Y51.511 E0.01034
G1 X49.839 Y51.242 E0.00893
G1 X49.676 Y50.990 E0.00940
G1 X49.439 Y50.734 E0.01094
G1 X49.127 Y50.464 E0.01296
G1 X47.842 Y49.462 E0.05108
G1 X47.339 Y49.015 E0.02111
G1 X46.819 Y48.481 E0.02336
G1 X46.495 Y48.066 E0.01651
G1 X46.197 Y47.555 E0.01856
G1 X45.945 Y46.963 E0.02015
G1 X45.762 Y46.299 E0.02161
G1 X45.668 Y45.573 E0.02295
G1 X45.687 Y44.796 E0.02438
G1 X45.843 Y43.983 E0.02596
G1 X46.156 Y43.148 E0.02794
G1 X46.643 Y42.307 E0.03048
G1 X47.321 Y41.476 E0.03362
G1 X47.710 Y41.104 E0.01689
G1 X48.108 Y40.799 E0.01571
G1 X48.517 Y40.550 E0.01501
G1 X48.919 Y40.358 E0.01395
G1 X49.320 Y40.213 E0.01339
G1 X49.711 Y40.108 E0.01267
G1 X50.089 Y40.037 E0.01208
G1 X50.774 Y39.974 E0.02154
G1 X76.707 Y39.945 E0.81311
G1 X82.906 Y39.971 E0.19436
M204 S1250
G1 X83.359 Y39.899 F9000.000
G1 E-2.24000 F2400.000
;WIPE_START
G1 F7200.000
G1 X83.190 Y40.768 E-0.26798
G1 X83.290 Y42.087 E-0.41867
G1 X83.314 Y42.798 E-0.22534
;WIPE_END
G1 E-0.04800 F2400.000
G1 Z0.400 F9000.000
G1 X46.213 Y60.248
G1 Z0.200
G1 E3.20000 F1500.000
M204 S800
;TYPE:Perimeter
G1 F1200.000
G1 X83.787 Y60.248 E1.17810
G1 X83.656 Y61.335 E0.03432
G1 X83.587 Y61.615 E0.00903
G1 X83.372 Y62.080 E0.01608
G1 X83.035 Y62.488 E0.01658
G1 X82.604 Y62.794 E0.01658
G1 X82.158 Y62.966 E0.01497
G1 X80.787 Y63.360 E0.04475
G1 X79.053 Y64.094 E0.05903
G1 X77.036 Y65.303 E0.07373
G1 X74.875 Y67.109 E0.08828
G1 X72.711 Y69.634 E0.10427
G1 X70.685 Y73.008 E0.12341
G1 X68.942 Y77.364 E0.14711
G1 X68.353 Y79.822 E0.07925
G1 X47.012 Y79.822 E0.66914
G1 X47.425 Y78.195 E0.05265
G1 X48.541 Y74.804 E0.11191
G1 X49.776 Y71.672 E0.10559
G1 X51.048 Y68.855 E0.09689
G1 X52.274 Y66.414 E0.08566
G1 X53.374 Y64.407 E0.07175
G1 X53.829 Y63.641 E0.02796
G1 X54.091 Y63.243 E0.01491
G1 X54.219 Y63.085 E0.00637
G1 X53.898 Y63.174 E0.01043
G1 X53.361 Y63.275 E0.01714
G1 X52.200 Y63.396 E0.03659
G1 X50.990 Y63.437 E0.03798
G1 X49.747 Y63.368 E0.03902
G1 X48.519 Y63.139 E0.03917
