; generated by PrusaSlicer 2.3.3+win64 on 2022-06-08 at 09:18:12 UTC


;
;

;
;
; 

; external perimeters extrusion width = 0.45mm
; perimeters extrusion width = 0.45mm
; infill extrusion width = 0.45mm
; solid infill extrusion width = 0.45mm
; top infill extrusion width = 0.40mm
; first layer extrusion width = 0.42mm

M73 P0 R78
M201 X1250 Y1250 Z400 E5000 ; sets maximum accelerations, mm/sec^2
M203 X180 Y180 Z12 E80 ; sets maximum feedrates, mm/sec
M204 P1250 R1250 T1250 ; sets acceleration (P, T) and retract acceleration (R), mm/sec^2
M205 X8.00 Y8.00 Z2.00 E10.00 ; sets the jerk limits, mm/sec
M205 S0 T0 ; sets the minimum extruding and travel feed rate, mm/sec
M107
;TYPE:Custom
G90 ; use absolute coordinates
M83 ; extruder relative mode
M104 S170 ; set extruder temp for bed leveling
M140 S85 ; set bed temp
M109 R170 ; wait for bed leveling temp
M190 S85 ; wait for bed temp
G28 ; home all without mesh bed level
G29 ; mesh bed leveling 
M104 S230 ; set extruder temp
G92 E0.0
G1 Y-2.0 X179 F2400
G1 Z3 F720
M109 S230 ; wait for extruder temp

; intro line
G1 X170 F1000
G1 Z0.2 F720
G1 X110.0 E8.0 F900
G1 X40.0 E10.0 F700
G92 E0.0

M221 S95 ; set flow
G21 ; set units to millimeters
G90 ; use absolute coordinates
M83 ; use relative distances for extrusion
M900 K0.2 ; Filament gcode
;LAYER_CHANGE
;Z:0.2
;HEIGHT:0.2
;BEFORE_LAYER_CHANGE
G92 E0.0
;0.2


G1 E-3.20000 F2400.000
G1 Z0.200 F9000.000
;AFTER_LAYER_CHANGE
;0.2
G1 Z0.400
G1 X44.011 Y39.104
G1 Z0.200
G1 E3.20000 F1500.000
M204 S800
;TYPE:Skirt
;WIDTH:0.42
G1 F1200.000
G1 X44.895 Y38.160 E0.04052
G1 X46.003 Y37.226 E0.04543
G1 X47.154 Y36.467 E0.04325
G1 X48.416 Y35.818 E0.04450
G1 X49.647 Y35.336 E0.04145
G1 X51.882 Y34.761 E0.07236
G1 X54.164 Y34.562 E0.07182
G1 X126.176 Y34.880 E2.25791
G1 X127.708 Y34.940 E0.04807
G1 X130.054 Y35.224 E0.07408
G1 X131.359 Y35.486 E0.04173
G1 X132.809 Y35.985 E0.04809
G1 X133.717 Y36.452 E0.03201
G1 X135.163 Y37.539 E0.05674
G1 X135.957 Y38.386 E0.03640
G1 X136.642 Y39.316 E0.03621
G1 X137.534 Y40.942 E0.05815
G1 X138.148 Y42.675 E0.05764
G1 X138.419 Y44.373 E0.05392
G1 X138.436 Y45.510 E0.03566
G1 X138.331 Y47.298 E0.05614
G1 X138.190 Y48.197 E0.02853
G1 X137.830 Y49.599 E0.04540
G1 X108.416 Y139.999 E2.98070
G1 X107.681 Y141.510 E0.05267
G1 X106.698 Y142.790 E0.05060
G1 X105.471 Y143.835 E0.05055
G1 X104.113 Y144.573 E0.04844
G1 X102.469 Y145.069 E0.05385
G1 X100.817 Y145.226 E0.05201
G1 X90.063 Y145.438 E0.33726
G1 X78.945 Y145.137 E0.34874
G1 X77.782 Y144.922 E0.03705
G1 X76.696 Y144.559 E0.03593
G1 X75.289 Y143.821 E0.04979
M73 P0 R77
G1 X74.264 Y143.028 E0.04064
G1 X73.379 Y142.074 E0.04081
G1 X72.410 Y140.542 E0.05683
G1 X71.869 Y139.173 E0.04615
G1 X42.224 Y49.596 E2.95845
G1 X41.886 Y48.377 E0.03966
G1 X41.670 Y47.218 E0.03696
G1 X41.563 Y45.791 E0.04487
G1 X41.643 Y44.501 E0.04052
G1 X42.019 Y42.775 E0.05539
G1 X42.545 Y41.414 E0.04576
G1 X43.198 Y40.219 E0.04271
G1 X43.976 Y39.152 E0.04138
M204 S1250
; printing object kummatista_grammata_A.stl id:0 copy 0
G1 E-2.24000 F2400.000
;WIPE_START
G1 F7200.000
G1 X44.895 Y38.160 E-0.42814
G1 X46.003 Y37.226 E-0.45886
G1 X46.069 Y37.183 E-0.02500
;WIPE_END
G1 E-0.04800 F2400.000
G1 Z0.400 F9000.000
G1 X89.922 Y104.163
G1 Z0.200
G1 E3.20000 F1500.000
M204 S800
;TYPE:Perimeter
G1 F1200.000
G1 X88.707 Y103.222 E0.04818
G1 X87.756 Y101.538 E0.06062
G1 X86.760 Y99.142 E0.08138
G1 X85.701 Y96.091 E0.10124
G1 X84.610 Y92.513 E0.11729
G1 X83.527 Y88.544 E0.12900
G1 X82.490 Y84.325 E0.13623
G1 X81.504 Y79.829 E0.14432
G1 X81.526 Y79.541 E0.00905
G1 X81.621 Y79.284 E0.00859
G1 X81.781 Y79.055 E0.00876
G1 X82.094 Y78.816 E0.01236
G1 X82.379 Y78.712 E0.00952
G1 X97.145 Y78.736 E0.46298
G1 X97.514 Y78.828 E0.01191
G1 X97.763 Y78.993 E0.00938
G1 X98.009 Y79.297 E0.01225
G1 X98.116 Y79.576 E0.00938
G1 X98.129 Y79.954 E0.01186
G1 X97.292 Y83.935 E0.12753
G1 X96.368 Y87.951 E0.12923
G1 X95.373 Y91.887 E0.12727
G1 X94.342 Y95.551 E0.11936
G1 X93.308 Y98.757 E0.10561
G1 X92.295 Y101.331 E0.08674
G1 X91.273 Y103.172 E0.06603
G1 X89.970 Y104.128 E0.05065
M204 S1250
G1 X89.928 Y103.691 F9000.000
M204 S800
;TYPE:External perimeter
G1 F1200.000
G1 X88.998 Y102.970 E0.03689
G1 X88.095 Y101.373 E0.05753
G1 X87.112 Y99.008 E0.08031
G1 X86.060 Y95.975 E0.10066
G1 X84.973 Y92.408 E0.11690
G1 X83.892 Y88.449 E0.12867
G1 X82.857 Y84.239 E0.13593
G1 X81.884 Y79.803 E0.14242
G1 X81.898 Y79.622 E0.00568
G1 X81.958 Y79.459 E0.00543
G1 X82.056 Y79.319 E0.00538
G1 X82.277 Y79.150 E0.00871
G1 X82.445 Y79.089 E0.00562
G1 X97.098 Y79.113 E0.45943
G1 X97.360 Y79.178 E0.00844
G1 X97.507 Y79.275 E0.00552
G1 X97.678 Y79.487 E0.00855
G1 X97.741 Y79.653 E0.00555
G1 X97.751 Y79.922 E0.00845
G1 X96.924 Y83.854 E0.12598
G1 X96.001 Y87.863 E0.12899
G1 X95.009 Y91.789 E0.12699
G1 X93.981 Y95.442 E0.11897
G1 X92.953 Y98.630 E0.10502
G1 X91.953 Y101.170 E0.08559
G1 X90.983 Y102.917 E0.06265
G1 X89.977 Y103.655 E0.03915
M204 S1250
G1 X89.681 Y104.006 F9000.000
G1 E-2.24000 F2400.000
;WIPE_START
G1 F7200.000
G1 X88.998 Y102.970 E-0.37825
G1 X88.169 Y101.503 E-0.53375
;WIPE_END
G1 E-0.04800 F2400.000
G1 Z0.400 F9000.000
G1 X95.058 Y99.876
G1 Z0.200
G1 E3.20000 F1500.000
M204 S800
;TYPE:Perimeter
G1 F1200.000
G1 X95.548 Y98.498 E0.04585
G1 X96.306 Y96.089 E0.07917
G1 X96.783 Y94.426 E0.05424
G1 X97.763 Y90.748 E0.11933
G1 X98.736 Y86.741 E0.12930
G1 X99.208 Y84.662 E0.06685
G1 X100.126 Y80.301 E0.13972
G1 X117.842 Y80.301 E0.55546
G1 X116.622 Y83.075 E0.09500
G1 X115.751 Y85.154 E0.07067
G1 X114.797 Y87.555 E0.08100
G1 X111.838 Y95.401 E0.26293
G1 X111.190 Y97.254 E0.06154
G1 X110.351 Y99.876 E0.08632
G1 X95.118 Y99.876 E0.47759
M204 S1250
G1 X95.593 Y99.498 F9000.000
M204 S800
;TYPE:External perimeter
G1 F1200.000
G1 X95.906 Y98.617 E0.02932
G1 X96.667 Y96.197 E0.07954
G1 X97.146 Y94.527 E0.05450
G1 X98.128 Y90.841 E0.11958
G1 X99.103 Y86.827 E0.12952
G1 X99.576 Y84.742 E0.06703
G1 X100.432 Y80.678 E0.13022
M73 P1 R77
G1 X117.264 Y80.678 E0.52775
G1 X116.275 Y82.926 E0.07699
G1 X115.402 Y85.011 E0.07088
G1 X114.446 Y87.419 E0.08121
G1 X111.484 Y95.272 E0.26318
G1 X110.832 Y97.134 E0.06184
G1 X110.075 Y99.498 E0.07785
G1 X95.653 Y99.498 E0.45222
M204 S1250
G1 X95.199 Y99.428 F9000.000
G1 E-2.24000 F2400.000
;WIPE_START
G1 F7200.000
G1 X95.906 Y98.617 E-0.29032
G1 X96.495 Y96.745 E-0.62168
;WIPE_END
G1 E-0.04800 F2400.000
G1 Z0.400 F9000.000
G1 X74.515 Y120.301
G1 Z0.200
G1 E3.20000 F1500.000
M204 S800
;TYPE:Perimeter
G1 F1200.000
G1 X105.759 Y120.301 E0.97964
G1 X104.739 Y125.837 E0.17648
G1 X104.485 Y127.389 E0.04931
G1 X104.270 Y128.912 E0.04821
G1 X104.092 Y130.493 E0.04990
G1 X103.946 Y132.223 E0.05444
G1 X103.829 Y134.192 E0.06186
G1 X103.737 Y136.519 E0.07301
G1 X103.639 Y137.476 E0.03017
G1 X103.401 Y138.301 E0.02691
G1 X103.027 Y138.970 E0.02402
G1 X102.544 Y139.473 E0.02188
G1 X101.995 Y139.806 E0.02013
G1 X101.442 Y139.990 E0.01827
G1 X100.921 Y140.067 E0.01651
G1 X100.568 Y140.071 E0.01108
G1 X100.101 Y140.018 E0.01474
G1 X99.616 Y139.877 E0.01584
G1 X99.147 Y139.652 E0.01630
G1 X98.700 Y139.347 E0.01698
G1 X98.270 Y138.964 E0.01804
G1 X97.854 Y138.505 E0.01944
G1 X97.445 Y137.969 E0.02113
G1 X96.789 Y137.011 E0.03640
G1 X96.549 Y136.775 E0.01056
G1 X96.289 Y136.594 E0.00993
G1 X96.016 Y136.466 E0.00945
G1 X95.736 Y136.383 E0.00917
G1 X95.456 Y136.345 E0.00884
G1 X95.047 Y136.348 E0.01283
G1 X94.789 Y136.388 E0.00817
G1 X94.599 Y136.440 E0.00618
G1 X94.297 Y136.584 E0.01051
G1 X94.137 Y136.706 E0.00630
G1 X93.942 Y136.891 E0.00843
G1 X93.709 Y137.155 E0.01104
G1 X92.769 Y138.380 E0.04842
G1 X92.114 Y139.117 E0.03092
G1 X91.743 Y139.464 E0.01590
G1 X91.357 Y139.769 E0.01544
G1 X90.941 Y140.026 E0.01532
G1 X90.481 Y140.215 E0.01562
G1 X90.035 Y140.284 E0.01414
G1 X89.420 Y140.175 E0.01957
G1 X88.836 Y139.867 E0.02072
G1 X88.348 Y139.455 E0.02004
G1 X87.915 Y138.984 E0.02004
G1 X86.660 Y137.420 E0.06289
G1 X86.219 Y136.935 E0.02054
G1 X86.030 Y136.786 E0.00754
G1 X85.767 Y136.660 E0.00914
G1 X85.424 Y136.567 E0.01113
G1 X85.039 Y136.530 E0.01212
G1 X84.522 Y136.562 E0.01627
G1 X84.185 Y136.660 E0.01098
G1 X83.898 Y136.827 E0.01041
G1 X83.635 Y137.099 E0.01188
G1 X82.678 Y138.549 E0.05447
G1 X82.252 Y139.053 E0.02069
G1 X81.718 Y139.498 E0.02182
G1 X81.050 Y139.834 E0.02343
G1 X80.259 Y140.005 E0.02537
G1 X79.512 Y140.002 E0.02343
G1 X79.171 Y139.961 E0.01077
G1 X78.760 Y139.861 E0.01325
G1 X78.297 Y139.671 E0.01571
G1 X77.817 Y139.364 E0.01785
G1 X77.361 Y138.920 E0.01996
G1 X76.966 Y138.331 E0.02225
G1 X76.668 Y137.592 E0.02496
G1 X76.490 Y136.729 E0.02763
G1 X76.043 Y132.791 E0.12427
G1 X75.265 Y125.189 E0.23960
G1 X75.071 Y123.632 E0.04921
G1 X74.868 Y122.303 E0.04215
G1 X74.525 Y120.361 E0.06184
M204 S1250
G1 X74.964 Y120.678 F9000.000
M204 S800
;TYPE:External perimeter
G1 F1200.000
G1 X105.306 Y120.678 E0.95135
G1 X104.368 Y125.772 E0.16240
G1 X104.112 Y127.332 E0.04956
G1 X103.896 Y128.864 E0.04850
G1 X103.717 Y130.456 E0.05022
G1 X103.569 Y132.196 E0.05476
G1 X103.452 Y134.174 E0.06212
G1 X103.361 Y136.492 E0.07276
G1 X103.268 Y137.404 E0.02873
G1 X103.050 Y138.154 E0.02450
G1 X102.722 Y138.743 E0.02115
G1 X102.306 Y139.176 E0.01881
G1 X101.836 Y139.462 E0.01726
G1 X101.355 Y139.622 E0.01590
G1 X100.891 Y139.690 E0.01469
G1 X100.587 Y139.694 E0.00953
G1 X100.176 Y139.647 E0.01299
G1 X99.751 Y139.524 E0.01387
G1 X99.336 Y139.325 E0.01442
G1 X98.932 Y139.049 E0.01532
G1 X98.536 Y138.696 E0.01664
G1 X98.144 Y138.263 E0.01832
G1 X97.750 Y137.748 E0.02033
G1 X97.079 Y136.768 E0.03723
G1 X96.791 Y136.484 E0.01270
G1 X96.478 Y136.267 E0.01193
G1 X96.151 Y136.112 E0.01137
G1 X95.815 Y136.014 E0.01098
G1 X95.480 Y135.968 E0.01058
G1 X95.017 Y135.971 E0.01454
G1 X94.711 Y136.018 E0.00970
G1 X94.277 Y136.161 E0.01433
G1 X94.088 Y136.268 E0.00680
G1 X93.891 Y136.419 E0.00776
G1 X93.670 Y136.630 E0.00959
G1 X93.418 Y136.916 E0.01195
G1 X92.478 Y138.140 E0.04840
G1 X91.843 Y138.854 E0.02995
G1 X91.497 Y139.178 E0.01486
G1 X91.140 Y139.460 E0.01427
G1 X90.769 Y139.689 E0.01367
G1 X90.379 Y139.849 E0.01323
G1 X90.039 Y139.901 E0.01078
G1 X89.544 Y139.814 E0.01577
G1 X89.048 Y139.552 E0.01759
G1 X88.609 Y139.182 E0.01801
G1 X88.201 Y138.738 E0.01890
G1 X86.946 Y137.175 E0.06286
G1 X86.477 Y136.658 E0.02188
G1 X86.231 Y136.464 E0.00984
G1 X85.898 Y136.305 E0.01154
G1 X85.492 Y136.195 E0.01319
G1 X85.046 Y136.152 E0.01406
G1 X84.456 Y136.188 E0.01853
G1 X84.036 Y136.311 E0.01373
G1 X83.664 Y136.527 E0.01349
G1 X83.340 Y136.862 E0.01463
G1 X82.375 Y138.323 E0.05487
G1 X81.986 Y138.785 E0.01895
G1 X81.510 Y139.181 E0.01942
G1 X80.923 Y139.475 E0.02057
G1 X80.219 Y139.628 E0.02259
G1 X79.535 Y139.625 E0.02145
G1 X79.238 Y139.590 E0.00938
G1 X78.877 Y139.501 E0.01165
G1 X78.472 Y139.335 E0.01375
G1 X78.053 Y139.067 E0.01559
G1 X77.652 Y138.677 E0.01751
G1 X77.301 Y138.153 E0.01978
G1 X77.030 Y137.483 E0.02267
G1 X76.862 Y136.670 E0.02603
G1 X76.418 Y132.751 E0.12367
G1 X75.640 Y125.146 E0.23967
G1 X75.444 Y123.580 E0.04950
G1 X75.240 Y122.242 E0.04245
G1 X74.974 Y120.738 E0.04789
M204 S1250
G1 X74.942 Y120.279 F9000.000
G1 E-2.24000 F2400.000
;WIPE_START
G1 F7200.000
G1 X77.854 Y120.732 E-0.91200
;WIPE_END
G1 E-0.04800 F2400.000
G1 Z0.400 F9000.000
G1 X69.647 Y100.301
G1 Z0.200
G1 E3.20000 F1500.000
M204 S800
;TYPE:Perimeter
G1 F1200.000
G1 X85.115 Y100.301 E0.48499
G1 X85.359 Y100.946 E0.02160
G1 X86.087 Y102.579 E0.05607
G1 X86.816 Y103.870 E0.04649
G1 X87.551 Y104.821 E0.03770
G1 X88.297 Y105.452 E0.03062
G1 X89.080 Y105.809 E0.02697
G1 X89.967 Y105.928 E0.02807
G1 X90.924 Y105.796 E0.03029
G1 X91.764 Y105.403 E0.02908
G1 X92.556 Y104.715 E0.03290
G1 X93.326 Y103.687 E0.04027
G1 X94.075 Y102.305 E0.04926
G1 X94.926 Y100.301 E0.06827
G1 X110.245 Y100.301 E0.48033
G1 X109.821 Y101.777 E0.04815
G1 X109.085 Y104.638 E0.09261
G1 X108.306 Y108.023 E0.10890
G1 X107.280 Y112.805 E0.15337
G1 X105.846 Y119.876 E0.22619
G1 X74.431 Y119.876 E0.98500
G1 X73.673 Y115.942 E0.12559
G1 X72.751 Y111.413 E0.14492
G1 X72.321 Y109.442 E0.06326
G1 X71.954 Y107.907 E0.04950
G1 X71.506 Y106.279 E0.05292
G1 X70.910 Y104.280 E0.06542
G1 X69.665 Y100.359 E0.12899
M204 S1250
G1 X70.163 Y100.678 F9000.000
M204 S800
;TYPE:External perimeter
G1 F1200.000
G1 X84.855 Y100.678 E0.46066
G1 X85.010 Y101.089 E0.01377
G1 X85.750 Y102.749 E0.05697
G1 X86.501 Y104.079 E0.04790
G1 X87.277 Y105.084 E0.03980
G1 X88.093 Y105.774 E0.03351
G1 X88.974 Y106.175 E0.03036
G1 X89.968 Y106.309 E0.03143
G1 X91.032 Y106.162 E0.03369
G1 X91.972 Y105.722 E0.03253
G1 X92.834 Y104.973 E0.03581
G1 X93.644 Y103.891 E0.04240
G1 X94.415 Y102.469 E0.05069
G1 X95.176 Y100.678 E0.06100
G1 X109.745 Y100.678 E0.45680
G1 X109.457 Y101.678 E0.03262
G1 X108.719 Y104.549 E0.09293
G1 X107.938 Y107.941 E0.10914
G1 X106.911 Y112.728 E0.15352
G1 X105.538 Y119.498 E0.21659
G1 X74.743 Y119.498 E0.96557
G1 X74.043 Y115.869 E0.11589
G1 X73.120 Y111.335 E0.14506
G1 X72.689 Y109.358 E0.06346
G1 X72.319 Y107.813 E0.04982
G1 X71.868 Y106.175 E0.05324
G1 X71.271 Y104.169 E0.06565
G1 X70.181 Y100.736 E0.11293
M204 S1250
G1 X70.122 Y100.281 F9000.000
G1 E-2.24000 F2400.000
;WIPE_START
G1 F7200.000
G1 X73.061 Y100.724 E-0.91200
;WIPE_END
G1 E-0.04800 F2400.000
G1 Z0.400 F9000.000
G1 X61.590 Y80.301
G1 Z0.200
G1 E3.20000 F1500.000
M204 S800
;TYPE:Perimeter
G1 F1200.000
G1 X79.608 Y80.301 E0.56497
G1 X80.079 Y82.542 E0.07177
G1 X80.561 Y84.697 E0.06926
G1 X81.071 Y86.837 E0.06897
G1 X81.601 Y88.943 E0.06809
G1 X82.149 Y90.998 E0.06667
G1 X82.707 Y92.983 E0.06465
G1 X83.272 Y94.880 E0.06207
G1 X83.837 Y96.671 E0.05890
G1 X84.919 Y99.876 E0.10604
G1 X69.505 Y99.876 E0.48329
G1 X68.569 Y97.117 E0.09133
G1 X67.715 Y94.703 E0.08030
G1 X66.880 Y92.453 E0.07523
G1 X66.096 Y90.474 E0.06676
G1 X64.597 Y86.911 E0.12118
G1 X63.264 Y83.936 E0.10220
G1 X61.615 Y80.356 E0.12360
M204 S1250
G1 X62.179 Y80.678 F9000.000
M204 S800
;TYPE:External perimeter
G1 F1200.000
G1 X79.302 Y80.678 E0.53691
G1 X79.710 Y82.622 E0.06225
G1 X80.194 Y84.782 E0.06942
G1 X80.705 Y86.927 E0.06913
G1 X81.236 Y89.038 E0.06825
G1 X81.785 Y91.097 E0.06683
G1 X82.344 Y93.087 E0.06482
G1 X82.911 Y94.990 E0.06226
G1 X83.478 Y96.788 E0.05911
G1 X84.393 Y99.498 E0.08969
G1 X69.775 Y99.498 E0.45834
G1 X68.925 Y96.994 E0.08293
G1 X68.069 Y94.574 E0.08047
G1 X67.232 Y92.318 E0.07545
G1 X66.445 Y90.331 E0.06702
G1 X64.942 Y86.761 E0.12144
G1 X63.607 Y83.780 E0.10240
G1 X62.204 Y80.733 E0.10520
M204 S1250
G1 X62.122 Y80.283 F9000.000
G1 E-2.24000 F2400.000
;WIPE_START
G1 F7200.000
G1 X65.084 Y80.724 E-0.91200
;WIPE_END
G1 E-0.04800 F2400.000
G1 Z0.400 F9000.000
G1 X52.032 Y59.301
G1 Z0.200
G1 E3.20000 F1500.000
M204 S800
;TYPE:Perimeter
G1 F1200.000
G1 X81.877 Y59.301 E0.93574
G1 X81.759 Y60.887 E0.04984
G1 X81.892 Y60.862 E0.00423
G1 X81.890 Y60.888 E0.00084
G1 X82.555 Y60.764 E0.02121
G1 X84.848 Y60.518 E0.07231
G1 X87.521 Y60.351 E0.08399
G1 X90.329 Y60.276 E0.08806
G1 X93.030 Y60.303 E0.08468
G1 X95.583 Y60.448 E0.08017
G1 X97.693 Y60.733 E0.06678
G1 X98.147 Y60.877 E0.01492
G1 X98.152 Y60.833 E0.00137
G1 X98.228 Y60.857 E0.00249
G1 X98.247 Y60.301 E0.01745
G1 X127.184 Y60.301 E0.90730
G1 X126.011 Y62.785 E0.08612
G1 X125.232 Y64.642 E0.06314
G1 X124.573 Y66.101 E0.05019
G1 X123.047 Y69.322 E0.11177
G1 X120.816 Y73.945 E0.16094
G1 X118.051 Y79.876 E0.20517
G1 X100.208 Y79.876 E0.55945
G1 X100.061 Y79.109 E0.02448
G1 X99.964 Y78.795 E0.01030
G1 X99.835 Y78.493 E0.01029
G1 X99.674 Y78.206 E0.01033
G1 X99.480 Y77.935 E0.01045
G1 X99.258 Y77.690 E0.01035
G1 X99.014 Y77.476 E0.01021
G1 X98.745 Y77.291 E0.01022
G1 X98.456 Y77.137 E0.01026
G1 X98.149 Y77.014 E0.01038
G1 X97.829 Y76.925 E0.01039
G1 X97.501 Y76.871 E0.01044
G1 X97.141 Y76.851 E0.01129
G1 X82.613 Y76.747 E0.45554
M73 P1 R76
G1 X82.248 Y76.766 E0.01146
G1 X81.914 Y76.820 E0.01060
G1 X81.596 Y76.909 E0.01037
G1 X81.292 Y77.033 E0.01027
G1 X81.004 Y77.190 E0.01030
G1 X80.733 Y77.381 E0.01038
G1 X80.479 Y77.606 E0.01065
G1 X80.241 Y77.870 E0.01116
G1 X80.033 Y78.148 E0.01087
G1 X79.866 Y78.435 E0.01041
G1 X79.735 Y78.737 E0.01032
G1 X79.638 Y79.053 E0.01035
G1 X79.487 Y79.876 E0.02623
