; generated by PrusaSlicer 2.3.3+win64 on 2022-06-16 at 07:28:46 UTC


;
;

;
;
; 

; external perimeters extrusion width = 0.45mm
; perimeters extrusion width = 0.45mm
; infill extrusion width = 0.45mm
; solid infill extrusion width = 0.45mm
; top infill extrusion width = 0.40mm
; first layer extrusion width = 0.42mm

M73 P0 R95
M201 X1250 Y1250 Z400 E5000 ; sets maximum accelerations, mm/sec^2
M203 X180 Y180 Z12 E80 ; sets maximum feedrates, mm/sec
M204 P1250 R1250 T1250 ; sets acceleration (P, T) and retract acceleration (R), mm/sec^2
M205 X8.00 Y8.00 Z2.00 E10.00 ; sets the jerk limits, mm/sec
M205 S0 T0 ; sets the minimum extruding and travel feed rate, mm/sec
M107
;TYPE:Custom
G90 ; use absolute coordinates
M83 ; extruder relative mode
M104 S170 ; set extruder temp for bed leveling
M140 S85 ; set bed temp
M109 R170 ; wait for bed leveling temp
M190 S85 ; wait for bed temp
G28 ; home all without mesh bed level
G29 ; mesh bed leveling 
M104 S230 ; set extruder temp
G92 E0.0
G1 Y-2.0 X179 F2400
G1 Z3 F720
M109 S230 ; wait for extruder temp

; intro line
G1 X170 F1000
G1 Z0.2 F720
G1 X110.0 E8.0 F900
G1 X40.0 E10.0 F700
G92 E0.0

M221 S95 ; set flow
G21 ; set units to millimeters
G90 ; use absolute coordinates
M83 ; use relative distances for extrusion
M900 K0.2 ; Filament gcode
;LAYER_CHANGE
;Z:0.2
;HEIGHT:0.2
;BEFORE_LAYER_CHANGE
G92 E0.0
;0.2


G1 E-3.20000 F2400.000
G1 Z0.200 F9000.000
;AFTER_LAYER_CHANGE
;0.2
G1 Z0.400
G1 X55.269 Y50.917
G1 Z0.200
G1 E3.20000 F1500.000
M204 S800
;TYPE:Skirt
;WIDTH:0.42
G1 F1200.000
G1 X56.931 Y49.112 E0.07691
G1 X59.904 Y46.347 E0.12732
G1 X62.899 Y43.936 E0.12053
G1 X66.003 Y41.789 E0.11834
G1 X69.428 Y39.784 E0.12444
G1 X72.744 Y38.172 E0.11560
G1 X76.128 Y36.841 E0.11403
G1 X79.766 Y35.734 E0.11923
G1 X83.363 Y34.960 E0.11536
G1 X86.910 Y34.501 E0.11215
G1 X90.693 Y34.333 E0.11871
G1 X99.574 Y35.252 E0.27996
G1 X107.865 Y37.917 E0.27306
G1 X115.196 Y41.967 E0.26259
G1 X121.500 Y47.017 E0.25325
G1 X126.954 Y52.953 E0.25276
G1 X131.691 Y59.786 E0.26068
G1 X135.423 Y67.049 E0.25603
G1 X138.067 Y74.262 E0.24090
G1 X139.708 Y81.419 E0.23022
G1 X140.340 Y88.635 E0.22712
G1 X139.930 Y96.768 E0.25533
G1 X138.665 Y104.638 E0.24992
G1 X136.483 Y112.400 E0.25282
G1 X133.311 Y119.863 E0.25424
G1 X129.105 Y126.765 E0.25344
G1 X124.112 Y132.649 E0.24196
G1 X118.153 Y137.621 E0.24332
G1 X110.973 Y141.658 E0.25827
G1 X102.636 Y144.412 E0.27529
G1 X93.663 Y145.613 E0.28383
G1 X92.591 Y145.659 E0.03367
G1 X91.167 Y145.662 E0.04464
G1 X83.723 Y145.076 E0.23413
G1 X76.046 Y143.265 E0.24732
G1 X68.969 Y140.442 E0.23888
G1 X62.323 Y136.578 E0.24105
G1 X55.930 Y131.434 E0.25727
G1 X50.547 Y125.483 E0.25161
G1 X46.124 Y118.670 E0.25468
G1 X42.658 Y110.771 E0.27044
G1 X40.427 Y101.871 E0.28770
G1 X39.660 Y92.353 E0.29941
G1 X39.833 Y87.366 E0.15643
G1 X40.368 Y82.507 E0.15328
G1 X41.258 Y77.761 E0.15140
G1 X42.529 Y73.054 E0.15288
G1 X44.086 Y68.668 E0.14593
G1 X45.968 Y64.445 E0.14497
G1 X48.216 Y60.310 E0.14757
G1 X50.839 Y56.300 E0.15023
G1 X53.762 Y52.552 E0.14902
G1 X55.228 Y50.961 E0.06786
M204 S1250
; printing object Sizzling Maimu-Borwo.stl id:0 copy 0
G1 E-2.24000 F2400.000
;WIPE_START
G1 F7200.000
G1 X56.931 Y49.112 E-0.79580
G1 X57.200 Y48.863 E-0.11620
;WIPE_END
G1 E-0.04800 F2400.000
G1 Z0.400 F9000.000
G1 X64.760 Y98.466
G1 Z0.200
G1 E3.20000 F1500.000
M204 S800
;TYPE:Perimeter
G1 F1200.000
G1 X115.008 Y98.905 E1.57554
G1 X114.767 Y100.778 E0.05921
G1 X114.513 Y101.979 E0.03851
G1 X114.147 Y103.316 E0.04347
G1 X113.671 Y104.760 E0.04766
G1 X113.091 Y106.276 E0.05088
G1 X112.411 Y107.829 E0.05318
G1 X111.633 Y109.385 E0.05453
G1 X110.762 Y110.907 E0.05499
G1 X109.800 Y112.360 E0.05463
G1 X108.731 Y113.732 E0.05456
G1 X105.811 Y116.397 E0.12395
G1 X102.265 Y118.462 E0.12866
G1 X98.289 Y119.916 E0.13274
G1 X94.025 Y120.772 E0.13636
G1 X89.604 Y121.028 E0.13885
G1 X85.188 Y120.677 E0.13887
G1 X80.930 Y119.713 E0.13691
G1 X76.977 Y118.121 E0.13362
G1 X73.484 Y115.885 E0.13002
G1 X70.647 Y113.019 E0.12643
G1 X69.293 Y111.153 E0.07229
G1 X68.196 Y109.403 E0.06475
G1 X67.311 Y107.751 E0.05878
G1 X66.612 Y106.197 E0.05341
G1 X66.075 Y104.751 E0.04838
G1 X65.673 Y103.417 E0.04367
G1 X65.380 Y102.204 E0.03913
G1 X65.171 Y101.118 E0.03467
G1 X64.769 Y98.526 E0.08225
M204 S1250
G1 X65.199 Y98.847 F9000.000
M204 S800
;TYPE:External perimeter
G1 F1200.000
G1 X114.580 Y99.278 E1.54834
G1 X114.395 Y100.715 E0.04541
G1 X114.147 Y101.891 E0.03768
G1 X113.786 Y103.207 E0.04281
G1 X113.315 Y104.633 E0.04708
G1 X112.742 Y106.133 E0.05032
G1 X112.069 Y107.669 E0.05260
G1 X111.301 Y109.207 E0.05390
G1 X110.441 Y110.709 E0.05427
G1 X109.494 Y112.140 E0.05379
G1 X108.453 Y113.475 E0.05310
G1 X105.586 Y116.091 E0.12169
G1 X102.104 Y118.119 E0.12635
M73 P0 R94
G1 X98.186 Y119.552 E0.13078
G1 X93.976 Y120.397 E0.13463
G1 X89.608 Y120.650 E0.13721
G1 X85.245 Y120.303 E0.13721
G1 X81.042 Y119.352 E0.13511
G1 X77.150 Y117.784 E0.13156
G1 X73.723 Y115.590 E0.12761
G1 X70.936 Y112.774 E0.12422
G1 X69.606 Y110.942 E0.07099
G1 X68.522 Y109.214 E0.06395
G1 X67.650 Y107.584 E0.05796
G1 X66.961 Y106.054 E0.05261
G1 X66.432 Y104.631 E0.04761
G1 X66.037 Y103.318 E0.04297
G1 X65.748 Y102.124 E0.03853
G1 X65.542 Y101.053 E0.03420
G1 X65.208 Y98.906 E0.06811
M204 S1250
G1 X65.180 Y98.448 F9000.000
G1 E-2.24000 F2400.000
;WIPE_START
G1 F7200.000
G1 X68.088 Y98.928 E-0.91200
;WIPE_END
G1 E-0.04800 F2400.000
G1 Z0.400 F9000.000
G1 X63.014 Y100.248
G1 Z0.200
G1 E3.20000 F1500.000
M204 S800
;TYPE:Perimeter
G1 F1200.000
G1 X63.355 Y102.197 E0.06206
G1 X63.604 Y103.322 E0.03611
G1 X63.940 Y104.566 E0.04040
G1 X64.386 Y105.921 E0.04473
G1 X64.965 Y107.383 E0.04930
G1 X65.697 Y108.947 E0.05414
G1 X66.606 Y110.608 E0.05937
G1 X67.717 Y112.359 E0.06500
G1 X69.043 Y114.187 E0.07082
G1 X70.419 Y115.761 E0.06556
G1 X71.987 Y117.193 E0.06658
G1 X73.995 Y118.672 E0.07819
G1 X73.617 Y119.822 E0.03796
G1 X52.976 Y119.822 E0.64720
G1 X50.917 Y116.795 E0.11478
G1 X47.605 Y109.502 E0.25113
G1 X45.489 Y101.334 E0.26456
G1 X45.399 Y100.248 E0.03418
G1 X62.954 Y100.248 E0.55042
M204 S1250
G1 X62.697 Y100.625 F9000.000
M204 S800
;TYPE:External perimeter
G1 F1200.000
G1 X62.985 Y102.271 E0.05238
G1 X63.237 Y103.412 E0.03665
G1 X63.579 Y104.674 E0.04100
G1 X64.032 Y106.049 E0.04539
G1 X64.619 Y107.532 E0.05001
G1 X65.361 Y109.117 E0.05488
G1 X66.281 Y110.800 E0.06012
G1 X67.404 Y112.571 E0.06575
G1 X68.748 Y114.422 E0.07173
G1 X70.149 Y116.025 E0.06676
G1 X71.748 Y117.485 E0.06787
G1 X73.552 Y118.814 E0.07026
G1 X73.344 Y119.445 E0.02084
G1 X53.175 Y119.445 E0.63239
G1 X51.247 Y116.610 E0.10751
G1 X47.962 Y109.376 E0.24909
G1 X45.862 Y101.271 E0.26252
G1 X45.809 Y100.625 E0.02032
G1 X62.637 Y100.625 E0.52764
M204 S1250
G1 X63.094 Y100.574 F9000.000
G1 E-2.24000 F2400.000
;WIPE_START
G1 F7200.000
G1 X62.985 Y102.271 E-0.53267
G1 X63.237 Y103.412 E-0.37018
G1 X63.245 Y103.440 E-0.00915
;WIPE_END
G1 E-0.04800 F2400.000
G1 Z0.400 F9000.000
G1 X54.278 Y120.248
G1 Z0.200
G1 E3.20000 F1500.000
M204 S800
;TYPE:Perimeter
G1 F1200.000
G1 X76.969 Y120.248 E0.71146
G1 X77.743 Y120.615 E0.02684
G1 X79.960 Y121.440 E0.07419
G1 X82.303 Y122.093 E0.07626
G1 X84.753 Y122.568 E0.07824
G1 X87.295 Y122.859 E0.08021
M73 P1 R94
G1 X89.913 Y122.957 E0.08215
G1 X92.410 Y122.867 E0.07835
G1 X94.845 Y122.602 E0.07679
G1 X97.200 Y122.166 E0.07509
G1 X99.459 Y121.569 E0.07327
G1 X101.607 Y120.816 E0.07138
G1 X102.883 Y120.248 E0.04378
G1 X126.119 Y120.248 E0.72855
G1 X126.572 Y121.040 E0.02861
G1 X125.381 Y123.072 E0.07386
G1 X120.848 Y128.592 E0.22394
G1 X115.385 Y133.270 E0.22553
G1 X108.977 Y136.929 E0.23137
G1 X101.610 Y139.400 E0.24362
G1 X93.232 Y140.533 E0.26510
G1 X86.325 Y140.284 E0.21670
G1 X79.426 Y138.937 E0.22039
G1 X72.703 Y136.522 E0.22400
G1 X66.320 Y133.070 E0.22752
G1 X60.447 Y128.611 E0.23120
G1 X55.256 Y123.175 E0.23567
G1 X53.835 Y121.086 E0.07924
G1 X54.250 Y120.301 E0.02784
M204 S1250
G1 X54.505 Y120.625 F9000.000
M204 S800
;TYPE:External perimeter
G1 F1200.000
G1 X76.884 Y120.625 E0.70168
G1 X77.596 Y120.963 E0.02470
G1 X79.844 Y121.799 E0.07520
G1 X82.216 Y122.461 E0.07723
G1 X84.695 Y122.941 E0.07918
G1 X87.266 Y123.235 E0.08112
G1 X89.912 Y123.335 E0.08303
G1 X92.437 Y123.244 E0.07922
G1 X94.899 Y122.975 E0.07766
G1 X97.282 Y122.535 E0.07598
G1 X99.570 Y121.930 E0.07418
G1 X101.747 Y121.167 E0.07233
G1 X102.963 Y120.625 E0.04175
G1 X125.900 Y120.625 E0.71919
G1 X126.137 Y121.037 E0.01490
G1 X125.070 Y122.855 E0.06608
G1 X120.578 Y128.327 E0.22198
G1 X115.167 Y132.961 E0.22336
G1 X108.822 Y136.583 E0.22909
G1 X101.524 Y139.031 E0.24134
G1 X93.213 Y140.155 E0.26297
G1 X86.368 Y139.909 E0.21477
G1 X79.527 Y138.572 E0.21856
G1 X72.857 Y136.176 E0.22220
G1 X66.525 Y132.752 E0.22571
G1 X60.699 Y128.329 E0.22935
G1 X55.550 Y122.938 E0.23375
G1 X54.274 Y121.061 E0.07114
G1 X54.477 Y120.678 E0.01360
M204 S1250
G1 X54.449 Y120.229 F9000.000
G1 E-2.24000 F2400.000
;WIPE_START
G1 F7200.000
G1 X57.357 Y120.671 E-0.91200
;WIPE_END
G1 E-0.04800 F2400.000
G1 Z0.400 F9000.000
G1 X54.303 Y60.248
G1 Z0.200
G1 E3.20000 F1500.000
M204 S800
;TYPE:Perimeter
G1 F1200.000
G1 X73.812 Y60.248 E0.61166
G1 X74.180 Y61.417 E0.03845
G1 X73.054 Y62.205 E0.04309
G1 X71.329 Y63.715 E0.07187
G1 X69.805 Y65.389 E0.07099
G1 X68.484 Y67.237 E0.07122
G1 X67.356 Y69.089 E0.06799
G1 X66.405 Y70.796 E0.06126
G1 X65.618 Y72.378 E0.05539
G1 X64.974 Y73.870 E0.05097
G1 X64.451 Y75.314 E0.04814
G1 X64.028 Y76.747 E0.04685
G1 X63.684 Y78.209 E0.04711
G1 X63.398 Y79.742 E0.04887
G1 X63.236 Y80.822 E0.03426
G1 X45.971 Y80.822 E0.54134
G1 X47.253 Y75.111 E0.18353
G1 X50.216 Y67.448 E0.25760
G1 X54.274 Y60.300 E0.25771
M204 S1250
G1 X54.523 Y60.625 F9000.000
M204 S800
;TYPE:External perimeter
G1 F1200.000
G1 X73.535 Y60.625 E0.59611
G1 X73.737 Y61.267 E0.02111
G1 X72.821 Y61.908 E0.03506
G1 X71.065 Y63.445 E0.07319
G1 X69.511 Y65.152 E0.07236
G1 X68.169 Y67.029 E0.07235
G1 X67.030 Y68.899 E0.06866
G1 X66.072 Y70.620 E0.06176
G1 X65.276 Y72.219 E0.05599
G1 X64.623 Y73.731 E0.05165
G1 X64.093 Y75.196 E0.04885
G1 X63.663 Y76.650 E0.04754
G1 X63.315 Y78.132 E0.04772
G1 X63.026 Y79.679 E0.04936
G1 X62.912 Y80.445 E0.02428
G1 X46.442 Y80.445 E0.51639
G1 X47.615 Y75.221 E0.16788
G1 X50.558 Y67.610 E0.25584
G1 X54.493 Y60.677 E0.24996
M204 S1250
G1 X54.582 Y60.229 F9000.000
G1 E-2.24000 F2400.000
;WIPE_START
G1 F7200.000
G1 X57.373 Y60.669 E-0.91200
;WIPE_END
G1 E-0.04800 F2400.000
G1 Z0.400 F9000.000
G1 X55.820 Y59.822
G1 Z0.200
G1 E3.20000 F1500.000
M204 S800
;TYPE:Perimeter
G1 F1200.000
G1 X55.389 Y58.938 E0.03085
G1 X58.903 Y54.445 E0.17884
G1 X64.371 Y49.272 E0.23600
G1 X70.409 Y45.102 E0.23009
G1 X76.874 Y42.026 E0.22447
G1 X83.687 Y40.106 E0.22193
G1 X90.692 Y39.447 E0.22058
G1 X98.441 Y40.246 E0.24425
G1 X105.601 Y42.509 E0.23547
G1 X112.110 Y46.027 E0.23196
G1 X117.912 Y50.591 E0.23147
G1 X122.960 Y55.996 E0.23188
G1 X125.754 Y59.974 E0.15242
G1 X125.313 Y60.822 E0.02998
G1 X104.344 Y60.822 E0.65746
G1 X103.722 Y60.441 E0.02287
G1 X101.626 Y59.411 E0.07323
G1 X99.399 Y58.551 E0.07484
G1 X97.057 Y57.871 E0.07647
G1 X94.613 Y57.377 E0.07818
G1 X92.086 Y57.074 E0.07981
G1 X89.489 Y56.972 E0.08147
G1 X86.782 Y57.087 E0.08497
G1 X84.169 Y57.428 E0.08263
G1 X81.664 Y57.984 E0.08043
G1 X79.286 Y58.749 E0.07833
G1 X76.823 Y59.822 E0.08422
G1 X55.880 Y59.822 E0.65666
M204 S1250
G1 X56.056 Y59.445 F9000.000
M204 S800
;TYPE:External perimeter
G1 F1200.000
G1 X55.831 Y58.984 E0.01607
G1 X59.183 Y54.699 E0.17057
G1 X64.609 Y49.566 E0.23421
G1 X70.599 Y45.429 E0.22823
G1 X77.007 Y42.380 E0.22252
G1 X83.757 Y40.478 E0.21986
G1 X90.690 Y39.826 E0.21835
G1 X98.364 Y40.617 E0.24188
G1 X105.454 Y42.858 E0.23314
G1 X111.902 Y46.343 E0.22982
G1 X117.656 Y50.869 E0.22955
G1 X122.666 Y56.234 E0.23015
G1 X125.314 Y60.003 E0.14442
G1 X125.084 Y60.445 E0.01561
G1 X104.451 Y60.445 E0.64695
G1 X103.904 Y60.111 E0.02009
G1 X101.777 Y59.065 E0.07430
G1 X99.520 Y58.194 E0.07587
G1 X97.147 Y57.504 E0.07747
G1 X94.673 Y57.004 E0.07914
G1 X92.115 Y56.698 E0.08076
G1 X89.489 Y56.594 E0.08243
G1 X86.749 Y56.711 E0.08597
G1 X84.103 Y57.056 E0.08367
G1 X81.565 Y57.620 E0.08151
G1 X79.153 Y58.396 E0.07947
G1 X76.745 Y59.445 E0.08234
G1 X56.116 Y59.445 E0.64681
M204 S1250
G1 X55.676 Y59.570 F9000.000
G1 E-2.24000 F2400.000
;WIPE_START
G1 F7200.000
G1 X55.831 Y58.984 E-0.17148
G1 X57.272 Y57.142 E-0.74052
;WIPE_END
G1 E-0.04800 F2400.000
G1 Z0.400 F9000.000
G1 X114.863 Y83.759
G1 Z0.200
G1 E3.20000 F1500.000
M204 S800
;TYPE:Perimeter
G1 F1200.000
G1 X64.707 Y84.269 E1.57269
G1 X65.037 Y81.736 E0.08011
G1 X65.266 Y80.214 E0.04825
G1 X65.531 Y78.773 E0.04594
G1 X65.855 Y77.382 E0.04478
G1 X66.257 Y76.006 E0.04495
G1 X66.759 Y74.614 E0.04639
G1 X67.377 Y73.174 E0.04913
G1 X68.131 Y71.656 E0.05317
G1 X69.040 Y70.021 E0.05864
G1 X70.147 Y68.199 E0.06683
G1 X72.924 Y64.828 E0.13694
G1 X76.426 Y62.211 E0.13710
G1 X80.432 Y60.368 E0.13826
G1 X84.775 Y59.266 E0.14048
G1 X89.297 Y58.883 E0.14230
G1 X93.846 Y59.202 E0.14298
G1 X98.252 Y60.212 E0.14172
G1 X102.350 Y61.904 E0.13902
G1 X105.977 Y64.271 E0.13578
G1 X108.937 Y67.288 E0.13253
G1 X110.007 Y68.836 E0.05899
G1 X110.993 Y70.532 E0.06153
G1 X111.901 Y72.339 E0.06339
M73 P1 R93
G1 X112.718 Y74.195 E0.06358
G1 X113.430 Y76.040 E0.06202
G1 X114.024 Y77.815 E0.05867
G1 X114.485 Y79.459 E0.05355
G1 X114.797 Y80.921 E0.04686
G1 X114.946 Y82.160 E0.03915
G1 X114.866 Y83.699 E0.04830
M204 S1250
G1 X114.504 Y83.385 F9000.000
M204 S800
;TYPE:External perimeter
G1 F1200.000
G1 X65.137 Y83.888 E1.54798
G1 X65.410 Y81.788 E0.06639
G1 X65.638 Y80.276 E0.04793
G1 X65.901 Y78.850 E0.04547
G1 X66.220 Y77.478 E0.04418
G1 X66.616 Y76.123 E0.04426
G1 X67.109 Y74.752 E0.04567
G1 X67.720 Y73.333 E0.04845
G1 X68.465 Y71.831 E0.05256
G1 X69.366 Y70.211 E0.05813
G1 X70.455 Y68.418 E0.06576
G1 X73.186 Y65.103 E0.13467
G1 X76.620 Y62.537 E0.13443
G1 X80.559 Y60.725 E0.13593
G1 X84.838 Y59.639 E0.13842
G1 X89.300 Y59.261 E0.14041
G1 X93.791 Y59.576 E0.14114
G1 X98.137 Y60.573 E0.13981
G1 X102.174 Y62.239 E0.13693
G1 X105.736 Y64.564 E0.13339
G1 X108.645 Y67.529 E0.13023
G1 X109.688 Y69.038 E0.05752
G1 X110.662 Y70.712 E0.06071
G1 X111.560 Y72.499 E0.06273
G1 X112.369 Y74.339 E0.06300
G1 X113.075 Y76.168 E0.06148
G1 X113.663 Y77.926 E0.05811
G1 X114.118 Y79.550 E0.05289
G1 X114.425 Y80.983 E0.04595
G1 X114.567 Y82.173 E0.03759
G1 X114.508 Y83.325 E0.03618
M204 S1250
G1 X114.512 Y83.785 F9000.000
G1 E-2.24000 F2400.000
;WIPE_START
G1 F7200.000
G1 X111.628 Y83.358 E-0.91200
;WIPE_END
G1 E-0.04800 F2400.000
G1 Z0.400 F9000.000
G1 X116.311 Y78.822
G1 Z0.200
G1 E3.20000 F1500.000
M204 S800
;TYPE:Perimeter
G1 F1200.000
G1 X115.884 Y77.250 E0.05107
G1 X115.200 Y75.224 E0.06706
G1 X114.387 Y73.170 E0.06924
G1 X113.477 Y71.163 E0.06911
G1 X112.503 Y69.271 E0.06673
G1 X111.495 Y67.565 E0.06211
G1 X110.493 Y66.123 E0.05508
G1 X109.070 Y64.482 E0.06810
G1 X107.459 Y62.984 E0.06898
G1 X106.670 Y62.389 E0.03097
G1 X107.053 Y61.248 E0.03772
G1 X126.649 Y61.248 E0.61442
G1 X127.206 Y62.041 E0.03037
G1 X130.602 Y68.527 E0.22957
G1 X133.099 Y75.259 E0.22511
G1 X133.912 Y78.822 E0.11460
G1 X116.371 Y78.822 E0.54997
M204 S1250
M73 P2 R93
G1 X116.600 Y78.445 F9000.000
M204 S800
;TYPE:External perimeter
G1 F1200.000
G1 X116.245 Y77.140 E0.04239
G1 X115.554 Y75.094 E0.06772
G1 X114.734 Y73.023 E0.06983
G1 X113.817 Y70.999 E0.06969
G1 X112.833 Y69.088 E0.06737
G1 X111.813 Y67.362 E0.06289
G1 X110.791 Y65.891 E0.05615
G1 X109.342 Y64.219 E0.06937
G1 X107.701 Y62.695 E0.07022
G1 X107.114 Y62.251 E0.02306
G1 X107.324 Y61.625 E0.02071
G1 X126.453 Y61.625 E0.59977
G1 X126.883 Y62.237 E0.02346
G1 X130.256 Y68.681 E0.22805
G1 X132.737 Y75.367 E0.22359
G1 X133.439 Y78.445 E0.09900
G1 X116.660 Y78.445 E0.52611
M204 S1250
G1 X116.211 Y78.540 F9000.000
G1 X116.422 Y79.248
M204 S800
;TYPE:Perimeter
G1 F1200.000
G1 X134.009 Y79.248 E0.55144
G1 X134.646 Y82.040 E0.08979
G1 X135.188 Y88.664 E0.20839
G1 X134.833 Y95.921 E0.22781
G1 X134.224 Y99.822 E0.12379
G1 X116.789 Y99.822 E0.54666
G1 X116.977 Y97.007 E0.08847
