; generated by PrusaSlicer 2.3.3+win64 on 2022-05-23 at 12:50:38 UTC


;
;

;
;
; 

; external perimeters extrusion width = 0.45mm
; perimeters extrusion width = 0.45mm
; infill extrusion width = 0.45mm
; solid infill extrusion width = 0.45mm
; top infill extrusion width = 0.40mm
; first layer extrusion width = 0.42mm

M73 P0 R106
M201 X1250 Y1250 Z400 E5000 ; sets maximum accelerations, mm/sec^2
M203 X180 Y180 Z12 E80 ; sets maximum feedrates, mm/sec
M204 P1250 R1250 T1250 ; sets acceleration (P, T) and retract acceleration (R), mm/sec^2
M205 X8.00 Y8.00 Z2.00 E10.00 ; sets the jerk limits, mm/sec
M205 S0 T0 ; sets the minimum extruding and travel feed rate, mm/sec
M107
;TYPE:Custom
G90 ; use absolute coordinates
M83 ; extruder relative mode
M104 S170 ; set extruder temp for bed leveling
M140 S85 ; set bed temp
M109 R170 ; wait for bed leveling temp
M190 S85 ; wait for bed temp
G28 ; home all without mesh bed level
G29 ; mesh bed leveling 
M104 S230 ; set extruder temp
G92 E0.0
G1 Y-2.0 X179 F2400
G1 Z3 F720
M109 S230 ; wait for extruder temp

; intro line
G1 X170 F1000
G1 Z0.2 F720
G1 X110.0 E8.0 F900
G1 X40.0 E10.0 F700
G92 E0.0

M221 S95 ; set flow
G21 ; set units to millimeters
G90 ; use absolute coordinates
M83 ; use relative distances for extrusion
M900 K0.2 ; Filament gcode
;LAYER_CHANGE
;Z:0.2
;HEIGHT:0.2
;BEFORE_LAYER_CHANGE
G92 E0.0
;0.2


G1 E-3.20000 F2400.000
G1 Z0.200 F9000.000
;AFTER_LAYER_CHANGE
;0.2
G1 Z0.400
G1 X10.278 Y65.834
G1 Z0.200
G1 E3.20000 F1500.000
M204 S800
;TYPE:Skirt
;WIDTH:0.42
G1 F1200.000
G1 X11.495 Y64.625 E0.05381
G1 X12.983 Y63.699 E0.05493
G1 X28.023 Y56.333 E0.52511
G1 X71.795 Y35.256 E1.52324
G1 X73.331 Y34.614 E0.05220
G1 X75.375 Y34.076 E0.06627
G1 X76.430 Y33.913 E0.03348
G1 X77.593 Y33.861 E0.03649
G1 X96.293 Y34.395 E0.58657
G1 X98.343 Y34.742 E0.06518
G1 X99.551 Y35.147 E0.03996
G1 X100.470 Y35.581 E0.03187
G1 X161.067 Y71.154 E2.20316
G1 X162.769 Y72.614 E0.07031
G1 X164.170 Y74.444 E0.07225
G1 X165.129 Y76.187 E0.06238
G1 X165.948 Y78.142 E0.06646
G1 X166.676 Y80.330 E0.07231
G1 X167.297 Y82.575 E0.07304
G1 X168.073 Y85.963 E0.10897
G1 X173.863 Y125.232 E1.24455
G1 X173.882 Y126.455 E0.03838
G1 X173.619 Y127.718 E0.04043
G1 X173.096 Y128.866 E0.03957
G1 X172.285 Y129.928 E0.04189
G1 X171.396 Y130.681 E0.03654
G1 X170.427 Y131.209 E0.03461
G1 X168.028 Y132.027 E0.07947
G1 X119.419 Y145.881 E1.58479
G1 X118.052 Y146.126 E0.04352
G1 X117.112 Y146.118 E0.02948
G1 X100.398 Y144.573 E0.52629
G1 X27.291 Y125.112 E2.37206
G1 X24.317 Y124.188 E0.09765
G1 X21.442 Y122.767 E0.10056
G1 X18.911 Y121.079 E0.09538
G1 X16.800 Y119.344 E0.08567
G1 X14.960 Y117.567 E0.08021
G1 X13.445 Y115.897 E0.07068
G1 X12.254 Y114.421 E0.05947
G1 X9.408 Y109.777 E0.17077
G1 X7.540 Y104.739 E0.16847
G1 X6.482 Y99.364 E0.17178
G1 X6.107 Y94.030 E0.16765
G1 X6.217 Y88.829 E0.16312
G1 X6.668 Y83.718 E0.16086
G1 X7.310 Y78.918 E0.15183
G1 X8.791 Y69.353 E0.30349
G1 X9.021 Y68.277 E0.03451
G1 X9.448 Y67.168 E0.03726
G1 X10.246 Y65.885 E0.04737
M204 S1250
; printing object Magnificent Turing-Snaget.stl_2 id:1 copy 0
G1 E-2.24000 F2400.000
;WIPE_START
G1 F7200.000
G1 X11.495 Y64.625 E-0.56195
G1 X12.434 Y64.041 E-0.35005
;WIPE_END
G1 E-0.04800 F2400.000
G1 Z0.400 F9000.000
G1 X145.563 Y90.128
G1 Z0.200
G1 E3.20000 F1500.000
M204 S800
;TYPE:Perimeter
G1 F1200.000
G1 X149.291 Y90.140 E0.11689
G1 X149.866 Y90.204 E0.01814
G1 X150.602 Y90.401 E0.02388
G1 X151.277 Y90.206 E0.02202
G1 X151.814 Y90.141 E0.01697
G1 X153.738 Y90.140 E0.06033
G1 X154.280 Y90.206 E0.01710
G1 X154.970 Y90.406 E0.02254
G1 X155.710 Y90.205 E0.02405
G1 X156.280 Y90.140 E0.01796
G1 X157.329 Y90.140 E0.03291
G1 X157.899 Y90.205 E0.01796
G1 X158.624 Y90.402 E0.02358
G1 X159.265 Y90.207 E0.02100
G1 X159.787 Y90.141 E0.01649
G1 X163.274 Y90.129 E0.10933
G1 X163.212 Y92.139 E0.06305
G1 X163.132 Y93.521 E0.04338
G1 X163.007 Y94.987 E0.04613
G1 X162.822 Y96.595 E0.05076
G1 X162.600 Y97.955 E0.04320
G1 X162.357 Y99.133 E0.03771
G1 X161.873 Y101.258 E0.06833
G1 X161.660 Y102.370 E0.03551
G1 X161.483 Y103.638 E0.04015
G1 X161.351 Y105.152 E0.04766
G1 X161.308 Y106.388 E0.03875
G1 X161.321 Y107.506 E0.03508
G1 X161.381 Y108.516 E0.03170
G1 X161.504 Y109.704 E0.03745
G1 X157.774 Y109.692 E0.11694
G1 X157.230 Y109.628 E0.01718
G1 X156.501 Y109.420 E0.02378
G1 X155.811 Y109.627 E0.02259
G1 X155.280 Y109.693 E0.01678
G1 X153.868 Y109.693 E0.04426
G1 X153.337 Y109.627 E0.01678
G1 X152.658 Y109.423 E0.02223
G1 X151.957 Y109.627 E0.02289
G1 X151.415 Y109.692 E0.01711
G1 X150.886 Y109.692 E0.01659
G1 X150.345 Y109.627 E0.01711
G1 X149.643 Y109.423 E0.02290
G1 X148.978 Y109.626 E0.02182
G1 X148.455 Y109.693 E0.01652
G1 X146.042 Y109.706 E0.07565
G1 X145.615 Y107.897 E0.05828
G1 X145.191 Y105.011 E0.09148
G1 X144.967 Y101.759 E0.10219
G1 X144.960 Y98.101 E0.11469
G1 X145.129 Y94.594 E0.11011
G1 X145.403 Y91.441 E0.09923
G1 X145.556 Y90.187 E0.03959
M204 S1250
G1 E-2.24000 F2400.000
;WIPE_START
G1 F7200.000
G1 X148.436 Y90.151 E-0.91200
;WIPE_END
G1 E-0.04800 F2400.000
G1 Z0.400 F9000.000
G1 X155.124 Y90.840
G1 Z0.200
G1 E3.20000 F1500.000
M204 S800
;TYPE:External perimeter
G1 F1200.000
G1 X155.130 Y90.753 E0.00272
G1 X155.782 Y90.576 E0.02117
G1 X156.301 Y90.517 E0.01639
G1 X157.308 Y90.517 E0.03158
G1 X157.828 Y90.576 E0.01639
G1 X158.488 Y90.755 E0.02144
G1 X158.494 Y91.158 E0.01263
G1 X158.413 Y92.812 E0.05192
G1 X158.233 Y94.201 E0.04392
G1 X157.968 Y95.464 E0.04044
G1 X157.667 Y96.632 E0.03783
G1 X156.499 Y100.509 E0.12697
G1 X156.271 Y101.377 E0.02811
G1 X156.079 Y102.259 E0.02833
G1 X155.934 Y103.170 E0.02891
G1 X155.844 Y104.119 E0.02989
G1 X155.821 Y105.119 E0.03137
G1 X155.871 Y106.181 E0.03332
G1 X156.023 Y107.403 E0.03861
G1 X156.269 Y108.615 E0.03879
G1 X156.394 Y109.058 E0.01444
G1 X155.733 Y109.256 E0.02164
G1 X155.256 Y109.316 E0.01506
G1 X153.892 Y109.316 E0.04279
G1 X153.415 Y109.256 E0.01506
G1 X152.833 Y109.082 E0.01905
G1 X152.535 Y107.693 E0.04453
G1 X152.372 Y105.439 E0.07086
G1 X152.521 Y103.153 E0.07185
G1 X152.987 Y100.860 E0.07337
G1 X154.077 Y96.600 E0.13785
G1 X154.709 Y93.930 E0.08605
G1 X154.925 Y92.899 E0.03304
G1 X155.029 Y92.239 E0.02094
G1 X155.120 Y90.900 E0.04209
M204 S1250
G1 X155.052 Y90.791 F9000.000
G1 E-2.24000 F2400.000
;WIPE_START
G1 F7200.000
G1 X155.130 Y90.753 E-0.04651
G1 X155.782 Y90.576 E-0.21381
G1 X156.301 Y90.517 E-0.16555
G1 X157.308 Y90.517 E-0.31895
G1 X157.828 Y90.576 E-0.16555
G1 X157.833 Y90.577 E-0.00162
;WIPE_END
G1 E-0.04800 F2400.000
G1 Z0.400 F9000.000
G1 X158.738 Y90.843
G1 Z0.200
G1 E3.20000 F1500.000
M204 S800
G1 F1200.000
G1 X158.737 Y90.762 E0.00254
G1 X159.344 Y90.577 E0.01991
G1 X159.813 Y90.517 E0.01481
G1 X162.885 Y90.506 E0.09632
G1 X162.835 Y92.123 E0.05070
G1 X162.755 Y93.494 E0.04306
G1 X162.632 Y94.949 E0.04580
G1 X162.449 Y96.543 E0.05030
G1 X162.229 Y97.886 E0.04267
G1 X161.988 Y99.053 E0.03735
G1 X161.504 Y101.180 E0.06841
G1 X161.288 Y102.308 E0.03602
G1 X161.108 Y103.596 E0.04075
G1 X160.975 Y105.129 E0.04827
G1 X160.931 Y106.383 E0.03934
G1 X160.944 Y107.520 E0.03564
G1 X161.005 Y108.546 E0.03224
G1 X161.086 Y109.327 E0.02460
G1 X157.801 Y109.315 E0.10300
G1 X157.305 Y109.257 E0.01566
G1 X156.706 Y109.086 E0.01950
G1 X156.553 Y108.544 E0.01767
G1 X156.310 Y107.349 E0.03825
G1 X156.157 Y106.146 E0.03801
G1 X156.104 Y105.107 E0.03263
G1 X156.125 Y104.127 E0.03071
G1 X156.212 Y103.197 E0.02930
G1 X156.354 Y102.305 E0.02834
G1 X156.543 Y101.437 E0.02784
G1 X156.770 Y100.583 E0.02771
G1 X157.616 Y97.801 E0.09116
G1 X157.933 Y96.693 E0.03613
G1 X158.229 Y95.514 E0.03813
G1 X158.364 Y94.891 E0.01999
G1 X158.488 Y94.241 E0.02075
G1 X158.664 Y92.839 E0.04428
G1 X158.743 Y91.172 E0.05233
G1 X158.739 Y90.903 E0.00845
M204 S1250
G1 X158.668 Y90.802 F9000.000
G1 E-2.24000 F2400.000
;WIPE_START
G1 F7200.000
G1 X158.737 Y90.762 E-0.04469
G1 X159.344 Y90.577 E-0.20108
G1 X159.813 Y90.517 E-0.14958
G1 X161.445 Y90.512 E-0.51664
;WIPE_END
G1 E-0.04800 F2400.000
G1 Z0.400 F9000.000
G1 X154.845 Y90.762
G1 Z0.200
G1 E3.20000 F1500.000
M204 S800
G1 F1200.000
G1 X154.741 Y92.250 E0.04677
G1 X154.647 Y92.891 E0.02032
G1 X154.163 Y95.101 E0.07093
G1 X153.498 Y97.806 E0.08734
G1 X152.726 Y100.777 E0.09624
G1 X152.248 Y103.124 E0.07512
G1 X152.095 Y105.446 E0.07294
G1 X152.260 Y107.732 E0.07186
G1 X152.545 Y109.064 E0.04270
G1 X151.881 Y109.257 E0.02165
G1 X151.393 Y109.315 E0.01543
G1 X150.909 Y109.315 E0.01518
G1 X150.420 Y109.257 E0.01543
G1 X149.823 Y109.083 E0.01950
G1 X149.336 Y106.709 E0.07599
G1 X149.055 Y104.250 E0.07759
G1 X148.969 Y102.207 E0.06411
G1 X148.996 Y100.722 E0.04656
G1 X149.032 Y99.997 E0.02276
G1 X149.088 Y99.333 E0.02092
G1 X149.249 Y98.145 E0.03757
G1 X149.471 Y97.053 E0.03496
G1 X149.893 Y95.310 E0.05622
G1 X150.220 Y93.846 E0.04704
G1 X150.554 Y92.035 E0.05773
G1 X150.745 Y90.752 E0.04066
G1 X151.352 Y90.576 E0.01982
G1 X151.841 Y90.518 E0.01543
G1 X152.315 Y90.507 E0.01489
G1 X153.714 Y90.517 E0.04386
G1 X154.204 Y90.576 E0.01547
G1 X154.787 Y90.745 E0.01903
M204 S1250
G1 X155.242 Y90.809 F9000.000
G1 E-2.24000 F2400.000
;WIPE_START
G1 F7200.000
G1 X154.741 Y92.250 E-0.47674
G1 X154.647 Y92.891 E-0.20523
G1 X154.492 Y93.601 E-0.23002
;WIPE_END
G1 E-0.04800 F2400.000
G1 Z0.400 F9000.000
G1 X150.493 Y90.762
G1 Z0.200
G1 E3.20000 F1500.000
M204 S800
G1 F1200.000
G1 X150.308 Y92.001 E0.03928
G1 X149.976 Y93.783 E0.05681
G1 X149.226 Y96.993 E0.10339
G1 X149.001 Y98.089 E0.03506
G1 X148.824 Y99.295 E0.03823
G1 X148.709 Y100.703 E0.04429
G1 X148.685 Y102.203 E0.04703
G1 X148.772 Y104.270 E0.06487
G1 X149.060 Y106.761 E0.07863
G1 X149.537 Y109.061 E0.07366
G1 X148.898 Y109.256 E0.02092
G1 X148.430 Y109.316 E0.01480
G1 X146.340 Y109.327 E0.06553
G1 X145.985 Y107.827 E0.04836
G1 X145.567 Y104.970 E0.09051
G1 X145.345 Y101.746 E0.10134
G1 X145.337 Y98.110 E0.11400
G1 X145.505 Y94.619 E0.10959
G1 X145.778 Y91.480 E0.09879
G1 X145.897 Y90.506 E0.03077
G1 X149.270 Y90.517 E0.10575
G1 X149.796 Y90.576 E0.01661
G1 X150.435 Y90.747 E0.02071
M204 S1250
G1 X150.887 Y90.828 F9000.000
G1 E-2.24000 F2400.000
;WIPE_START
G1 F7200.000
G1 X150.308 Y92.001 E-0.39934
G1 X150.011 Y93.593 E-0.51266
;WIPE_END
G1 E-0.04800 F2400.000
G1 Z0.400 F9000.000
G1 X163.254 Y89.706
G1 Z0.200
G1 E3.20000 F1500.000
M204 S800
;TYPE:Perimeter
G1 F1200.000
G1 X159.747 Y89.693 E0.10997
G1 X159.219 Y89.626 E0.01666
G1 X158.569 Y89.430 E0.02131
G1 X157.876 Y89.628 E0.02260
G1 X157.331 Y89.692 E0.01718
G1 X156.312 Y89.692 E0.03195
G1 X155.768 Y89.628 E0.01718
G1 X155.057 Y89.425 E0.02318
G1 X154.389 Y89.626 E0.02188
G1 X153.864 Y89.692 E0.01659
G1 X152.011 Y89.692 E0.05810
G1 X151.486 Y89.626 E0.01659
G1 X150.838 Y89.431 E0.02122
G1 X150.102 Y89.629 E0.02391
G1 X149.528 Y89.693 E0.01810
G1 X145.599 Y89.706 E0.12319
G1 X146.148 Y85.973 E0.11830
G1 X146.961 Y81.269 E0.14968
M73 P0 R105
G1 X147.321 Y79.070 E0.06986
G1 X147.632 Y76.745 E0.07353
G1 X148.189 Y75.676 E0.03779
G1 X149.340 Y74.975 E0.04225
G1 X150.711 Y74.595 E0.04461
G1 X152.215 Y74.414 E0.04751
G1 X153.703 Y74.382 E0.04666
G1 X155.191 Y74.461 E0.04672
G1 X156.428 Y74.629 E0.03916
G1 X157.373 Y74.876 E0.03062
G1 X158.393 Y75.462 E0.03689
G1 X159.269 Y76.299 E0.03798
G1 X160.019 Y77.364 E0.04085
G1 X160.675 Y78.647 E0.04519
G1 X161.268 Y80.154 E0.05077
G1 X161.826 Y81.895 E0.05734
G1 X162.369 Y83.881 E0.06454
G1 X162.922 Y86.133 E0.07272
G1 X163.051 Y86.813 E0.02168
G1 X163.151 Y87.639 E0.02611
G1 X163.219 Y88.593 E0.02999
G1 X163.252 Y89.646 E0.03302
M204 S1250
G1 X162.865 Y89.327 F9000.000
M204 S800
;TYPE:External perimeter
G1 F1200.000
G1 X159.771 Y89.316 E0.09700
G1 X159.298 Y89.256 E0.01495
G1 X158.700 Y89.076 E0.01960
G1 X158.565 Y87.185 E0.05944
G1 X158.289 Y84.944 E0.07081
G1 X157.875 Y82.587 E0.07501
G1 X157.311 Y80.156 E0.07827
G1 X156.718 Y78.123 E0.06638
G1 X156.676 Y78.059 E0.00241
G1 X156.486 Y78.128 E0.00635
G1 X156.485 Y78.246 E0.00373
G1 X157.071 Y80.255 E0.06562
G1 X157.630 Y82.665 E0.07758
G1 X158.043 Y84.997 E0.07425
G1 X158.318 Y87.215 E0.07007
G1 X158.450 Y89.072 E0.05836
G1 X157.801 Y89.257 E0.02117
G1 X157.305 Y89.315 E0.01566
G1 X156.822 Y89.325 E0.01516
G1 X156.338 Y89.315 E0.01516
G1 X155.843 Y89.257 E0.01566
G1 X155.201 Y89.074 E0.02090
G1 X155.225 Y87.961 E0.03489
G1 X155.169 Y86.088 E0.05875
G1 X155.021 Y84.325 E0.05548
G1 X154.790 Y82.619 E0.05399
G1 X154.486 Y80.917 E0.05422
G1 X154.117 Y79.167 E0.05608
G1 X153.805 Y77.806 E0.04377
G1 X153.743 Y77.689 E0.00415
G1 X153.548 Y77.738 E0.00630
G1 X153.541 Y77.884 E0.00456
G1 X153.846 Y79.228 E0.04322
G1 X154.208 Y80.966 E0.05566
G1 X154.508 Y82.660 E0.05396
G1 X154.736 Y84.364 E0.05389
G1 X154.884 Y86.125 E0.05540
G1 X154.941 Y87.992 E0.05857
G1 X154.917 Y89.074 E0.03393
G1 X154.311 Y89.256 E0.01985
G1 X153.838 Y89.316 E0.01493
G1 X152.938 Y89.327 E0.02824
G1 X152.037 Y89.316 E0.02824
G1 X151.565 Y89.256 E0.01493
G1 X150.941 Y89.068 E0.02041
G1 X151.137 Y86.789 E0.07172
G1 X151.217 Y85.201 E0.04987
G1 X151.254 Y83.652 E0.04858
G1 X151.257 Y82.170 E0.04644
G1 X151.200 Y79.498 E0.08381
G1 X151.135 Y77.900 E0.05016
G1 X151.086 Y77.744 E0.00512
G1 X150.926 Y77.757 E0.00502
G1 X150.883 Y77.948 E0.00612
G1 X150.976 Y80.809 E0.08976
G1 X150.988 Y83.677 E0.08992
G1 X150.950 Y85.222 E0.04847
G1 X150.876 Y86.805 E0.04969
G1 X150.688 Y89.081 E0.07161
G1 X150.031 Y89.257 E0.02130
G1 X149.506 Y89.316 E0.01657
G1 X146.036 Y89.327 E0.10882
G1 X146.521 Y86.033 E0.10442
G1 X147.333 Y81.331 E0.14959
G1 X147.694 Y79.125 E0.07009
G1 X147.997 Y76.861 E0.07163
G1 X148.475 Y75.944 E0.03243
G1 X149.491 Y75.325 E0.03731
G1 X150.784 Y74.966 E0.04207
G1 X152.242 Y74.791 E0.04603
G1 X153.697 Y74.759 E0.04564
G1 X155.155 Y74.837 E0.04579
M73 P1 R105
G1 X156.355 Y75.000 E0.03796
G1 X157.229 Y75.228 E0.02832
G1 X158.166 Y75.766 E0.03387
G1 X158.982 Y76.546 E0.03539
G1 X159.695 Y77.559 E0.03886
G1 X160.331 Y78.803 E0.04378
G1 X160.913 Y80.281 E0.04981
G1 X161.465 Y82.003 E0.05670
G1 X162.004 Y83.976 E0.06413
G1 X162.553 Y86.213 E0.07225
G1 X162.678 Y86.870 E0.02097
G1 X162.776 Y87.675 E0.02542
G1 X162.842 Y88.613 E0.02946
G1 X162.863 Y89.267 E0.02054
M204 S1250
G1 X162.871 Y89.727 F9000.000
G1 E-2.24000 F2400.000
;WIPE_START
G1 F7200.000
G1 X159.983 Y89.312 E-0.91200
;WIPE_END
G1 E-0.04800 F2400.000
G1 Z0.400 F9000.000
G1 X161.565 Y110.127
G1 Z0.200
G1 E3.20000 F1500.000
M204 S800
;TYPE:Perimeter
G1 F1200.000
G1 X161.938 Y112.224 E0.06678
G1 X162.143 Y113.234 E0.03232
G1 X162.372 Y114.048 E0.02651
G1 X162.634 Y114.742 E0.02323
G1 X162.938 Y115.376 E0.02207
G1 X163.302 Y116.016 E0.02309
G1 X165.049 Y118.834 E0.10393
G1 X165.251 Y119.127 E0.01117
G1 X165.439 Y119.369 E0.00961
G1 X165.728 Y119.661 E0.01289
G1 X165.899 Y119.642 E0.00538
G1 X166.461 Y119.929 E0.01978
G1 X166.710 Y120.453 E0.01820
G1 X166.837 Y120.889 E0.01424
G1 X167.144 Y122.299 E0.04526
G1 X167.325 Y122.964 E0.02159
G1 X167.632 Y123.521 E0.01996
G1 X168.405 Y124.789 E0.04655
G1 X168.591 Y125.160 E0.01302
G1 X169.097 Y126.381 E0.04144
G1 X167.899 Y126.643 E0.03844
G1 X166.732 Y127.069 E0.03894
G1 X166.178 Y127.230 E0.01811
G1 X165.540 Y127.354 E0.02036
G1 X164.816 Y127.410 E0.02276
G1 X164.002 Y127.373 E0.02555
G1 X161.485 Y126.898 E0.08031
G1 X159.193 Y126.097 E0.07614
G1 X157.130 Y125.041 E0.07267
G1 X155.293 Y123.801 E0.06949
G1 X153.676 Y122.444 E0.06619
G1 X152.274 Y121.038 E0.06227
G1 X151.078 Y119.646 E0.05752
G1 X150.082 Y118.333 E0.05167
G1 X148.945 Y116.644 E0.06386
G1 X147.907 Y114.796 E0.06646
G1 X146.991 Y112.749 E0.07032
G1 X146.107 Y110.125 E0.08679
G1 X149.015 Y110.140 E0.09119
G1 X149.543 Y110.207 E0.01666
G1 X150.226 Y110.413 E0.02239
G1 X150.927 Y110.206 E0.02291
G1 X151.464 Y110.141 E0.01696
G1 X151.988 Y110.141 E0.01643
G1 X152.525 Y110.206 E0.01696
G1 X153.230 Y110.414 E0.02305
G1 X153.937 Y110.206 E0.02312
G1 X154.472 Y110.141 E0.01690
G1 X155.918 Y110.141 E0.04532
G1 X156.449 Y110.206 E0.01679
G1 X157.161 Y110.415 E0.02325
G1 X157.915 Y110.205 E0.02453
G1 X158.472 Y110.140 E0.01760
G1 X161.505 Y110.128 E0.09509
M204 S1250
G1 X161.249 Y110.506 F9000.000
M204 S800
;TYPE:External perimeter
G1 F1200.000
