; generated by PrusaSlicer 2.3.3+win64 on 2022-08-18 at 21:14:05 UTC


;
;

;
;
; 

; external perimeters extrusion width = 0.45mm
; perimeters extrusion width = 0.45mm
; infill extrusion width = 0.45mm
; solid infill extrusion width = 0.45mm
; top infill extrusion width = 0.40mm
; first layer extrusion width = 0.42mm

M73 P0 R67
M201 X1250 Y1250 Z400 E5000 ; sets maximum accelerations, mm/sec^2
M203 X180 Y180 Z12 E80 ; sets maximum feedrates, mm/sec
M204 P1250 R1250 T1250 ; sets acceleration (P, T) and retract acceleration (R), mm/sec^2
M205 X8.00 Y8.00 Z2.00 E10.00 ; sets the jerk limits, mm/sec
M205 S0 T0 ; sets the minimum extruding and travel feed rate, mm/sec
M107
;TYPE:Custom
G90 ; use absolute coordinates
M83 ; extruder relative mode
M104 S170 ; set extruder temp for bed leveling
M140 S85 ; set bed temp
M109 R170 ; wait for bed leveling temp
M190 S85 ; wait for bed temp
G28 ; home all without mesh bed level
G29 ; mesh bed leveling 
M104 S230 ; set extruder temp
G92 E0.0
G1 Y-2.0 X179 F2400
G1 Z3 F720
M109 S230 ; wait for extruder temp

; intro line
G1 X170 F1000
G1 Z0.2 F720
G1 X110.0 E8.0 F900
G1 X40.0 E10.0 F700
G92 E0.0

M221 S95 ; set flow
G21 ; set units to millimeters
G90 ; use absolute coordinates
M83 ; use relative distances for extrusion
M900 K0.2 ; Filament gcode
;LAYER_CHANGE
;Z:0.2
;HEIGHT:0.2
;BEFORE_LAYER_CHANGE
G92 E0.0
;0.2


G1 E-3.20000 F2400.000
G1 Z0.200 F9000.000
;AFTER_LAYER_CHANGE
;0.2
G1 Z0.400
G1 X25.769 Y51.888
G1 Z0.200
G1 E3.20000 F1500.000
M204 S800
;TYPE:Skirt
;WIDTH:0.42
G1 F1200.000
G1 X26.487 Y50.588 E0.04657
G1 X35.257 Y37.702 E0.48873
G1 X35.953 Y36.849 E0.03450
G1 X36.769 Y36.076 E0.03524
G1 X37.579 Y35.482 E0.03151
G1 X38.544 Y34.954 E0.03449
G1 X55.178 Y28.039 E0.56482
G1 X56.037 Y27.725 E0.02866
G1 X56.893 Y27.532 E0.02751
G1 X58.077 Y27.432 E0.03727
G1 X59.598 Y27.589 E0.04793
G1 X76.511 Y31.151 E0.54194
G1 X78.226 Y31.648 E0.05598
G1 X79.244 Y32.144 E0.03552
G1 X80.368 Y32.959 E0.04351
G1 X81.154 Y33.839 E0.03700
G1 X82.349 Y35.782 E0.07150
G1 X83.320 Y37.784 E0.06978
G1 X84.056 Y39.624 E0.06213
G1 X84.699 Y41.542 E0.06344
G1 X85.561 Y44.920 E0.10928
G1 X85.807 Y46.348 E0.04545
G1 X85.983 Y48.712 E0.07433
G1 X89.518 Y136.367 E2.75058
G1 X89.383 Y138.312 E0.06115
G1 X89.010 Y140.229 E0.06124
G1 X88.436 Y142.017 E0.05888
G1 X87.665 Y143.729 E0.05888
G1 X86.700 Y145.350 E0.05913
G1 X85.573 Y146.829 E0.05829
G1 X84.264 Y148.184 E0.05907
G1 X82.816 Y149.361 E0.05853
G1 X81.047 Y150.500 E0.06596
G1 X79.561 Y151.170 E0.05111
G1 X47.458 Y161.793 E1.06025
G1 X45.348 Y162.269 E0.06782
G1 X44.067 Y162.319 E0.04020
G1 X41.954 Y162.041 E0.06683
G1 X39.919 Y161.288 E0.06803
G1 X38.093 Y160.160 E0.06731
G1 X36.569 Y158.830 E0.06340
G1 X35.300 Y157.395 E0.06007
G1 X34.358 Y156.101 E0.05018
G1 X33.560 Y154.804 E0.04776
G1 X32.986 Y153.726 E0.03829
G1 X32.208 Y151.906 E0.06207
G1 X31.568 Y149.689 E0.07234
G1 X31.229 Y147.616 E0.06586
G1 X25.232 Y54.851 E2.91465
G1 X25.321 Y53.478 E0.04314
G1 X25.753 Y51.946 E0.04991
M204 S1250
; printing object Swanky Bombul (3).stl_1 id:0 copy 0
G1 E-2.24000 F2400.000
;WIPE_START
G1 F7200.000
G1 X26.487 Y50.588 E-0.48887
G1 X27.239 Y49.483 E-0.42313
;WIPE_END
G1 E-0.04800 F2400.000
G1 Z0.400 F9000.000
G1 X38.153 Y113.837
G1 Z0.200
G1 E3.20000 F1500.000
M204 S800
;TYPE:Perimeter
G1 F1200.000
G1 X69.837 Y113.837 E0.99343
G1 X70.302 Y114.827 E0.03430
G1 X70.766 Y115.996 E0.03944
G1 X71.205 Y117.377 E0.04544
G1 X71.545 Y118.653 E0.04141
G1 X71.800 Y119.805 E0.03700
G1 X71.982 Y120.808 E0.03196
G1 X72.104 Y121.637 E0.02627
G1 X72.183 Y122.341 E0.02220
G1 X73.291 Y122.839 E0.03810
G1 X74.335 Y123.360 E0.03657
G1 X75.540 Y124.015 E0.04300
G1 X76.852 Y124.801 E0.04796
G1 X78.213 Y125.714 E0.05139
G1 X79.560 Y126.745 E0.05320
G1 X80.019 Y127.139 E0.01895
G1 X80.689 Y127.783 E0.02916
G1 X81.492 Y128.671 E0.03753
G1 X82.345 Y129.793 E0.04420
G1 X83.155 Y131.135 E0.04914
G1 X83.717 Y132.411 E0.04372
G1 X40.683 Y132.411 E1.34930
G1 X39.933 Y130.819 E0.05518
G1 X39.375 Y129.550 E0.04346
G1 X38.813 Y128.163 E0.04690
G1 X38.270 Y126.673 E0.04974
G1 X37.703 Y124.492 E0.07067
G1 X37.466 Y122.291 E0.06939
G1 X37.475 Y120.131 E0.06772
G1 X37.644 Y118.039 E0.06582
G1 X38.145 Y113.896 E0.13084
M204 S1250
G1 X38.487 Y114.214 F9000.000
M204 S800
;TYPE:External perimeter
M73 P1 R67
G1 F1200.000
G1 X69.597 Y114.214 E0.97544
G1 X69.956 Y114.977 E0.02643
G1 X70.411 Y116.123 E0.03866
G1 X70.843 Y117.483 E0.04474
G1 X71.179 Y118.743 E0.04088
G1 X71.430 Y119.880 E0.03652
G1 X71.610 Y120.869 E0.03153
G1 X71.730 Y121.686 E0.02587
G1 X71.832 Y122.596 E0.02874
G1 X73.130 Y123.180 E0.04460
G1 X74.161 Y123.694 E0.03612
G1 X75.353 Y124.343 E0.04254
G1 X76.650 Y125.119 E0.04741
G1 X77.993 Y126.020 E0.05072
G1 X79.323 Y127.038 E0.05249
G1 X79.765 Y127.418 E0.01828
G1 X80.419 Y128.046 E0.02842
G1 X81.202 Y128.912 E0.03661
G1 X82.033 Y130.005 E0.04306
G1 X82.820 Y131.309 E0.04775
G1 X83.139 Y132.034 E0.02483
G1 X40.922 Y132.034 E1.32368
G1 X40.276 Y130.662 E0.04753
G1 X39.722 Y129.403 E0.04313
G1 X39.165 Y128.028 E0.04652
G1 X38.630 Y126.561 E0.04897
G1 X38.075 Y124.424 E0.06924
G1 X37.843 Y122.272 E0.06786
G1 X37.852 Y120.147 E0.06661
G1 X38.019 Y118.077 E0.06513
G1 X38.480 Y114.273 E0.12012
M204 S1250
G1 X38.501 Y113.814 F9000.000
G1 E-2.24000 F2400.000
;WIPE_START
G1 F7200.000
G1 X41.360 Y114.268 E-0.91200
;WIPE_END
G1 E-0.04800 F2400.000
G1 Z0.400 F9000.000
G1 X40.870 Y132.837
G1 Z0.200
G1 E3.20000 F1500.000
M204 S800
;TYPE:Perimeter
G1 F1200.000
G1 X83.878 Y132.837 E1.34851
M73 P1 R66
G1 X84.309 Y134.460 E0.05266
G1 X84.467 Y136.403 E0.06113
G1 X84.366 Y137.744 E0.04217
G1 X84.105 Y139.037 E0.04136
G1 X83.698 Y140.276 E0.04091
G1 X83.156 Y141.449 E0.04050
G1 X82.494 Y142.544 E0.04012
G1 X81.725 Y143.548 E0.03965
G1 X80.858 Y144.448 E0.03918
G1 X79.917 Y145.220 E0.03815
G1 X79.010 Y145.827 E0.03424
G1 X78.577 Y146.073 E0.01561
G1 X78.135 Y146.280 E0.01531
G1 X77.676 Y146.434 E0.01517
G1 X77.195 Y146.523 E0.01534
G1 X76.695 Y146.531 E0.01567
G1 X76.103 Y146.438 E0.01878
G1 X74.846 Y145.695 E0.04578
G1 X73.695 Y144.342 E0.05572
G1 X72.651 Y142.661 E0.06205
G1 X71.716 Y140.840 E0.06415
G1 X70.911 Y139.053 E0.06147
G1 X70.592 Y138.269 E0.02654
G1 X70.437 Y137.846 E0.01412
G1 X70.376 Y137.608 E0.00771
G1 X70.250 Y137.893 E0.00977
G1 X70.028 Y138.296 E0.01445
G1 X69.477 Y139.116 E0.03094
G1 X68.806 Y139.972 E0.03413
G1 X67.990 Y140.860 E0.03781
G1 X66.780 Y141.850 E0.04901
G1 X65.306 Y142.737 E0.05393
G1 X63.650 Y143.509 E0.05728
G1 X61.876 Y144.154 E0.05920
G1 X60.046 Y144.660 E0.05953
G1 X58.225 Y145.010 E0.05813
G1 X56.474 Y145.186 E0.05517
G1 X54.876 Y145.165 E0.05012
G1 X53.625 Y145.028 E0.03946
G1 X52.481 Y144.854 E0.03627
G1 X51.444 Y144.657 E0.03311
G1 X50.513 Y144.435 E0.03000
G1 X50.086 Y144.272 E0.01433
G1 X50.155 Y144.424 E0.00525
G1 X50.296 Y144.861 E0.01438
G1 X50.502 Y145.832 E0.03111
G1 X50.658 Y146.908 E0.03412
G1 X50.746 Y148.084 E0.03697
G1 X50.736 Y149.338 E0.03930
G1 X50.565 Y150.626 E0.04076
G1 X50.207 Y151.929 E0.04237
G1 X49.678 Y153.191 E0.04288
G1 X48.991 Y154.368 E0.04274
G1 X48.154 Y155.417 E0.04209
G1 X47.168 Y156.289 E0.04126
G1 X46.034 Y156.921 E0.04070
G1 X44.757 Y157.240 E0.04128
G1 X43.252 Y157.112 E0.04735
G1 X41.904 Y156.547 E0.04584
G1 X40.744 Y155.707 E0.04491
G1 X39.764 Y154.724 E0.04352
G1 X38.959 Y153.709 E0.04062
G1 X38.330 Y152.770 E0.03545
G1 X37.887 Y152.013 E0.02749
G1 X37.640 Y151.542 E0.01666
G1 X37.035 Y150.107 E0.04883
G1 X36.609 Y148.599 E0.04915
G1 X36.364 Y147.058 E0.04893
G1 X36.293 Y145.506 E0.04871
G1 X36.390 Y143.963 E0.04848
G1 X36.651 Y142.452 E0.04807
G1 X37.069 Y140.993 E0.04759
G1 X37.637 Y139.622 E0.04652
G1 X38.295 Y138.329 E0.04549
G1 X38.981 Y137.141 E0.04300
G1 X39.658 Y136.071 E0.03970
G1 X40.294 Y135.144 E0.03526
G1 X40.853 Y134.378 E0.02974
G1 X41.361 Y133.732 E0.02577
G1 X40.898 Y132.889 E0.03013
M204 S1250
G1 X41.507 Y133.214 F9000.000
M204 S800
;TYPE:External perimeter
G1 F1200.000
G1 X83.588 Y133.214 E1.31945
G1 X83.936 Y134.524 E0.04250
G1 X84.088 Y136.404 E0.05915
G1 X83.992 Y137.693 E0.04051
G1 X83.740 Y138.941 E0.03992
G1 X83.346 Y140.138 E0.03953
G1 X82.823 Y141.272 E0.03917
G1 X82.182 Y142.331 E0.03880
G1 X81.439 Y143.301 E0.03833
G1 X80.602 Y144.170 E0.03782
G1 X79.690 Y144.918 E0.03697
G1 X79.237 Y145.232 E0.01728
G1 X78.814 Y145.504 E0.01578
G1 X78.404 Y145.738 E0.01481
G1 X77.994 Y145.929 E0.01416
G1 X77.581 Y146.068 E0.01367
G1 X77.157 Y146.146 E0.01352
G1 X76.722 Y146.153 E0.01366
G1 X76.233 Y146.077 E0.01550
G1 X75.092 Y145.403 E0.04154
G1 X74.000 Y144.119 E0.05285
G1 X72.979 Y142.475 E0.06068
G1 X72.056 Y140.677 E0.06337
G1 X71.257 Y138.904 E0.06095
G1 X70.943 Y138.133 E0.02611
G1 X70.798 Y137.734 E0.01333
G1 X70.687 Y137.305 E0.01387
G1 X70.649 Y136.920 E0.01214
G1 X70.436 Y136.316 E0.02009
G1 X70.271 Y136.676 E0.01243
G1 X70.169 Y136.976 E0.00991
G1 X70.089 Y137.324 E0.01121
G1 X69.912 Y137.725 E0.01376
G1 X69.705 Y138.100 E0.01341
G1 X69.172 Y138.894 E0.02999
G1 X68.518 Y139.728 E0.03324
G1 X67.730 Y140.586 E0.03650
G1 X66.562 Y141.541 E0.04732
G1 X65.129 Y142.404 E0.05245
G1 X63.506 Y143.160 E0.05613
G1 X61.761 Y143.794 E0.05822
G1 X59.960 Y144.292 E0.05860
G1 X58.171 Y144.637 E0.05713
G1 X56.458 Y144.809 E0.05397
G1 X54.899 Y144.788 E0.04888
G1 X53.674 Y144.654 E0.03865
G1 X52.545 Y144.482 E0.03581
G1 X51.523 Y144.288 E0.03262
G1 X50.625 Y144.074 E0.02895
G1 X50.242 Y143.928 E0.01285
G1 X49.906 Y143.728 E0.01227
G1 X49.667 Y143.632 E0.00807
G1 X49.370 Y143.565 E0.00954
G1 X49.379 Y143.677 E0.00352
G1 X49.450 Y143.914 E0.00776
G1 X49.626 Y144.167 E0.00966
G1 X49.802 Y144.560 E0.01352
G1 X49.932 Y144.959 E0.01315
G1 X50.130 Y145.897 E0.03005
G1 X50.283 Y146.950 E0.03336
G1 X50.369 Y148.097 E0.03607
G1 X50.359 Y149.311 E0.03808
G1 X50.195 Y150.551 E0.03922
G1 X49.849 Y151.806 E0.04080
G1 X49.340 Y153.022 E0.04134
G1 X48.679 Y154.154 E0.04110
G1 X47.879 Y155.156 E0.04020
G1 X46.949 Y155.979 E0.03896
G1 X45.894 Y156.567 E0.03785
G1 X44.726 Y156.859 E0.03774
G1 X43.343 Y156.742 E0.04352
G1 X42.090 Y156.216 E0.04261
G1 X40.990 Y155.419 E0.04259
G1 X40.046 Y154.473 E0.04191
G1 X39.264 Y153.487 E0.03947
G1 X38.650 Y152.569 E0.03461
G1 X38.217 Y151.830 E0.02687
G1 X37.981 Y151.381 E0.01589
G1 X37.391 Y149.982 E0.04759
G1 X36.978 Y148.518 E0.04772
G1 X36.740 Y147.019 E0.04758
G1 X36.671 Y145.509 E0.04740
G1 X36.765 Y144.007 E0.04720
G1 X37.019 Y142.536 E0.04679
G1 X37.425 Y141.117 E0.04628
G1 X37.980 Y139.780 E0.04539
G1 X38.627 Y138.509 E0.04472
G1 X39.303 Y137.336 E0.04245
G1 X39.973 Y136.279 E0.03924
G1 X40.601 Y135.362 E0.03487
G1 X41.154 Y134.606 E0.02935
G1 X41.811 Y133.769 E0.03337
G1 X41.535 Y133.266 E0.01797
M204 S1250
G1 X41.540 Y132.815 F9000.000
G1 E-2.24000 F2400.000
;WIPE_START
G1 F7200.000
G1 X44.415 Y133.263 E-0.91200
;WIPE_END
G1 E-0.04800 F2400.000
G1 Z0.400 F9000.000
G1 X45.647 Y92.837
G1 Z0.200
G1 E3.20000 F1500.000
M204 S800
;TYPE:Perimeter
G1 F1200.000
G1 X67.798 Y92.837 E0.69454
G1 X67.138 Y94.603 E0.05914
G1 X66.873 Y95.526 E0.03011
G1 X66.717 Y96.297 E0.02464
G1 X66.672 Y96.918 E0.01953
G1 X66.707 Y97.500 E0.01828
G1 X67.139 Y99.960 E0.07830
G1 X67.314 Y101.247 E0.04074
G1 X67.457 Y102.870 E0.05110
G1 X67.684 Y107.335 E0.14016
G1 X67.771 Y110.427 E0.09698
G1 X68.328 Y111.226 E0.03054
G1 X69.187 Y112.609 E0.05107
G1 X68.729 Y113.411 E0.02893
G1 X38.175 Y113.411 E0.95800
G1 X38.257 Y112.410 E0.03149
G1 X38.236 Y110.825 E0.04971
G1 X38.178 Y110.315 E0.01610
G1 X38.102 Y109.863 E0.01434
G1 X37.832 Y108.589 E0.04085
G1 X37.759 Y108.085 E0.01597
G1 X37.712 Y107.508 E0.01815
G1 X37.713 Y106.425 E0.03394
G1 X37.762 Y105.685 E0.02328
G1 X37.888 Y104.720 E0.03049
G1 X38.129 Y103.594 E0.03612
G1 X38.526 Y102.375 E0.04020
G1 X39.121 Y101.131 E0.04323
G1 X39.963 Y99.939 E0.04576
G1 X41.071 Y98.902 E0.04757
G1 X42.222 Y98.130 E0.04348
G1 X43.319 Y97.547 E0.03893
G1 X44.343 Y97.121 E0.03479
G1 X45.261 Y96.826 E0.03022
G1 X46.044 Y96.637 E0.02525
G1 X46.397 Y96.583 E0.01121
G1 X46.178 Y95.088 E0.04737
G1 X45.999 Y94.224 E0.02766
G1 X45.662 Y92.895 E0.04301
M204 S1250
G1 X46.132 Y93.214 F9000.000
M204 S800
;TYPE:External perimeter
G1 F1200.000
G1 X67.255 Y93.214 E0.66230
G1 X66.780 Y94.485 E0.04256
G1 X66.507 Y95.437 E0.03105
G1 X66.343 Y96.245 E0.02586
G1 X66.294 Y96.915 E0.02106
G1 X66.331 Y97.541 E0.01963
G1 X66.766 Y100.019 E0.07889
G1 X66.939 Y101.289 E0.04019
G1 X67.081 Y102.896 E0.05060
G1 X67.307 Y107.350 E0.13981
G1 X67.397 Y110.550 E0.10038
G1 X68.013 Y111.433 E0.03376
G1 X68.748 Y112.617 E0.04371
G1 X68.510 Y113.034 E0.01503
G1 X38.584 Y113.034 E0.93831
G1 X38.634 Y112.423 E0.01922
G1 X38.612 Y110.801 E0.05086
G1 X38.551 Y110.262 E0.01700
G1 X38.472 Y109.793 E0.01490
G1 X38.203 Y108.523 E0.04072
G1 X38.134 Y108.043 E0.01521
G1 X38.089 Y107.493 E0.01729
G1 X38.090 Y106.438 E0.03307
G1 X38.138 Y105.722 E0.02252
G1 X38.260 Y104.784 E0.02964
G1 X38.494 Y103.692 E0.03502
G1 X38.877 Y102.515 E0.03881
G1 X39.447 Y101.322 E0.04145
G1 X40.248 Y100.188 E0.04355
G1 X41.306 Y99.199 E0.04541
G1 X42.416 Y98.453 E0.04192
G1 X43.480 Y97.888 E0.03777
G1 X44.474 Y97.475 E0.03374
G1 X45.363 Y97.190 E0.02930
G1 X46.117 Y97.007 E0.02431
G1 X46.805 Y96.902 E0.02181
G1 X46.761 Y96.418 E0.01525
G1 X46.550 Y95.021 E0.04428
G1 X46.367 Y94.140 E0.02824
G1 X46.146 Y93.272 E0.02808
M204 S1250
G1 X46.101 Y92.815 F9000.000
G1 E-2.24000 F2400.000
;WIPE_START
G1 F7200.000
G1 X49.026 Y93.264 E-0.91200
;WIPE_END
G1 E-0.04800 F2400.000
G1 Z0.400 F9000.000
G1 X35.639 Y73.837
G1 Z0.200
G1 E3.20000 F1500.000
M204 S800
;TYPE:Perimeter
G1 F1200.000
G1 X76.006 Y73.837 E1.26566
G1 X76.386 Y74.431 E0.02211
G1 X77.144 Y76.045 E0.05592
G1 X77.678 Y77.901 E0.06056
G1 X77.867 Y79.925 E0.06373
G1 X77.862 Y80.502 E0.01808
G1 X77.834 Y81.158 E0.02060
G1 X77.762 Y81.894 E0.02317
G1 X77.623 Y82.677 E0.02494
G1 X77.391 Y83.477 E0.02611
G1 X77.036 Y84.261 E0.02698
G1 X76.523 Y84.987 E0.02789
G1 X75.829 Y85.590 E0.02883
G1 X74.532 Y86.249 E0.04560
G1 X73.254 Y86.580 E0.04141
G1 X72.049 Y86.657 E0.03787
G1 X70.967 Y86.559 E0.03406
G1 X70.049 Y86.359 E0.02945
G1 X69.704 Y86.248 E0.01138
G1 X69.569 Y87.388 E0.03599
G1 X69.361 Y88.717 E0.04219
G1 X69.237 Y89.314 E0.01912
G1 X68.929 Y90.451 E0.03693
G1 X68.612 Y91.357 E0.03011
G1 X68.150 Y92.411 E0.03607
G1 X45.504 Y92.411 E0.71005
G1 X45.101 Y91.260 E0.03823
G1 X44.175 Y88.821 E0.08179
G1 X44.018 Y88.289 E0.01740
G1 X43.888 Y87.707 E0.01871
G1 X43.781 Y87.032 E0.02141
G1 X43.674 Y86.110 E0.02912
G1 X43.575 Y84.890 E0.03836
G1 X43.564 Y84.479 E0.01292
G1 X43.587 Y84.115 E0.01143
G1 X43.371 Y84.309 E0.00911
G1 X43.087 Y84.517 E0.01105
G1 X42.479 Y84.845 E0.02165
G1 X41.799 Y85.117 E0.02294
G1 X41.021 Y85.319 E0.02523
G1 X40.260 Y85.390 E0.02394
G1 X39.562 Y85.361 E0.02193
G1 X38.939 Y85.264 E0.01976
G1 X38.408 Y85.129 E0.01716
G1 X37.983 Y84.985 E0.01407
G1 X37.497 Y84.775 E0.01660
G1 X36.409 Y84.019 E0.04155
G1 X35.581 Y83.050 E0.03997
G1 X35.011 Y82.009 E0.03720
G1 X34.636 Y80.960 E0.03492
G1 X34.411 Y79.985 E0.03138
G1 X34.296 Y79.154 E0.02629
G1 X34.246 Y78.214 E0.02954
G1 X34.484 Y76.413 E0.05696
G1 X35.073 Y74.799 E0.05385
G1 X35.609 Y73.888 E0.03314
M204 S1250
G1 X35.855 Y74.214 F9000.000
M204 S800
;TYPE:External perimeter
G1 F1200.000
G1 X75.799 Y74.214 E1.25243
G1 X76.055 Y74.613 E0.01487
G1 X76.790 Y76.178 E0.05420
G1 X77.306 Y77.971 E0.05851
G1 X77.489 Y79.941 E0.06203
G1 X77.485 Y80.492 E0.01728
G1 X77.457 Y81.132 E0.02007
G1 X77.388 Y81.842 E0.02240
G1 X77.255 Y82.592 E0.02385
G1 X77.037 Y83.346 E0.02462
G1 X76.708 Y84.072 E0.02500
G1 X76.242 Y84.733 E0.02534
G1 X75.617 Y85.275 E0.02594
G1 X74.398 Y85.894 E0.04286
M73 P2 R66
G1 X73.194 Y86.206 E0.03900
G1 X72.054 Y86.279 E0.03583
G1 X71.024 Y86.186 E0.03242
G1 X70.147 Y85.995 E0.02813
G1 X69.384 Y85.741 E0.02523
G1 X69.195 Y87.336 E0.05038
G1 X68.990 Y88.649 E0.04166
G1 X68.870 Y89.226 E0.01848
G1 X68.569 Y90.339 E0.03615
G1 X68.261 Y91.219 E0.02923
G1 X67.904 Y92.034 E0.02789
G1 X45.772 Y92.034 E0.69394
G1 X45.455 Y91.131 E0.03000
G1 X44.533 Y88.701 E0.08149
G1 X44.383 Y88.195 E0.01655
G1 X44.258 Y87.636 E0.01794
