; generated by PrusaSlicer 2.3.3+win64 on 2022-03-14 at 08:53:19 UTC


;
;

;
;
; 

; external perimeters extrusion width = 0.45mm
; perimeters extrusion width = 0.45mm
; infill extrusion width = 0.45mm
; solid infill extrusion width = 0.45mm
; top infill extrusion width = 0.40mm
; first layer extrusion width = 0.42mm

M73 P0 R31
M201 X1250 Y1250 Z400 E5000 ; sets maximum accelerations, mm/sec^2
M203 X180 Y180 Z12 E80 ; sets maximum feedrates, mm/sec
M204 P1250 R1250 T1250 ; sets acceleration (P, T) and retract acceleration (R), mm/sec^2
M205 X8.00 Y8.00 Z2.00 E10.00 ; sets the jerk limits, mm/sec
M205 S0 T0 ; sets the minimum extruding and travel feed rate, mm/sec
M107
;TYPE:Custom
G90 ; use absolute coordinates
M83 ; extruder relative mode
M104 S170 ; set extruder temp for bed leveling
M140 S85 ; set bed temp
M109 R170 ; wait for bed leveling temp
M190 S85 ; wait for bed temp
G28 ; home all without mesh bed level
G29 ; mesh bed leveling 
M104 S230 ; set extruder temp
G92 E0.0
G1 Y-2.0 X179 F2400
G1 Z3 F720
M109 S230 ; wait for extruder temp

; intro line
G1 X170 F1000
G1 Z0.2 F720
G1 X110.0 E8.0 F900
G1 X40.0 E10.0 F700
G92 E0.0

M221 S95 ; set flow
G21 ; set units to millimeters
G90 ; use absolute coordinates
M83 ; use relative distances for extrusion
M900 K0.2 ; Filament gcode
;LAYER_CHANGE
;Z:0.2
;HEIGHT:0.2
;BEFORE_LAYER_CHANGE
G92 E0.0
;0.2


G1 E-3.20000 F2400.000
G1 Z0.200 F9000.000
;AFTER_LAYER_CHANGE
;0.2
G1 Z0.400
G1 X75.987 Y72.470
G1 Z0.200
G1 E3.20000 F1500.000
M204 S800
;TYPE:Skirt
;WIDTH:0.42
G1 F1200.000
G1 X76.099 Y72.353 E0.00506
G1 X98.616 Y54.560 E0.89984
M73 P0 R30
G1 X99.644 Y54.040 E0.03611
G1 X100.801 Y53.651 E0.03827
G1 X101.730 Y53.468 E0.02970
G1 X102.988 Y53.384 E0.03954
G1 X104.771 Y53.513 E0.05603
G1 X111.791 Y54.523 E0.22239
M73 P1 R30
G1 X113.322 Y54.937 E0.04972
G1 X114.993 Y55.691 E0.05748
G1 X116.348 Y56.480 E0.04916
G1 X120.733 Y59.407 E0.16529
G1 X121.684 Y60.136 E0.03758
G1 X122.517 Y61.010 E0.03786
G1 X123.030 Y61.748 E0.02817
G1 X123.624 Y63.033 E0.04438
G1 X123.861 Y63.943 E0.02950
G1 X123.975 Y65.265 E0.04159
G1 X123.920 Y66.155 E0.02797
G1 X123.019 Y71.051 E0.15608
G1 X122.684 Y72.178 E0.03687
G1 X110.424 Y95.665 E0.83069
G1 X109.770 Y96.599 E0.03575
G1 X101.253 Y105.656 E0.38982
G1 X100.622 Y106.204 E0.02621
G1 X99.458 Y107.000 E0.04421
G1 X98.073 Y107.693 E0.04856
G1 X96.958 Y108.086 E0.03707
G1 X95.691 Y108.333 E0.04047
G1 X94.345 Y108.352 E0.04220
G1 X78.882 Y106.763 E0.48740
G1 X76.719 Y106.349 E0.06906
G1 X75.678 Y105.999 E0.03443
G1 X74.618 Y105.524 E0.03640
G1 X73.740 Y105.027 E0.03165
G1 X72.864 Y104.412 E0.03355
G1 X72.071 Y103.718 E0.03304
G1 X71.397 Y102.982 E0.03130
G1 X70.763 Y102.096 E0.03417
G1 X70.421 Y101.464 E0.02253
G1 X69.967 Y100.093 E0.04527
G1 X68.433 Y90.029 E0.31921
G1 X68.331 Y88.193 E0.05766
G1 X68.403 Y86.389 E0.05659
G1 X68.661 Y84.550 E0.05823
G1 X69.115 Y82.774 E0.05748
G1 X69.849 Y80.972 E0.06102
G1 X70.767 Y79.449 E0.05574
G1 X75.555 Y72.924 E0.25377
G1 X75.946 Y72.514 E0.01776
M204 S1250
; printing object Stunning Elzing (7).stl id:1 copy 0
G1 E-2.24000 F2400.000
;WIPE_START
G1 F7200.000
G1 X76.099 Y72.353 E-0.07013
G1 X78.185 Y70.705 E-0.84187
;WIPE_END
G1 E-0.04800 F2400.000
G1 Z0.400 F9000.000
G1 X99.898 Y66.681
G1 Z0.200
G1 E3.20000 F1500.000
M204 S800
;TYPE:Perimeter
G1 F1200.000
G1 X115.258 Y66.681 E0.48160
G1 X115.716 Y67.341 E0.02518
G1 X115.847 Y67.477 E0.00594
G1 X116.033 Y67.617 E0.00728
G1 X116.385 Y67.807 E0.01254
G1 X116.330 Y67.564 E0.00778
G1 X116.394 Y66.760 E0.02530
G1 X117.708 Y66.774 E0.04121
G1 X118.129 Y67.522 E0.02695
G1 X117.621 Y68.176 E0.02595
G1 X117.497 Y68.266 E0.00481
G1 X117.765 Y68.626 E0.01405
G1 X117.912 Y68.966 E0.01163
G1 X118.014 Y69.320 E0.01156
G1 X118.053 Y69.705 E0.01212
G1 X118.015 Y70.116 E0.01293
G1 X117.855 Y70.517 E0.01356
G1 X117.592 Y70.850 E0.01329
G1 X117.281 Y71.073 E0.01201
G1 X116.967 Y71.210 E0.01073
G1 X116.256 Y71.392 E0.02301
G1 X115.853 Y71.530 E0.01338
G1 X115.699 Y71.614 E0.00547
G1 X115.536 Y71.736 E0.00640
G1 X115.327 Y71.956 E0.00950
G1 X115.279 Y72.031 E0.00282
G1 X114.916 Y72.732 E0.02475
G1 X114.743 Y72.993 E0.00983
G1 X114.526 Y73.264 E0.01086
G1 X114.245 Y73.556 E0.01272
G1 X113.902 Y73.833 E0.01383
G1 X113.503 Y74.092 E0.01492
G1 X113.057 Y74.299 E0.01542
G1 X112.786 Y74.378 E0.00883
G1 X112.495 Y74.421 E0.00922
G1 X112.162 Y74.400 E0.01047
G1 X111.792 Y74.271 E0.01227
G1 X111.519 Y74.035 E0.01130
G1 X111.346 Y73.779 E0.00970
G1 X111.258 Y73.513 E0.00881
G1 X111.226 Y73.274 E0.00754
G1 X111.244 Y72.658 E0.01931
G1 X111.233 Y72.370 E0.00904
G1 X111.174 Y72.089 E0.00900
G1 X111.084 Y71.866 E0.00755
G1 X110.963 Y71.677 E0.00704
G1 X110.811 Y71.505 E0.00720
G1 X110.415 Y71.194 E0.01579
G1 X109.651 Y70.744 E0.02780
G1 X109.018 Y70.298 E0.02427
G1 X108.711 Y70.104 E0.01138
G1 X107.886 Y69.662 E0.02936
G1 X107.436 Y69.471 E0.01534
G1 X106.975 Y69.317 E0.01522
G1 X106.536 Y69.220 E0.01409
G1 X106.146 Y69.192 E0.01227
G1 X105.790 Y69.235 E0.01123
G1 X105.305 Y69.414 E0.01622
G1 X104.579 Y69.815 E0.02600
G1 X103.900 Y70.264 E0.02553
G1 X102.804 Y71.050 E0.04229
G1 X102.512 Y71.194 E0.01021
G1 X102.219 Y71.306 E0.00985
G1 X101.651 Y71.469 E0.01851
G1 X100.914 Y71.602 E0.02349
G1 X100.408 Y71.614 E0.01585
G1 X99.906 Y71.316 E0.01832
G1 X99.612 Y70.912 E0.01566
G1 X99.447 Y70.497 E0.01401
G1 X99.348 Y70.070 E0.01375
G1 X99.297 Y69.624 E0.01407
G1 X99.284 Y69.165 E0.01440
G1 X99.309 Y68.698 E0.01466
G1 X99.369 Y68.236 E0.01461
G1 X99.466 Y67.785 E0.01448
G1 X99.602 Y67.372 E0.01362
G1 X99.874 Y66.736 E0.02168
M204 S1250
G1 E-2.24000 F2400.000
;WIPE_START
G1 F7200.000
G1 X102.754 Y66.726 E-0.91200
;WIPE_END
G1 E-0.04800 F2400.000
G1 Z0.400 F9000.000
G1 X116.742 Y67.141
G1 Z0.200
G1 E3.20000 F1500.000
M204 S800
;TYPE:External perimeter
G1 F1200.000
G1 X117.486 Y67.148 E0.02334
G1 X117.678 Y67.489 E0.01225
G1 X117.356 Y67.903 E0.01643
G1 X117.146 Y68.056 E0.00814
G1 X116.809 Y67.972 E0.01091
G1 X116.711 Y67.537 E0.01398
G1 X116.737 Y67.201 E0.01059
M204 S1250
G1 X116.734 Y66.741 F9000.000
G1 E-2.24000 F2400.000
;WIPE_START
G1 F7200.000
G1 X117.486 Y67.148 E-0.23778
G1 X117.678 Y67.489 E-0.12375
G1 X117.356 Y67.903 E-0.16596
G1 X117.146 Y68.056 E-0.08226
G1 X116.809 Y67.972 E-0.11016
G1 X116.711 Y67.537 E-0.14120
G1 X116.723 Y67.377 E-0.05090
;WIPE_END
G1 E-0.04800 F2400.000
G1 Z0.400 F9000.000
G1 X100.146 Y67.058
G1 Z0.200
G1 E3.20000 F1500.000
M204 S800
G1 F1200.000
G1 X115.060 Y67.058 E0.46761
G1 X115.423 Y67.581 E0.01996
G1 X115.597 Y67.760 E0.00783
G1 X115.822 Y67.930 E0.00884
G1 X116.056 Y68.069 E0.00852
G1 X116.406 Y68.233 E0.01213
G1 X116.753 Y68.361 E0.01160
G1 X117.127 Y68.421 E0.01186
G1 X117.262 Y68.567 E0.00625
G1 X117.434 Y68.811 E0.00936
G1 X117.556 Y69.094 E0.00966
G1 X117.643 Y69.392 E0.00975
G1 X117.674 Y69.707 E0.00990
G1 X117.645 Y70.027 E0.01008
G1 X117.525 Y70.327 E0.01012
G1 X117.330 Y70.574 E0.00989
G1 X117.093 Y70.743 E0.00912
G1 X116.844 Y70.853 E0.00853
G1 X116.148 Y71.030 E0.02251
G1 X115.700 Y71.183 E0.01486
G1 X115.495 Y71.296 E0.00734
G1 X115.284 Y71.454 E0.00825
G1 X115.030 Y71.721 E0.01158
G1 X114.952 Y71.842 E0.00449
G1 X114.590 Y72.541 E0.02468
G1 X114.438 Y72.771 E0.00866
G1 X114.243 Y73.015 E0.00979
G1 X113.990 Y73.278 E0.01144
G1 X113.681 Y73.527 E0.01246
G1 X113.320 Y73.761 E0.01348
G1 X112.924 Y73.945 E0.01370
G1 X112.706 Y74.009 E0.00712
G1 X112.479 Y74.042 E0.00717
G1 X112.237 Y74.027 E0.00761
G1 X111.984 Y73.938 E0.00839
G1 X111.804 Y73.783 E0.00747
G1 X111.688 Y73.611 E0.00650
G1 X111.627 Y73.428 E0.00606
G1 X111.604 Y73.255 E0.00547
G1 X111.621 Y72.657 E0.01876
G1 X111.608 Y72.324 E0.01043
G1 X111.536 Y71.979 E0.01106
G1 X111.420 Y71.693 E0.00969
G1 X111.265 Y71.449 E0.00904
G1 X111.077 Y71.236 E0.00892
G1 X110.858 Y71.047 E0.00907
G1 X110.620 Y70.877 E0.00917
G1 X109.855 Y70.427 E0.02782
G1 X109.228 Y69.984 E0.02408
G1 X108.901 Y69.778 E0.01211
G1 X108.049 Y69.322 E0.03031
G1 X107.569 Y69.118 E0.01634
G1 X107.076 Y68.953 E0.01632
G1 X106.591 Y68.846 E0.01557
G1 X106.137 Y68.813 E0.01427
G1 X105.714 Y68.864 E0.01335
G1 X105.557 Y68.910 E0.00512
G1 X105.153 Y69.069 E0.01360
G1 X104.929 Y69.178 E0.00784
G1 X104.381 Y69.494 E0.01982
G1 X103.686 Y69.953 E0.02612
G1 X102.610 Y70.726 E0.04154
G1 X102.361 Y70.848 E0.00869
G1 X102.099 Y70.948 E0.00879
G1 X101.566 Y71.102 E0.01740
G1 X100.876 Y71.226 E0.02198
G1 X100.507 Y71.234 E0.01155
G1 X100.165 Y71.032 E0.01248
G1 X99.945 Y70.729 E0.01174
G1 X99.808 Y70.384 E0.01163
G1 X99.720 Y70.006 E0.01217
G1 X99.674 Y69.597 E0.01289
G1 X99.662 Y69.169 E0.01342
G1 X99.684 Y68.732 E0.01373
G1 X99.741 Y68.300 E0.01365
G1 X99.831 Y67.883 E0.01337
G1 X99.955 Y67.505 E0.01248
G1 X100.123 Y67.113 E0.01337
M204 S1250
G1 X100.195 Y66.661 F9000.000
G1 E-2.24000 F2400.000
;WIPE_START
G1 F7200.000
G1 X103.003 Y67.103 E-0.91200
;WIPE_END
G1 E-0.04800 F2400.000
G1 Z0.400 F9000.000
G1 X100.552 Y66.080
G1 Z0.200
G1 E3.20000 F1500.000
M204 S800
;TYPE:Perimeter
G1 F1200.000
G1 X100.351 Y65.364 E0.02330
G1 X99.770 Y64.580 E0.03061
G1 X99.609 Y64.274 E0.01083
G1 X99.457 Y63.872 E0.01349
G1 X99.426 Y63.472 E0.01256
G1 X99.469 Y63.034 E0.01380
G1 X99.554 Y62.552 E0.01536
G1 X99.681 Y62.020 E0.01716
G1 X99.846 Y61.459 E0.01832
G1 X100.045 Y60.893 E0.01883
G1 X100.282 Y60.342 E0.01880
G1 X100.560 Y59.828 E0.01831
G1 X100.902 Y59.364 E0.01808
G1 X101.303 Y59.024 E0.01650
G1 X101.691 Y58.814 E0.01384
G1 X102.059 Y58.668 E0.01239
G1 X102.459 Y58.574 E0.01290
G1 X102.891 Y58.536 E0.01358
G1 X103.366 Y58.547 E0.01493
G1 X104.521 Y58.676 E0.03642
G1 X108.182 Y59.236 E0.11612
G1 X110.718 Y59.528 E0.08004
G1 X111.365 Y59.672 E0.02079
G1 X111.717 Y59.798 E0.01173
G1 X112.549 Y60.181 E0.02872
G1 X113.307 Y60.602 E0.02718
G1 X113.901 Y61.013 E0.02265
G1 X114.828 Y61.724 E0.03661
G1 X115.737 Y62.375 E0.03508
G1 X116.537 Y62.881 E0.02966
G1 X117.565 Y63.452 E0.03688
G1 X118.141 Y63.815 E0.02133
G1 X118.423 Y64.057 E0.01166
G1 X118.667 Y64.358 E0.01214
G1 X118.850 Y64.749 E0.01357
G1 X118.919 Y65.321 E0.01806
G1 X118.797 Y66.255 E0.02953
G1 X114.816 Y66.255 E0.12481
G1 X114.373 Y65.715 E0.02191
G1 X114.101 Y65.473 E0.01141
G1 X113.953 Y65.388 E0.00535
G1 X113.795 Y65.328 E0.00529
G1 X113.451 Y65.281 E0.01088
G1 X113.258 Y65.290 E0.00607
G1 X112.760 Y65.380 E0.01588
G1 X110.723 Y65.981 E0.06656
G1 X109.797 Y66.168 E0.02962
G1 X109.239 Y66.255 E0.01772
G1 X105.142 Y66.255 E0.12847
G1 X104.529 Y66.115 E0.01969
G1 X103.534 Y65.835 E0.03243
G1 X102.451 Y65.468 E0.03583
G1 X102.048 Y65.308 E0.01359
G1 X101.656 Y66.170 E0.02969
G1 X100.611 Y66.084 E0.03286
M204 S1250
G1 X100.847 Y65.725 F9000.000
M204 S800
;TYPE:External perimeter
G1 F1200.000
G1 X100.727 Y65.278 E0.01452
G1 X100.677 Y65.170 E0.00375
G1 X100.090 Y64.379 E0.03088
G1 X99.953 Y64.119 E0.00919
G1 X99.829 Y63.789 E0.01107
G1 X99.804 Y63.476 E0.00984
G1 X99.843 Y63.085 E0.01231
G1 X99.923 Y62.629 E0.01454
G1 X100.046 Y62.117 E0.01650
G1 X100.205 Y61.575 E0.01770
G1 X100.397 Y61.030 E0.01812
G1 X100.622 Y60.506 E0.01787
G1 X100.879 Y60.031 E0.01695
G1 X101.179 Y59.623 E0.01587
G1 X101.517 Y59.337 E0.01389
G1 X101.851 Y59.156 E0.01191
G1 X102.172 Y59.029 E0.01082
G1 X102.519 Y58.947 E0.01118
G1 X102.903 Y58.914 E0.01208
G1 X103.341 Y58.924 E0.01375
G1 X104.471 Y59.050 E0.03565
G1 X108.132 Y59.610 E0.11610
G1 X110.655 Y59.900 E0.07964
G1 X111.260 Y60.035 E0.01943
G1 X111.574 Y60.148 E0.01048
G1 X112.379 Y60.518 E0.02776
G1 X113.108 Y60.923 E0.02616
G1 X113.679 Y61.318 E0.02178
G1 X114.603 Y62.027 E0.03652
G1 X115.527 Y62.688 E0.03562
G1 X116.344 Y63.206 E0.03033
G1 X117.373 Y63.777 E0.03689
G1 X117.916 Y64.119 E0.02012
G1 X118.151 Y64.321 E0.00973
G1 X118.345 Y64.560 E0.00963
G1 X118.483 Y64.855 E0.01022
G1 X118.539 Y65.319 E0.01467
G1 X118.466 Y65.878 E0.01767
G1 X114.994 Y65.878 E0.10885
G1 X114.645 Y65.453 E0.01724
G1 X114.322 Y65.165 E0.01357
G1 X114.114 Y65.046 E0.00752
G1 X113.902 Y64.966 E0.00712
G1 X113.684 Y64.919 E0.00697
G1 X113.455 Y64.903 E0.00720
G1 X113.215 Y64.914 E0.00755
G1 X112.672 Y65.013 E0.01729
G1 X110.632 Y65.615 E0.06668
G1 X109.731 Y65.797 E0.02884
G1 X109.210 Y65.878 E0.01654
G1 X105.184 Y65.878 E0.12622
M73 P2 R30
G1 X104.623 Y65.750 E0.01807
G1 X103.645 Y65.475 E0.03183
G1 X102.582 Y65.114 E0.03522
G1 X101.854 Y64.826 E0.02454
G1 X101.422 Y65.773 E0.03262
G1 X100.907 Y65.730 E0.01622
M204 S1250
G1 X100.481 Y65.888 F9000.000
G1 E-2.24000 F2400.000
;WIPE_START
G1 F7200.000
G1 X100.727 Y65.278 E-0.15407
G1 X100.677 Y65.170 E-0.03790
G1 X100.090 Y64.379 E-0.31188
G1 X99.953 Y64.119 E-0.09279
G1 X99.829 Y63.789 E-0.11181
G1 X99.804 Y63.476 E-0.09941
G1 X99.836 Y63.149 E-0.10413
;WIPE_END
G1 E-0.04800 F2400.000
G1 Z0.400 F9000.000
G1 X98.210 Y65.647
G1 Z0.200
G1 E3.20000 F1500.000
M204 S800
;TYPE:Perimeter
G1 F1200.000
G1 X97.865 Y64.958 E0.02418
G1 X97.643 Y64.372 E0.01965
G1 X97.543 Y63.824 E0.01746
G1 X97.528 Y63.134 E0.02164
G1 X97.607 Y62.330 E0.02532
G1 X97.779 Y61.462 E0.02775
G1 X98.041 Y60.573 E0.02907
G1 X98.386 Y59.703 E0.02934
G1 X98.806 Y58.893 E0.02863
G1 X99.290 Y58.181 E0.02698
G1 X99.820 Y57.604 E0.02456
G1 X100.393 Y57.180 E0.02235
G1 X100.857 Y56.963 E0.01608
G1 X101.359 Y56.780 E0.01675
G1 X101.876 Y56.650 E0.01672
G1 X102.125 Y56.608 E0.00790
G1 X102.690 Y56.555 E0.01779
G1 X103.229 Y56.552 E0.01692
G1 X103.753 Y56.584 E0.01647
G1 X104.366 Y56.652 E0.01933
G1 X105.548 Y56.828 E0.03746
G1 X107.947 Y57.225 E0.07623
G1 X111.207 Y57.633 E0.10304
G1 X111.955 Y57.814 E0.02411
G1 X112.528 Y58.025 E0.01916
G1 X113.560 Y58.513 E0.03577
G1 X114.370 Y58.970 E0.02916
G1 X115.034 Y59.424 E0.02525
G1 X116.046 Y60.203 E0.04004
G1 X116.660 Y60.640 E0.02363
G1 X117.355 Y61.081 E0.02580
G1 X118.961 Y62.029 E0.05850
G1 X119.546 Y62.470 E0.02295
G1 X119.818 Y62.730 E0.01180
G1 X120.070 Y63.019 E0.01203
G1 X120.295 Y63.341 E0.01232
G1 X120.490 Y63.705 E0.01295
G1 X120.649 Y64.114 E0.01375
G1 X120.746 Y64.502 E0.01255
G1 X120.799 Y64.905 E0.01273
G1 X120.811 Y65.315 E0.01286
G1 X120.784 Y65.733 E0.01315
G1 X120.719 Y66.158 E0.01348
G1 X120.622 Y66.584 E0.01371
G1 X120.494 Y67.008 E0.01389
G1 X120.160 Y67.838 E0.02805
G1 X119.839 Y68.485 E0.02264
G1 X119.936 Y69.021 E0.01707
G1 X119.985 Y69.581 E0.01763
G1 X119.960 Y70.151 E0.01789
G1 X119.918 Y70.420 E0.00851
G1 X119.760 Y70.969 E0.01793
G1 X119.641 Y71.240 E0.00926
G1 X119.494 Y71.507 E0.00956
G1 X119.284 Y71.817 E0.01174
G1 X119.062 Y72.078 E0.01076
G1 X118.829 Y72.302 E0.01011
G1 X118.591 Y72.490 E0.00951
G1 X118.347 Y72.648 E0.00913
G1 X118.112 Y72.776 E0.00839
G1 X117.633 Y72.974 E0.01624
G1 X116.900 Y73.187 E0.02393
G1 X116.500 Y73.845 E0.02415
G1 X116.078 Y74.410 E0.02209
G1 X115.798 Y74.719 E0.01310
G1 X115.506 Y75.001 E0.01272
G1 X115.086 Y75.348 E0.01708
G1 X114.813 Y75.539 E0.01043
G1 X114.492 Y75.734 E0.01178
G1 X114.136 Y75.918 E0.01258
G1 X113.748 Y76.078 E0.01315
G1 X113.335 Y76.205 E0.01356
G1 X112.898 Y76.287 E0.01392
G1 X112.433 Y76.317 E0.01464
G1 X112.126 Y76.301 E0.00961
G1 X111.631 Y76.212 E0.01578
G1 X111.330 Y76.119 E0.00988
G1 X110.881 Y75.920 E0.01539
G1 X110.491 Y75.658 E0.01473
G1 X110.290 Y75.487 E0.00828
G1 X110.084 Y75.277 E0.00923
G1 X109.889 Y75.034 E0.00978
G1 X109.712 Y74.753 E0.01043
G1 X109.558 Y74.429 E0.01123
G1 X109.434 Y74.057 E0.01230
G1 X109.349 Y73.629 E0.01367
G1 X109.279 Y72.693 E0.02943
G1 X108.656 Y72.304 E0.02303
G1 X108.020 Y71.829 E0.02488
G1 X107.715 Y71.637 E0.01131
G1 X107.069 Y71.302 E0.02282
G1 X106.252 Y70.964 E0.02770
G1 X105.171 Y71.664 E0.04036
G1 X103.850 Y72.578 E0.05039
G1 X103.451 Y72.782 E0.01405
G1 X103.025 Y72.956 E0.01442
G1 X102.590 Y73.099 E0.01436
G1 X102.165 Y73.210 E0.01377
G1 X101.380 Y73.360 E0.02507
G1 X100.837 Y73.418 E0.01712
G1 X100.444 Y73.415 E0.01232
G1 X100.078 Y73.359 E0.01162
G1 X99.657 Y73.225 E0.01384
G1 X99.171 Y72.993 E0.01690
G1 X98.943 Y72.846 E0.00849
G1 X98.727 Y72.682 E0.00850
G1 X98.340 Y72.297 E0.01713
G1 X98.012 Y71.835 E0.01774
G1 X97.875 Y71.579 E0.00911
G1 X97.683 Y71.124 E0.01548
G1 X97.540 Y70.639 E0.01587
G1 X97.442 Y70.119 E0.01659
G1 X97.386 Y69.576 E0.01710
G1 X97.374 Y69.023 E0.01735
