; generated by PrusaSlicer 2.3.3+win64 on 2022-03-14 at 14:32:01 UTC


;
;

;
;
; 

; external perimeters extrusion width = 0.45mm
; perimeters extrusion width = 0.45mm
; infill extrusion width = 0.45mm
; solid infill extrusion width = 0.45mm
; top infill extrusion width = 0.40mm
; first layer extrusion width = 0.42mm

M73 P0 R74
M201 X1250 Y1250 Z400 E5000 ; sets maximum accelerations, mm/sec^2
M203 X180 Y180 Z12 E80 ; sets maximum feedrates, mm/sec
M204 P1250 R1250 T1250 ; sets acceleration (P, T) and retract acceleration (R), mm/sec^2
M205 X8.00 Y8.00 Z2.00 E10.00 ; sets the jerk limits, mm/sec
M205 S0 T0 ; sets the minimum extruding and travel feed rate, mm/sec
M107
;TYPE:Custom
G90 ; use absolute coordinates
M83 ; extruder relative mode
M104 S170 ; set extruder temp for bed leveling
M140 S85 ; set bed temp
M109 R170 ; wait for bed leveling temp
M190 S85 ; wait for bed temp
G28 ; home all without mesh bed level
G29 ; mesh bed leveling 
M104 S230 ; set extruder temp
G92 E0.0
G1 Y-2.0 X179 F2400
G1 Z3 F720
M109 S230 ; wait for extruder temp

; intro line
G1 X170 F1000
G1 Z0.2 F720
G1 X110.0 E8.0 F900
G1 X40.0 E10.0 F700
G92 E0.0

M221 S95 ; set flow
G21 ; set units to millimeters
G90 ; use absolute coordinates
M83 ; use relative distances for extrusion
M900 K0.2 ; Filament gcode
;LAYER_CHANGE
;Z:0.2
;HEIGHT:0.2
;BEFORE_LAYER_CHANGE
G92 E0.0
;0.2


M73 P0 R73
G1 E-3.20000 F2400.000
G1 Z0.200 F9000.000
;AFTER_LAYER_CHANGE
;0.2
G1 Z0.400
G1 X147.801 Y114.342
G1 Z0.200
G1 E3.20000 F1500.000
M204 S800
;TYPE:Skirt
;WIDTH:0.42
G1 F1200.000
G1 X147.290 Y114.992 E0.02590
G1 X124.456 Y135.184 E0.95572
G1 X123.408 Y136.037 E0.04236
G1 X122.228 Y136.691 E0.04230
G1 X120.560 Y137.238 E0.05504
G1 X118.784 Y137.392 E0.05591
G1 X117.142 Y137.180 E0.05190
G1 X115.865 Y136.769 E0.04208
G1 X114.645 Y136.116 E0.04336
G1 X70.520 Y109.548 E1.61494
G1 X68.117 Y107.527 E0.09847
G1 X66.405 Y105.436 E0.08471
G1 X65.086 Y103.032 E0.08599
G1 X64.084 Y99.792 E0.10634
G1 X63.808 Y96.952 E0.08946
G1 X64.097 Y94.019 E0.09240
G1 X71.296 Y62.440 E1.01553
G1 X71.638 Y61.458 E0.03262
G1 X72.431 Y59.950 E0.05341
G1 X73.350 Y58.775 E0.04676
G1 X74.268 Y57.921 E0.03933
G1 X75.799 Y56.925 E0.05727
G1 X76.837 Y56.460 E0.03565
G1 X78.494 Y55.996 E0.05394
G1 X80.090 Y55.842 E0.05030
G1 X131.659 Y56.867 E1.61722
G1 X132.269 Y56.973 E0.01941
G1 X132.834 Y57.236 E0.01953
G1 X133.309 Y57.633 E0.01941
G1 X133.666 Y58.143 E0.01953
G1 X143.445 Y84.351 E0.87707
G1 X148.007 Y101.157 E0.54601
G1 X148.083 Y101.745 E0.01858
G1 X148.058 Y113.561 E0.37049
G1 X147.820 Y114.285 E0.02390
M204 S1250
; printing object Mighty Trug-Juttuli (2).stl_3 id:2 copy 0
G1 E-2.24000 F2400.000
;WIPE_START
G1 F7200.000
G1 X147.290 Y114.992 E-0.27955
G1 X145.794 Y116.315 E-0.63245
;WIPE_END
G1 E-0.04800 F2400.000
G1 Z0.400 F9000.000
G1 X121.592 Y128.312
G1 Z0.200
G1 E3.20000 F1500.000
M204 S800
;TYPE:Perimeter
G1 F1200.000
G1 X121.760 Y128.854 E0.01777
G1 X121.818 Y129.431 E0.01819
G1 X121.760 Y130.007 E0.01815
G1 X121.592 Y130.548 E0.01776
G1 X121.327 Y131.036 E0.01742
G1 X120.977 Y131.460 E0.01723
G1 X120.552 Y131.812 E0.01729
G1 X120.062 Y132.078 E0.01747
G1 X119.522 Y132.245 E0.01775
G1 X118.946 Y132.303 E0.01815
G1 X118.368 Y132.245 E0.01820
G1 X117.828 Y132.078 E0.01772
G1 X117.339 Y131.812 E0.01746
G1 X116.924 Y131.468 E0.01689
G1 X116.582 Y131.054 E0.01684
G1 X116.317 Y130.566 E0.01742
G1 X116.149 Y130.025 E0.01777
G1 X116.092 Y129.448 E0.01819
G1 X116.149 Y128.872 E0.01815
G1 X116.317 Y128.330 E0.01776
G1 X116.582 Y127.843 E0.01740
G1 X116.932 Y127.417 E0.01728
G1 X117.357 Y127.066 E0.01729
G1 X117.850 Y126.799 E0.01757
G1 X118.422 Y126.630 E0.01869
G1 X118.963 Y126.576 E0.01707
G1 X119.541 Y126.633 E0.01820
G1 X120.081 Y126.801 E0.01772
G1 X120.570 Y127.066 E0.01744
G1 X120.982 Y127.406 E0.01677
G1 X121.327 Y127.824 E0.01698
G1 X121.564 Y128.260 E0.01554
M204 S1250
G1 X121.232 Y128.440 F9000.000
M204 S800
;TYPE:External perimeter
G1 F1200.000
G1 X121.388 Y128.929 E0.01610
G1 X121.439 Y129.431 E0.01581
G1 X121.388 Y129.932 E0.01578
G1 X121.243 Y130.401 E0.01540
G1 X121.013 Y130.824 E0.01511
G1 X120.709 Y131.193 E0.01497
G1 X120.340 Y131.498 E0.01501
G1 X119.915 Y131.728 E0.01515
G1 X119.446 Y131.874 E0.01539
G1 X118.946 Y131.924 E0.01578
G1 X118.444 Y131.874 E0.01582
G1 X117.976 Y131.728 E0.01537
G1 X117.551 Y131.498 E0.01515
G1 X117.192 Y131.201 E0.01461
G1 X116.896 Y130.842 E0.01458
G1 X116.666 Y130.419 E0.01511
G1 X116.521 Y129.950 E0.01540
G1 X116.470 Y129.448 E0.01581
G1 X116.521 Y128.947 E0.01578
G1 X116.666 Y128.478 E0.01540
G1 X116.896 Y128.055 E0.01510
G1 X117.200 Y127.685 E0.01501
G1 X117.569 Y127.380 E0.01500
G1 X117.995 Y127.149 E0.01518
G1 X118.494 Y127.002 E0.01634
G1 X118.963 Y126.955 E0.01478
G1 X119.466 Y127.005 E0.01582
G1 X119.934 Y127.150 E0.01537
G1 X120.358 Y127.380 E0.01513
G1 X120.714 Y127.674 E0.01449
G1 X121.013 Y128.036 E0.01471
G1 X121.204 Y128.387 E0.01252
M204 S1250
G1 X121.630 Y128.487 F9000.000
G1 E-2.24000 F2400.000
;WIPE_START
G1 F7200.000
G1 X121.388 Y128.929 E-0.18126
G1 X121.439 Y129.431 E-0.15972
G1 X121.388 Y129.932 E-0.15939
G1 X121.243 Y130.401 E-0.15555
G1 X121.013 Y130.824 E-0.15261
G1 X120.805 Y131.076 E-0.10347
;WIPE_END
G1 E-0.04800 F2400.000
G1 Z0.400 F9000.000
G1 X123.370 Y127.590
G1 Z0.200
G1 E3.20000 F1500.000
M204 S800
;TYPE:Perimeter
G1 F1200.000
G1 X123.649 Y128.486 E0.02943
G1 X123.746 Y129.448 E0.03031
G1 X123.649 Y130.410 E0.03034
G1 X123.370 Y131.306 E0.02940
G1 X122.928 Y132.118 E0.02899
G1 X122.342 Y132.827 E0.02883
G1 X121.634 Y133.413 E0.02883
G1 X120.821 Y133.854 E0.02899
G1 X119.926 Y134.134 E0.02940
G1 X118.964 Y134.231 E0.03034
G1 X118.001 Y134.134 E0.03034
G1 X117.106 Y133.854 E0.02939
G1 X116.294 Y133.413 E0.02897
G1 X115.584 Y132.826 E0.02886
G1 X114.999 Y132.118 E0.02883
G1 X114.557 Y131.306 E0.02898
G1 X114.279 Y130.410 E0.02940
G1 X114.181 Y129.447 E0.03035
G1 X114.279 Y128.474 E0.03067
G1 X114.557 Y127.575 E0.02952
G1 X114.999 Y126.763 E0.02898
G1 X115.583 Y126.057 E0.02874
G1 X116.292 Y125.475 E0.02875
G1 X117.103 Y125.038 E0.02890
G1 X117.999 Y124.761 E0.02939
G1 X118.970 Y124.666 E0.03060
G1 X119.926 Y124.763 E0.03013
G1 X120.821 Y125.041 E0.02939
G1 X121.634 Y125.484 E0.02900
G1 X122.342 Y126.069 E0.02882
G1 X122.928 Y126.779 E0.02886
G1 X123.341 Y127.537 E0.02709
M204 S1250
G1 X123.673 Y127.357 F9000.000
M204 S800
;TYPE:External perimeter
G1 F1200.000
G1 X123.719 Y127.442 E0.00305
G1 X124.021 Y128.410 E0.03179
G1 X124.125 Y129.448 E0.03270
G1 X124.021 Y130.486 E0.03273
G1 X123.719 Y131.453 E0.03176
G1 X123.242 Y132.330 E0.03129
G1 X122.610 Y133.095 E0.03110
G1 X121.846 Y133.726 E0.03110
G1 X120.969 Y134.203 E0.03129
G1 X120.002 Y134.505 E0.03176
G1 X118.964 Y134.610 E0.03273
G1 X117.925 Y134.505 E0.03273
G1 X116.958 Y134.203 E0.03176
G1 X116.082 Y133.726 E0.03127
G1 X115.317 Y133.094 E0.03113
G1 X114.685 Y132.330 E0.03110
G1 X114.208 Y131.453 E0.03129
G1 X113.907 Y130.486 E0.03175
G1 X113.802 Y129.448 E0.03274
G1 X113.907 Y128.399 E0.03305
G1 X114.208 Y127.428 E0.03187
G1 X114.685 Y126.551 E0.03130
G1 X115.316 Y125.789 E0.03103
G1 X116.081 Y125.161 E0.03103
G1 X116.957 Y124.689 E0.03120
G1 X117.924 Y124.390 E0.03174
G1 X118.971 Y124.287 E0.03298
G1 X120.002 Y124.391 E0.03250
G1 X120.969 Y124.692 E0.03175
G1 X121.846 Y125.170 E0.03131
G1 X122.610 Y125.801 E0.03108
G1 X123.242 Y126.566 E0.03112
G1 X123.644 Y127.304 E0.02634
M204 S1250
G1 X123.625 Y127.441 F9000.000
G1 E-2.24000 F2400.000
;WIPE_START
G1 F7200.000
G1 X123.719 Y127.442 E-0.04976
G1 X124.021 Y128.410 E-0.32103
G1 X124.125 Y129.448 E-0.33024
G1 X124.059 Y130.111 E-0.21096
;WIPE_END
G1 E-0.04800 F2400.000
G1 Z0.400 F9000.000
G1 X121.288 Y125.424
G1 Z0.200
G1 E3.20000 F1500.000
M204 S800
;TYPE:Solid infill
;WIDTH:0.433239
G1 F1200.000
G1 X122.181 Y126.317 E0.04098
G1 X122.693 Y126.938 E0.02613
G1 X123.108 Y127.701 E0.02820
G1 X123.152 Y127.840 E0.00475
G1 X120.571 Y125.259 E0.11846
G1 X119.869 Y125.041 E0.02385
G1 X119.793 Y125.033 E0.00249
G1 X123.379 Y128.619 E0.16457
G1 X123.441 Y129.233 E0.02003
G1 X119.179 Y124.971 E0.19561
G1 X118.970 Y124.950 E0.00681
G1 X118.638 Y124.982 E0.01082
G1 X120.199 Y126.543 E0.07165
G1 X120.728 Y126.831 E0.01954
G1 X121.183 Y127.205 E0.01912
G1 X121.562 Y127.665 E0.01934
G1 X121.850 Y128.194 E0.01955
G1 X123.429 Y129.774 E0.07249
G1 X123.379 Y130.275 E0.01636
G1 X122.054 Y128.950 E0.06082
G1 X122.102 Y129.431 E0.01568
G1 X122.091 Y129.539 E0.00353
G1 X123.260 Y130.709 E0.05367
G1 X123.129 Y131.129 E0.01430
G1 X122.041 Y130.041 E0.04995
G1 X121.914 Y130.466 E0.01440
G1 X122.944 Y131.497 E0.04730
G1 X122.750 Y131.854 E0.01321
G1 X121.749 Y130.853 E0.04596
G1 X121.552 Y131.208 E0.01318
G1 X122.516 Y132.173 E0.04427
G1 X122.266 Y132.475 E0.01272
G1 X121.302 Y131.511 E0.04426
G1 X121.178 Y131.661 E0.00633
G1 X121.026 Y131.787 E0.00640
G1 X121.990 Y132.751 E0.04425
G1 X121.688 Y133.001 E0.01272
G1 X120.724 Y132.037 E0.04424
G1 X120.369 Y132.233 E0.01318
G1 X121.370 Y133.234 E0.04594
G1 X121.012 Y133.429 E0.01321
G1 X119.982 Y132.398 E0.04728
G1 X119.557 Y132.526 E0.01439
G1 X120.645 Y133.613 E0.04992
G1 X120.224 Y133.744 E0.01430
G1 X119.056 Y132.576 E0.05363
G1 X118.946 Y132.587 E0.00359
G1 X118.467 Y132.539 E0.01562
G1 X119.939 Y134.011 E0.06757
M204 S1250
G1 E-2.24000 F2400.000
;WIPE_START
G1 F7200.000
G1 X118.467 Y132.539 E-0.65926
G1 X118.946 Y132.587 E-0.15239
G1 X119.056 Y132.576 E-0.03501
G1 X119.202 Y132.722 E-0.06534
;WIPE_END
G1 E-0.04800 F2400.000
G1 Z0.400 F9000.000
G1 X119.654 Y126.550
G1 Z0.200
G1 E3.20000 F1500.000
M204 S800
G1 F1200.000
G1 X118.136 Y125.032 E0.06968
G1 X118.055 Y125.040 E0.00262
G1 X117.701 Y125.149 E0.01203
G1 X118.854 Y126.302 E0.05293
G1 X118.355 Y126.355 E0.01630
G1 X117.279 Y125.280 E0.04935
G1 X116.911 Y125.463 E0.01336
G1 X117.929 Y126.481 E0.04671
G1 X117.741 Y126.536 E0.00634
G1 X117.541 Y126.645 E0.00740
G1 X116.552 Y125.656 E0.04537
G1 X116.450 Y125.711 E0.00375
G1 X116.233 Y125.890 E0.00911
G1 X117.185 Y126.842 E0.04370
G1 X116.883 Y127.091 E0.01273
G1 X115.930 Y126.138 E0.04373
G1 X115.784 Y126.258 E0.00614
G1 X115.654 Y126.415 E0.00658
G1 X116.607 Y127.367 E0.04372
G1 X116.358 Y127.670 E0.01273
G1 X115.404 Y126.716 E0.04377
G1 X115.234 Y126.922 E0.00867
G1 X115.172 Y127.036 E0.00421
G1 X116.161 Y128.025 E0.04539
G1 X116.055 Y128.220 E0.00720
G1 X115.996 Y128.412 E0.00652
G1 X114.978 Y127.394 E0.04672
G1 X114.819 Y127.685 E0.01077
G1 X114.795 Y127.763 E0.00265
G1 X115.869 Y128.837 E0.04927
G1 X115.818 Y129.338 E0.01636
G1 X114.664 Y128.185 E0.05296
G1 X114.557 Y128.531 E0.01176
G1 X114.548 Y128.620 E0.00292
G1 X116.066 Y130.138 E0.06966
M204 S1250
G1 E-2.24000 F2400.000
;WIPE_START
G1 F7200.000
G1 X114.548 Y128.620 E-0.67967
G1 X114.557 Y128.531 E-0.02853
G1 X114.664 Y128.185 E-0.11474
G1 X114.863 Y128.384 E-0.08906
;WIPE_END
G1 E-0.04800 F2400.000
G1 Z0.400 F9000.000
G1 X114.343 Y128.967
G1 Z0.200
G1 E3.20000 F1500.000
M204 S800
G1 F1200.000
G1 X116.058 Y130.682 E0.07873
G1 X116.347 Y131.213 E0.01962
G1 X116.723 Y131.669 E0.01918
G1 X117.180 Y132.047 E0.01925
G1 X117.712 Y132.336 E0.01965
G1 X119.289 Y133.914 E0.07241
G1 X118.964 Y133.946 E0.01063
G1 X118.749 Y133.925 E0.00701
G1 X114.487 Y129.663 E0.19561
G1 X114.549 Y130.278 E0.02005
G1 X118.135 Y133.863 E0.16456
G1 X118.058 Y133.855 E0.00251
G1 X117.356 Y133.636 E0.02386
G1 X114.775 Y131.056 E0.11845
G1 X114.819 Y131.195 E0.00475
G1 X115.234 Y131.959 E0.02821
G1 X115.747 Y132.579 E0.02611
G1 X116.640 Y133.472 E0.04099
M204 S1250
; stop printing object Mighty Trug-Juttuli (2).stl_3 id:2 copy 0
; printing object Mighty Trug-Juttuli (2).stl_6 id:5 copy 0
G1 E-2.24000 F2400.000
;WIPE_START
G1 F7200.000
G1 X115.747 Y132.579 E-0.39992
G1 X115.234 Y131.959 E-0.25475
G1 X114.846 Y131.245 E-0.25733
;WIPE_END
G1 E-0.04800 F2400.000
G1 Z0.400 F9000.000
G1 X86.147 Y104.088
M73 P1 R73
G1 Z0.200
G1 E3.20000 F1500.000
M204 S800
;TYPE:Perimeter
;WIDTH:0.42
G1 F1200.000
G1 X84.659 Y105.316 E0.06049
G1 X82.942 Y106.248 E0.06125
G1 X81.044 Y106.838 E0.06231
G1 X79.009 Y107.043 E0.06415
G1 X76.974 Y106.838 E0.06412
G1 X75.076 Y106.248 E0.06231
G1 X73.359 Y105.316 E0.06125
G1 X71.865 Y104.083 E0.06076
G1 X70.630 Y102.588 E0.06079
G1 X69.699 Y100.870 E0.06127
G1 X69.109 Y98.972 E0.06230
G1 X68.904 Y96.938 E0.06412
G1 X69.109 Y94.903 E0.06412
G1 X69.699 Y93.005 E0.06230
G1 X70.630 Y91.289 E0.06124
G1 X71.856 Y89.802 E0.06041
G1 X73.342 Y88.577 E0.06038
G1 X75.059 Y87.645 E0.06125
G1 X76.957 Y87.056 E0.06231
G1 X78.992 Y86.851 E0.06412
G1 X81.026 Y87.056 E0.06412
G1 X82.925 Y87.645 E0.06234
G1 X84.642 Y88.577 E0.06126
G1 X86.137 Y89.811 E0.06076
G1 X87.370 Y91.305 E0.06076
G1 X88.302 Y93.022 E0.06126
G1 X88.892 Y94.921 E0.06234
G1 X89.097 Y96.956 E0.06412
G1 X88.892 Y98.990 E0.06412
G1 X88.302 Y100.888 E0.06231
G1 X87.370 Y102.605 E0.06125
G1 X86.185 Y104.042 E0.05840
M204 S1250
G1 X85.894 Y103.802 F9000.000
M204 S800
;TYPE:External perimeter
G1 F1200.000
G1 X84.447 Y105.002 E0.05895
G1 X82.795 Y105.899 E0.05895
G1 X80.969 Y106.467 E0.05995
G1 X79.009 Y106.664 E0.06177
G1 X77.049 Y106.467 E0.06174
G1 X75.223 Y105.899 E0.05995
G1 X73.571 Y105.002 E0.05895
G1 X72.132 Y103.815 E0.05848
G1 X70.944 Y102.376 E0.05851
G1 X70.048 Y100.723 E0.05896
G1 X69.481 Y98.897 E0.05995
G1 X69.283 Y96.938 E0.06174
G1 X69.481 Y94.979 E0.06174
G1 X70.048 Y93.153 E0.05995
G1 X70.944 Y91.500 E0.05893
G1 X72.124 Y90.070 E0.05814
G1 X73.554 Y88.891 E0.05811
G1 X75.206 Y87.994 E0.05895
G1 X77.032 Y87.427 E0.05995
G1 X78.992 Y87.230 E0.06174
G1 X80.951 Y87.427 E0.06174
G1 X82.778 Y87.994 E0.05998
G1 X84.430 Y88.891 E0.05895
G1 X85.869 Y90.078 E0.05849
G1 X87.056 Y91.517 E0.05849
G1 X87.953 Y93.170 E0.05895
G1 X88.520 Y94.997 E0.05998
G1 X88.718 Y96.956 E0.06174
G1 X88.520 Y98.915 E0.06174
G1 X87.953 Y100.741 E0.05995
G1 X87.056 Y102.393 E0.05895
G1 X85.932 Y103.756 E0.05538
M204 S1250
G1 X85.999 Y104.188 F9000.000
G1 E-2.24000 F2400.000
;WIPE_START
G1 F7200.000
G1 X84.447 Y105.002 E-0.61403
G1 X83.620 Y105.451 E-0.29797
;WIPE_END
G1 E-0.04800 F2400.000
G1 Z0.400 F9000.000
G1 X87.482 Y105.446
G1 Z0.200
G1 E3.20000 F1500.000
M204 S800
;TYPE:Perimeter
G1 F1200.000
G1 X85.702 Y106.916 E0.07239
G1 X83.662 Y108.025 E0.07282
G1 X81.409 Y108.726 E0.07395
G1 X78.992 Y108.971 E0.07620
G1 X76.574 Y108.726 E0.07620
G1 X74.322 Y108.025 E0.07392
G1 X72.282 Y106.916 E0.07282
G1 X70.502 Y105.446 E0.07240
G1 X69.032 Y103.666 E0.07236
G1 X67.923 Y101.626 E0.07281
G1 X67.222 Y99.373 E0.07397
G1 X66.977 Y96.956 E0.07619
G1 X67.222 Y94.538 E0.07619
G1 X67.923 Y92.286 E0.07397
G1 X69.032 Y90.245 E0.07281
G1 X70.502 Y88.466 E0.07236
G1 X72.282 Y86.996 E0.07240
G1 X74.323 Y85.886 E0.07283
G1 X76.573 Y85.185 E0.07390
G1 X79.035 Y84.944 E0.07756
G1 X81.409 Y85.185 E0.07483
G1 X83.662 Y85.886 E0.07396
G1 X85.702 Y86.996 E0.07282
G1 X87.482 Y88.466 E0.07239
G1 X88.951 Y90.245 E0.07235
G1 X90.061 Y92.286 E0.07283
G1 X90.762 Y94.538 E0.07396
G1 X91.007 Y96.956 E0.07619
G1 X90.762 Y99.373 E0.07619
G1 X90.061 Y101.626 E0.07396
G1 X88.951 Y103.666 E0.07283
G1 X87.521 Y105.399 E0.07047
M204 S1250
G1 X87.811 Y105.639 F9000.000
M204 S800
;TYPE:External perimeter
G1 F1200.000
G1 X87.750 Y105.713 E0.00301
G1 X85.914 Y107.229 E0.07466
G1 X83.809 Y108.374 E0.07512
G1 X81.485 Y109.097 E0.07631
G1 X78.992 Y109.350 E0.07859
G1 X76.498 Y109.097 E0.07859
G1 X74.175 Y108.374 E0.07628
G1 X72.070 Y107.229 E0.07513
G1 X70.234 Y105.713 E0.07466
G1 X68.718 Y103.878 E0.07463
G1 X67.574 Y101.773 E0.07511
G1 X66.850 Y99.449 E0.07632
G1 X66.598 Y96.956 E0.07858
G1 X66.850 Y94.462 E0.07858
G1 X67.574 Y92.138 E0.07632
G1 X68.718 Y90.033 E0.07511
G1 X70.234 Y88.198 E0.07463
G1 X72.070 Y86.682 E0.07466
G1 X74.175 Y85.537 E0.07513
G1 X76.498 Y84.814 E0.07628
G1 X79.035 Y84.565 E0.07995
G1 X81.485 Y84.813 E0.07720
G1 X83.809 Y85.537 E0.07632
G1 X85.914 Y86.682 E0.07513
G1 X87.750 Y88.198 E0.07466
G1 X89.265 Y90.033 E0.07462
G1 X90.410 Y92.138 E0.07513
G1 X91.134 Y94.462 E0.07632
G1 X91.386 Y96.956 E0.07858
G1 X91.134 Y99.449 E0.07858
G1 X90.410 Y101.773 E0.07632
G1 X89.265 Y103.878 E0.07513
