; generated by PrusaSlicer 2.3.3+win64 on 2022-03-15 at 13:10:18 UTC


;
;

;
;
; 

; external perimeters extrusion width = 0.45mm
; perimeters extrusion width = 0.45mm
; infill extrusion width = 0.45mm
; solid infill extrusion width = 0.45mm
; top infill extrusion width = 0.40mm
; first layer extrusion width = 0.42mm

M73 P0 R79
M201 X1250 Y1250 Z400 E5000 ; sets maximum accelerations, mm/sec^2
M203 X180 Y180 Z12 E80 ; sets maximum feedrates, mm/sec
M204 P1250 R1250 T1250 ; sets acceleration (P, T) and retract acceleration (R), mm/sec^2
M205 X8.00 Y8.00 Z2.00 E10.00 ; sets the jerk limits, mm/sec
M205 S0 T0 ; sets the minimum extruding and travel feed rate, mm/sec
M107
;TYPE:Custom
G90 ; use absolute coordinates
M83 ; extruder relative mode
M104 S170 ; set extruder temp for bed leveling
M140 S85 ; set bed temp
M109 R170 ; wait for bed leveling temp
M190 S85 ; wait for bed temp
G28 ; home all without mesh bed level
G29 ; mesh bed leveling 
M104 S230 ; set extruder temp
G92 E0.0
G1 Y-2.0 X179 F2400
G1 Z3 F720
M109 S230 ; wait for extruder temp

; intro line
G1 X170 F1000
G1 Z0.2 F720
G1 X110.0 E8.0 F900
G1 X40.0 E10.0 F700
G92 E0.0

M221 S95 ; set flow
G21 ; set units to millimeters
G90 ; use absolute coordinates
M83 ; use relative distances for extrusion
M900 K0.2 ; Filament gcode
;LAYER_CHANGE
;Z:0.2
;HEIGHT:0.2
;BEFORE_LAYER_CHANGE
G92 E0.0
;0.2


M73 P0 R78
G1 E-3.20000 F2400.000
G1 Z0.200 F9000.000
;AFTER_LAYER_CHANGE
;0.2
G1 Z0.400
G1 X46.156 Y55.913
G1 Z0.200
G1 E3.20000 F1500.000
M204 S800
;TYPE:Skirt
;WIDTH:0.42
G1 F1200.000
G1 X47.239 Y55.059 E0.04324
G1 X48.145 Y54.576 E0.03220
G1 X49.119 Y54.260 E0.03210
G1 X50.383 Y54.083 E0.04003
G1 X73.170 Y54.071 E0.71446
G1 X74.347 Y54.184 E0.03709
G1 X143.136 Y65.500 E2.18582
G1 X144.385 Y65.803 E0.04030
G1 X145.674 Y66.277 E0.04307
G1 X146.706 Y66.783 E0.03602
G1 X147.684 Y67.390 E0.03609
G1 X148.743 Y68.206 E0.04190
G1 X149.712 Y69.138 E0.04218
G1 X150.494 Y70.066 E0.03805
G1 X151.384 Y71.392 E0.05007
G1 X151.969 Y72.502 E0.03935
G1 X152.475 Y73.754 E0.04231
G1 X152.847 Y75.040 E0.04201
G1 X153.075 Y76.290 E0.03982
G1 X154.855 Y106.177 E0.93875
G1 X154.767 Y107.825 E0.05175
G1 X154.294 Y109.507 E0.05477
G1 X151.258 Y116.165 E0.22944
G1 X150.821 Y116.976 E0.02889
G1 X150.262 Y117.730 E0.02944
G1 X149.522 Y118.470 E0.03280
G1 X148.716 Y119.063 E0.03138
G1 X147.833 Y119.535 E0.03138
G1 X146.817 Y119.894 E0.03378
G1 X116.894 Y125.818 E0.95642
G1 X115.596 Y125.927 E0.04087
G1 X31.482 Y123.845 E2.63815
G1 X30.299 Y123.719 E0.03729
G1 X29.242 Y123.401 E0.03461
G1 X27.797 Y122.605 E0.05170
G1 X26.998 Y121.925 E0.03291
G1 X26.218 Y120.967 E0.03873
G1 X25.644 Y119.906 E0.03783
G1 X25.271 Y118.716 E0.03911
G1 X25.137 Y117.460 E0.03959
G1 X25.137 Y112.148 E0.16656
G1 X25.300 Y110.731 E0.04471
G1 X44.723 Y58.061 E1.76013
G1 X45.337 Y56.902 E0.04114
G1 X46.118 Y55.960 E0.03837
M204 S1250
; printing object Super Maimu-Uusam.stl id:0 copy 0
G1 E-2.24000 F2400.000
;WIPE_START
G1 F7200.000
G1 X47.239 Y55.059 E-0.45534
G1 X48.145 Y54.576 E-0.32518
G1 X48.540 Y54.448 E-0.13148
;WIPE_END
G1 E-0.04800 F2400.000
G1 Z0.400 F9000.000
G1 X104.012 Y95.546
G1 Z0.200
G1 E3.20000 F1500.000
M204 S800
;TYPE:Perimeter
G1 F1200.000
G1 X104.896 Y94.893 E0.03446
G1 X105.959 Y94.506 E0.03547
G1 X107.136 Y94.331 E0.03731
G1 X109.345 Y94.233 E0.06935
G1 X111.403 Y94.216 E0.06453
G1 X113.518 Y94.256 E0.06633
G1 X119.598 Y94.452 E0.19072
G1 X121.662 Y94.461 E0.06473
G1 X123.828 Y94.399 E0.06792
G1 X124.916 Y94.455 E0.03417
G1 X125.923 Y94.757 E0.03295
G1 X126.761 Y95.298 E0.03130
G1 X127.381 Y96.054 E0.03064
G1 X127.751 Y96.965 E0.03084
G1 X127.870 Y97.977 E0.03194
G1 X127.751 Y99.053 E0.03395
G1 X127.411 Y100.146 E0.03590
G1 X126.431 Y102.516 E0.08039
G1 X125.435 Y104.777 E0.07747
G1 X124.417 Y106.990 E0.07638
G1 X120.078 Y116.113 E0.31677
G1 X118.896 Y118.708 E0.08939
G1 X118.398 Y119.480 E0.02880
G1 X117.658 Y120.112 E0.03049
G1 X116.789 Y120.534 E0.03032
G1 X115.836 Y120.734 E0.03051
G1 X114.857 Y120.691 E0.03073
G1 X113.886 Y120.368 E0.03207
G1 X113.015 Y119.741 E0.03366
G1 X112.359 Y118.849 E0.03471
G1 X111.101 Y116.362 E0.08739
G1 X109.086 Y112.195 E0.14514
G1 X106.451 Y106.521 E0.19614
G1 X104.377 Y102.180 E0.15086
G1 X103.647 Y100.476 E0.05811
G1 X103.236 Y98.968 E0.04903
G1 X103.147 Y97.641 E0.04170
G1 X103.403 Y96.482 E0.03720
G1 X103.979 Y95.596 E0.03312
M204 S1250
G1 X104.291 Y95.809 F9000.000
M204 S800
;TYPE:External perimeter
G1 F1200.000
G1 X105.076 Y95.229 E0.03062
G1 X106.052 Y94.873 E0.03256
G1 X107.172 Y94.707 E0.03550
G1 X109.355 Y94.610 E0.06853
G1 X111.401 Y94.593 E0.06416
G1 X113.509 Y94.633 E0.06609
G1 X119.591 Y94.830 E0.19080
G1 X121.667 Y94.838 E0.06509
G1 X123.823 Y94.776 E0.06764
G1 X124.851 Y94.830 E0.03228
G1 X125.763 Y95.102 E0.02985
G1 X126.507 Y95.583 E0.02777
G1 X127.053 Y96.249 E0.02700
G1 X127.383 Y97.060 E0.02745
G1 X127.491 Y97.978 E0.02900
G1 X127.380 Y98.976 E0.03147
G1 X127.056 Y100.018 E0.03423
G1 X126.084 Y102.368 E0.07972
G1 X125.091 Y104.622 E0.07724
G1 X124.075 Y106.830 E0.07621
G1 X119.736 Y115.954 E0.31679
G1 X118.564 Y118.527 E0.08863
G1 X118.111 Y119.229 E0.02621
G1 X117.450 Y119.793 E0.02724
G1 X116.666 Y120.174 E0.02735
G1 X115.805 Y120.355 E0.02756
G1 X114.926 Y120.317 E0.02760
G1 X114.060 Y120.029 E0.02861
G1 X113.284 Y119.469 E0.03000
G1 X112.682 Y118.651 E0.03186
G1 X111.439 Y116.194 E0.08632
G1 X109.427 Y112.034 E0.14488
G1 X106.792 Y106.361 E0.19614
G1 X104.721 Y102.024 E0.15069
G1 X104.004 Y100.352 E0.05705
G1 X103.610 Y98.905 E0.04703
G1 X103.527 Y97.669 E0.03882
G1 X103.757 Y96.630 E0.03336
G1 X104.258 Y95.859 E0.02884
M204 S1250
G1 X104.175 Y95.426 F9000.000
G1 E-2.24000 F2400.000
;WIPE_START
G1 F7200.000
G1 X105.076 Y95.229 E-0.32708
G1 X106.052 Y94.873 E-0.32885
G1 X106.852 Y94.754 E-0.25608
;WIPE_END
G1 E-0.04800 F2400.000
G1 Z0.400 F9000.000
G1 X101.428 Y96.227
G1 Z0.200
G1 E3.20000 F1500.000
M204 S800
;TYPE:Perimeter
G1 F1200.000
G1 X101.909 Y95.102 E0.03834
G1 X102.178 Y94.695 E0.01532
G1 X102.542 Y94.251 E0.01799
G1 X102.992 Y93.817 E0.01960
G1 X103.537 Y93.409 E0.02136
G1 X104.196 Y93.044 E0.02360
G1 X104.984 Y92.735 E0.02654
G1 X105.917 Y92.505 E0.03015
G1 X107.030 Y92.372 E0.03514
G1 X109.394 Y92.282 E0.07416
G1 X111.579 Y92.272 E0.06853
G1 X113.537 Y92.312 E0.06140
G1 X117.926 Y92.485 E0.13771
G1 X119.829 Y92.539 E0.05970
G1 X122.124 Y92.547 E0.07196
G1 X123.107 Y92.520 E0.03082
G1 X123.713 Y92.480 E0.01905
G1 X124.053 Y92.480 E0.01065
G1 X124.845 Y92.522 E0.02488
G1 X125.580 Y92.644 E0.02336
G1 X126.271 Y92.841 E0.02253
G1 X126.914 Y93.110 E0.02184
G1 X127.504 Y93.448 E0.02133
G1 X128.038 Y93.853 E0.02103
G1 X128.513 Y94.320 E0.02088
G1 X128.924 Y94.851 E0.02104
G1 X129.293 Y95.486 E0.02304
G1 X129.569 Y96.164 E0.02294
G1 X129.754 Y96.883 E0.02328
G1 X129.845 Y97.640 E0.02390
G1 X129.841 Y98.431 E0.02481
G1 X129.739 Y99.252 E0.02593
G1 X129.539 Y100.096 E0.02720
G1 X129.230 Y100.974 E0.02918
G1 X128.059 Y103.792 E0.09570
G1 X126.847 Y106.500 E0.09303
G1 X125.599 Y109.164 E0.09222
G1 X122.555 Y115.539 E0.22150
G1 X120.724 Y119.493 E0.13663
G1 X120.332 Y120.214 E0.02575
G1 X119.854 Y120.838 E0.02464
G1 X119.282 Y121.391 E0.02493
G1 X118.630 Y121.863 E0.02526
G1 X117.910 Y122.245 E0.02554
G1 X117.140 Y122.528 E0.02572
G1 X116.333 Y122.702 E0.02589
G1 X115.500 Y122.762 E0.02619
G1 X114.724 Y122.709 E0.02439
G1 X113.981 Y122.554 E0.02379
G1 X113.278 Y122.302 E0.02342
G1 X112.621 Y121.958 E0.02326
G1 X112.018 Y121.525 E0.02327
G1 X111.473 Y121.008 E0.02355
G1 X110.997 Y120.412 E0.02394
G1 X110.581 Y119.713 E0.02550
G1 X109.839 Y118.263 E0.05108
G1 X108.525 Y115.616 E0.09264
M73 P1 R78
G1 X107.395 Y113.245 E0.08236
G1 X103.969 Y105.849 E0.25557
G1 X102.346 Y102.461 E0.11780
G1 X102.006 Y101.665 E0.02714
G1 X101.666 Y100.712 E0.03171
G1 X101.385 Y99.650 E0.03445
G1 X101.219 Y98.519 E0.03583
G1 X101.217 Y97.366 E0.03616
G1 X101.417 Y96.286 E0.03445
M204 S1250
G1 X101.046 Y96.217 F9000.000
M204 S800
;TYPE:External perimeter
G1 F1200.000
G1 X101.065 Y96.117 E0.00319
G1 X101.575 Y94.923 E0.04072
G1 X101.874 Y94.470 E0.01700
G1 X102.265 Y93.995 E0.01928
G1 X102.747 Y93.529 E0.02103
G1 X103.332 Y93.092 E0.02291
G1 X104.035 Y92.702 E0.02519
G1 X104.869 Y92.375 E0.02810
G1 X105.850 Y92.134 E0.03165
G1 X106.999 Y91.996 E0.03628
G1 X109.387 Y91.905 E0.07493
G1 X111.582 Y91.895 E0.06884
G1 X113.549 Y91.935 E0.06166
G1 X117.939 Y92.108 E0.13775
G1 X119.835 Y92.161 E0.05949
G1 X122.120 Y92.169 E0.07164
G1 X123.089 Y92.143 E0.03041
G1 X123.701 Y92.102 E0.01921
G1 X124.063 Y92.102 E0.01136
G1 X124.886 Y92.147 E0.02585
G1 X125.663 Y92.275 E0.02468
G1 X126.396 Y92.484 E0.02390
G1 X127.081 Y92.771 E0.02328
G1 X127.712 Y93.133 E0.02282
G1 X128.285 Y93.567 E0.02255
G1 X128.796 Y94.069 E0.02245
G1 X129.237 Y94.640 E0.02262
G1 X129.632 Y95.320 E0.02465
G1 X129.928 Y96.045 E0.02457
G1 X130.125 Y96.813 E0.02486
G1 X130.222 Y97.618 E0.02542
G1 X130.218 Y98.455 E0.02625
G1 X130.111 Y99.319 E0.02728
G1 X129.901 Y100.202 E0.02846
G1 X129.583 Y101.109 E0.03013
G1 X128.406 Y103.942 E0.09620
G1 X127.189 Y106.657 E0.09329
G1 X125.939 Y109.325 E0.09236
G1 X122.896 Y115.699 E0.22147
G1 X121.061 Y119.663 E0.13694
G1 X120.649 Y120.421 E0.02705
G1 X120.136 Y121.090 E0.02644
G1 X119.525 Y121.680 E0.02665
G1 X118.830 Y122.184 E0.02692
G1 X118.064 Y122.590 E0.02717
G1 X117.245 Y122.891 E0.02735
G1 X116.387 Y123.077 E0.02755
G1 X115.500 Y123.140 E0.02786
G1 X114.672 Y123.083 E0.02603
G1 X113.879 Y122.918 E0.02542
G1 X113.126 Y122.648 E0.02506
G1 X112.423 Y122.280 E0.02490
G1 X111.777 Y121.817 E0.02491
G1 X111.195 Y121.264 E0.02518
G1 X110.686 Y120.627 E0.02556
G1 X110.251 Y119.895 E0.02669
G1 X109.502 Y118.433 E0.05152
G1 X108.186 Y115.781 E0.09281
G1 X107.054 Y113.405 E0.08252
G1 X103.628 Y106.010 E0.25556
G1 X102.002 Y102.616 E0.11798
G1 X101.655 Y101.802 E0.02775
G1 X101.306 Y100.824 E0.03256
G1 X101.015 Y99.726 E0.03561
G1 X100.842 Y98.547 E0.03736
G1 X100.840 Y97.332 E0.03811
G1 X101.035 Y96.276 E0.03367
M204 S1250
G1 X101.141 Y96.180 F9000.000
G1 E-2.24000 F2400.000
;WIPE_START
G1 F7200.000
G1 X101.065 Y96.117 E-0.05125
G1 X101.575 Y94.923 E-0.41127
G1 X101.874 Y94.470 E-0.17169
G1 X102.265 Y93.995 E-0.19477
G1 X102.453 Y93.813 E-0.08302
;WIPE_END
G1 E-0.04800 F2400.000
G1 Z0.400 F9000.000
G1 X129.002 Y95.211
G1 Z0.200
G1 E3.20000 F1500.000
M204 S800
;TYPE:Solid infill
;WIDTH:0.42232
G1 F1200.000
G1 X127.853 Y94.068 E0.05113
G1 X127.347 Y93.684 E0.02001
G1 X126.788 Y93.364 E0.02033
G1 X126.496 Y93.241 E0.01001
G1 X129.157 Y95.902 E0.11873
G1 X129.300 Y96.253 E0.01194
G1 X129.414 Y96.696 E0.01441
G1 X125.686 Y92.968 E0.16631
G1 X125.518 Y92.920 E0.00549
G1 X125.019 Y92.837 E0.01597
G1 X129.524 Y97.343 E0.20100
G1 X129.562 Y97.656 E0.00996
G1 X129.561 Y97.916 E0.00819
G1 X124.428 Y92.783 E0.22900
G1 X123.877 Y92.769 E0.01738
G1 X125.419 Y94.311 E0.06879
G1 X124.965 Y94.175 E0.01496
G1 X124.735 Y94.163 E0.00726
G1 X123.358 Y92.787 E0.06140
G1 X122.840 Y92.805 E0.01637
G1 X124.169 Y94.134 E0.05929
G1 X123.621 Y94.122 E0.01729
G1 X122.321 Y92.823 E0.05797
G1 X121.790 Y92.828 E0.01675
G1 X123.099 Y94.137 E0.05840
G1 X122.578 Y94.152 E0.01646
G1 X121.252 Y92.826 E0.05915
G1 X120.713 Y92.824 E0.01699
G1 X122.056 Y94.167 E0.05990
G1 X121.530 Y94.178 E0.01659
G1 X120.175 Y92.823 E0.06047
G1 X119.632 Y92.816 E0.01714
G1 X120.992 Y94.176 E0.06067
G1 X120.453 Y94.173 E0.01700
G1 X119.080 Y92.800 E0.06125
G1 X118.528 Y92.785 E0.01742
G1 X119.914 Y94.171 E0.06184
G1 X119.368 Y94.162 E0.01721
G1 X117.976 Y92.769 E0.06213
G1 X117.418 Y92.748 E0.01761
G1 X118.814 Y94.144 E0.06228
G1 X118.259 Y94.126 E0.01750
G1 X116.859 Y92.726 E0.06246
G1 X116.301 Y92.704 E0.01763
G1 X117.705 Y94.108 E0.06265
G1 X117.150 Y94.090 E0.01750
G1 X115.742 Y92.682 E0.06283
G1 X115.184 Y92.660 E0.01763
G1 X116.596 Y94.072 E0.06301
G1 X116.041 Y94.054 E0.01750
G1 X114.625 Y92.638 E0.06319
G1 X114.067 Y92.616 E0.01763
G1 X115.487 Y94.036 E0.06337
G1 X114.932 Y94.019 E0.01750
G1 X113.508 Y92.594 E0.06353
G1 X112.960 Y92.583 E0.01729
G1 X114.378 Y94.001 E0.06324
G1 X113.823 Y93.983 E0.01750
G1 X112.412 Y92.572 E0.06294
G1 X111.865 Y92.560 E0.01729
G1 X113.272 Y93.968 E0.06281
G1 X112.726 Y93.958 E0.01725
G1 X111.323 Y92.556 E0.06256
G1 X110.789 Y92.558 E0.01684
G1 X112.179 Y93.948 E0.06198
G1 X111.632 Y93.937 E0.01725
G1 X110.256 Y92.561 E0.06140
G1 X109.722 Y92.564 E0.01684
G1 X111.094 Y93.936 E0.06121
G1 X110.561 Y93.940 E0.01679
G1 X109.194 Y92.573 E0.06098
G1 X108.678 Y92.593 E0.01632
G1 X110.029 Y93.944 E0.06030
G1 X109.497 Y93.949 E0.01679
G1 X108.161 Y92.612 E0.05961
G1 X107.644 Y92.632 E0.01632
G1 X108.978 Y93.966 E0.05951
G1 X108.464 Y93.989 E0.01622
G1 X107.127 Y92.652 E0.05966
G1 X106.642 Y92.703 E0.01538
G1 X107.950 Y94.012 E0.05836
G1 X107.437 Y94.035 E0.01622
G1 X106.163 Y92.761 E0.05683
G1 X105.968 Y92.784 E0.00619
G1 X105.713 Y92.847 E0.00831
G1 X106.940 Y94.074 E0.05475
G1 X106.473 Y94.144 E0.01490
G1 X105.282 Y92.953 E0.05311
G1 X105.070 Y93.005 E0.00690
G1 X104.874 Y93.082 E0.00662
G1 X106.005 Y94.213 E0.05045
G1 X105.889 Y94.230 E0.00372
G1 X105.594 Y94.338 E0.00991
G1 X104.489 Y93.233 E0.04928
G1 X104.316 Y93.301 E0.00584
G1 X104.126 Y93.406 E0.00688
G1 X105.200 Y94.481 E0.04794
G1 X104.807 Y94.624 E0.01320
G1 X103.780 Y93.598 E0.04580
G1 X103.464 Y93.817 E0.01216
G1 X104.488 Y94.842 E0.04572
G1 X104.180 Y95.070 E0.01210
G1 X103.159 Y94.049 E0.04555
G1 X102.886 Y94.313 E0.01197
G1 X103.871 Y95.298 E0.04397
G1 X103.802 Y95.349 E0.00270
G1 X103.638 Y95.602 E0.00950
G1 X102.628 Y94.592 E0.04505
G1 X102.406 Y94.863 E0.01106
G1 X102.389 Y94.889 E0.00099
G1 X103.427 Y95.927 E0.04632
G1 X103.216 Y96.252 E0.01224
G1 X102.175 Y95.212 E0.04641
G1 X102.011 Y95.584 E0.01283
G1 X103.077 Y96.650 E0.04756
G1 X102.979 Y97.089 E0.01420
G1 X101.850 Y95.959 E0.05040
G1 X101.695 Y96.341 E0.01299
G1 X102.882 Y97.529 E0.05299
G1 X102.862 Y97.619 E0.00293
G1 X102.893 Y98.076 E0.01443
G1 X101.611 Y96.793 E0.05720
G1 X101.527 Y97.246 E0.01453
G1 X102.931 Y98.651 E0.06265
G1 X102.956 Y99.015 E0.01151
G1 X103.029 Y99.285 E0.00885
G1 X101.501 Y97.756 E0.06821
G1 X101.501 Y98.294 E0.01695
G1 X103.230 Y100.023 E0.07713
G1 X103.379 Y100.570 E0.01788
G1 X103.483 Y100.812 E0.00833
G1 X101.559 Y98.888 E0.08585
G1 X101.652 Y99.517 E0.02006
G1 X103.886 Y101.751 E0.09968
G1 X104.325 Y102.727 E0.03377
G1 X101.833 Y100.235 E0.11121
G1 X101.937 Y100.628 E0.01285
G1 X102.074 Y101.012 E0.01287
G1 X104.816 Y103.754 E0.12233
G1 X105.306 Y104.781 E0.03591
G1 X102.406 Y101.881 E0.12940
G1 X102.852 Y102.864 E0.03406
G1 X105.797 Y105.809 E0.13136
G1 X106.283 Y106.831 E0.03571
G1 X103.346 Y103.894 E0.13102
G1 X103.840 Y104.924 E0.03603
G1 X106.748 Y107.833 E0.12976
G1 X107.213 Y108.835 E0.03485
G1 X104.326 Y105.948 E0.12880
G1 X104.790 Y106.948 E0.03476
G1 X107.679 Y109.837 E0.12890
G1 X108.144 Y110.839 E0.03485
G1 X105.253 Y107.947 E0.12900
G1 X105.716 Y108.947 E0.03476
G1 X108.610 Y111.841 E0.12910
G1 X109.094 Y112.862 E0.03567
G1 X106.179 Y109.947 E0.13007
G1 X106.642 Y110.946 E0.03476
G1 X109.597 Y113.901 E0.13183
G1 X110.100 Y114.940 E0.03641
G1 X107.105 Y111.946 E0.13358
G1 X107.568 Y112.946 E0.03476
G1 X110.602 Y115.979 E0.13534
G1 X111.128 Y117.042 E0.03742
G1 X108.052 Y113.966 E0.13725
G1 X108.540 Y114.990 E0.03580
G1 X112.062 Y118.513 E0.15715
M204 S1250
G1 E-2.24000 F2400.000
;WIPE_START
G1 F7200.000
G1 X110.026 Y116.476 E-0.91200
;WIPE_END
G1 E-0.04800 F2400.000
G1 Z0.400 F9000.000
G1 X129.706 Y98.598
G1 Z0.200
G1 E3.20000 F1500.000
M204 S800
G1 F1200.000
G1 X128.031 Y96.923 E0.07475
G1 X128.102 Y97.531 E0.01931
G1 X129.495 Y98.923 E0.06213
G1 X129.418 Y99.382 E0.01469
G1 X128.140 Y98.105 E0.05698
G1 X128.087 Y98.588 E0.01533
G1 X129.315 Y99.816 E0.05477
G1 X129.267 Y100.016 E0.00648
G1 X129.192 Y100.230 E0.00715
G1 X128.033 Y99.071 E0.05168
G1 X127.912 Y99.487 E0.01365
G1 X129.052 Y100.627 E0.05087
G1 X128.966 Y100.872 E0.00821
G1 X128.906 Y101.017 E0.00494
G1 X127.785 Y99.896 E0.05002
G1 X127.653 Y100.301 E0.01343
G1 X128.749 Y101.396 E0.04888
G1 X128.591 Y101.775 E0.01295
G1 X127.496 Y100.680 E0.04885
