; generated by PrusaSlicer 2.3.3+win64 on 2022-03-16 at 17:26:17 UTC


;
;

;
;
; 

; external perimeters extrusion width = 0.45mm
; perimeters extrusion width = 0.45mm
; infill extrusion width = 0.45mm
; solid infill extrusion width = 0.45mm
; top infill extrusion width = 0.40mm
; first layer extrusion width = 0.42mm

M73 P0 R99
M201 X1250 Y1250 Z400 E5000 ; sets maximum accelerations, mm/sec^2
M203 X180 Y180 Z12 E80 ; sets maximum feedrates, mm/sec
M204 P1250 R1250 T1250 ; sets acceleration (P, T) and retract acceleration (R), mm/sec^2
M205 X8.00 Y8.00 Z2.00 E10.00 ; sets the jerk limits, mm/sec
M205 S0 T0 ; sets the minimum extruding and travel feed rate, mm/sec
M107
;TYPE:Custom
G90 ; use absolute coordinates
M83 ; extruder relative mode
M104 S170 ; set extruder temp for bed leveling
M140 S85 ; set bed temp
M109 R170 ; wait for bed leveling temp
M190 S85 ; wait for bed temp
G28 ; home all without mesh bed level
G29 ; mesh bed leveling 
M104 S230 ; set extruder temp
G92 E0.0
G1 Y-2.0 X179 F2400
G1 Z3 F720
M109 S230 ; wait for extruder temp

; intro line
G1 X170 F1000
G1 Z0.2 F720
G1 X110.0 E8.0 F900
G1 X40.0 E10.0 F700
G92 E0.0

M221 S95 ; set flow
G21 ; set units to millimeters
G90 ; use absolute coordinates
M83 ; use relative distances for extrusion
M900 K0.2 ; Filament gcode
;LAYER_CHANGE
;Z:0.2
;HEIGHT:0.2
;BEFORE_LAYER_CHANGE
G92 E0.0
;0.2


G1 E-3.20000 F2400.000
G1 Z0.200 F9000.000
;AFTER_LAYER_CHANGE
;0.2
G1 Z0.400
G1 X12.671 Y46.125
M73 P0 R98
G1 Z0.200
G1 E3.20000 F1500.000
M204 S800
;TYPE:Skirt
;WIDTH:0.42
G1 F1200.000
G1 X13.642 Y44.864 E0.04990
G1 X14.555 Y43.981 E0.03982
G1 X15.518 Y43.257 E0.03777
G1 X16.659 Y42.605 E0.04121
G1 X17.656 Y42.170 E0.03409
G1 X18.728 Y41.823 E0.03533
G1 X20.128 Y41.517 E0.04495
G1 X22.611 Y41.304 E0.07812
G1 X48.774 Y40.487 E0.82074
G1 X61.128 Y40.239 E0.38742
G1 X73.716 Y40.138 E0.39470
G1 X81.554 Y40.191 E0.24576
G1 X87.952 Y40.338 E0.20068
G1 X93.088 Y40.564 E0.16118
G1 X97.083 Y40.855 E0.12560
G1 X100.211 Y41.206 E0.09869
G1 X102.541 Y41.597 E0.07408
G1 X104.322 Y42.039 E0.05754
G1 X105.751 Y42.560 E0.04767
G1 X107.987 Y43.874 E0.08132
G1 X108.463 Y44.269 E0.01941
G1 X110.067 Y46.101 E0.07636
G1 X111.152 Y48.380 E0.07911
G1 X111.652 Y50.696 E0.07430
G1 X111.743 Y52.908 E0.06942
G1 X111.575 Y54.977 E0.06510
G1 X111.007 Y58.045 E0.09782
G1 X110.632 Y59.378 E0.04342
G1 X80.553 Y145.595 E2.86306
G1 X79.943 Y147.036 E0.04908
G1 X79.147 Y148.333 E0.04772
G1 X78.089 Y149.541 E0.05035
G1 X76.743 Y150.580 E0.05331
G1 X75.565 Y151.201 E0.04173
G1 X74.285 Y151.623 E0.04226
G1 X72.630 Y151.885 E0.05254
G1 X46.206 Y151.860 E0.82853
G1 X44.244 Y151.638 E0.06190
G1 X42.384 Y150.968 E0.06199
G1 X41.025 Y150.134 E0.04999
G1 X39.839 Y149.043 E0.05053
G1 X38.591 Y147.379 E0.06522
G1 X37.682 Y145.487 E0.06581
G1 X11.469 Y56.676 E2.90336
G1 X11.164 Y55.110 E0.05002
G1 X11.013 Y52.179 E0.09202
G1 X11.172 Y50.100 E0.06538
G1 X11.454 Y48.821 E0.04108
G1 X11.956 Y47.440 E0.04605
G1 X12.643 Y46.178 E0.04507
M204 S1250
; printing object Brave Gogo (2).stl_1 id:0 copy 0
G1 E-2.24000 F2400.000
;WIPE_START
G1 F7200.000
G1 X13.642 Y44.864 E-0.52271
G1 X14.526 Y44.009 E-0.38929
;WIPE_END
G1 E-0.04800 F2400.000
G1 Z0.400 F9000.000
G1 X69.281 Y95.665
G1 Z0.200
G1 E3.20000 F1500.000
M204 S800
;TYPE:Perimeter
G1 F1200.000
G1 X87.756 Y95.665 E0.57928
G1 X86.228 Y99.593 E0.13214
G1 X85.167 Y102.147 E0.08670
G1 X83.987 Y105.240 E0.10379
G1 X66.585 Y105.240 E0.54562
G1 X67.917 Y100.668 E0.14930
G1 X69.265 Y95.723 E0.16070
M204 S1250
G1 X69.569 Y96.043 F9000.000
M204 S800
;TYPE:External perimeter
G1 F1200.000
G1 X87.205 Y96.043 E0.55296
G1 X85.878 Y99.453 E0.11472
G1 X84.817 Y102.007 E0.08674
G1 X83.727 Y104.863 E0.09582
G1 X67.088 Y104.863 E0.52172
G1 X68.280 Y100.771 E0.13364
G1 X69.553 Y96.100 E0.15177
M204 S1250
G1 X69.605 Y95.644 F9000.000
G1 X69.553 Y95.240
M204 S800
;TYPE:Perimeter
G1 F1200.000
G1 X69.398 Y95.240 E0.00487
G1 X70.972 Y89.732 E0.17960
G1 X71.899 Y86.665 E0.10045
G1 X91.521 Y86.665 E0.61523
G1 X89.471 Y91.391 E0.16151
G1 X87.914 Y95.240 E0.13018
G1 X69.613 Y95.240 E0.57380
M204 S1250
G1 X69.898 Y94.863 F9000.000
M204 S800
;TYPE:External perimeter
G1 F1200.000
G1 X71.334 Y89.839 E0.16383
G1 X72.179 Y87.043 E0.09159
G1 X90.946 Y87.043 E0.58843
G1 X89.123 Y91.245 E0.14364
G1 X87.659 Y94.863 E0.12235
G1 X69.958 Y94.863 E0.55503
M204 S1250
G1 X69.501 Y94.813 F9000.000
G1 E-2.24000 F2400.000
;WIPE_START
G1 F7200.000
G1 X70.718 Y92.085 E-0.91200
;WIPE_END
G1 E-0.04800 F2400.000
G1 Z0.400 F9000.000
G1 X72.029 Y86.240
G1 Z0.200
G1 E3.20000 F1500.000
M204 S800
;TYPE:Perimeter
G1 F1200.000
G1 X73.108 Y82.870 E0.11094
G1 X74.294 Y79.416 E0.11451
G1 X75.324 Y76.665 E0.09208
G1 X96.283 Y76.665 E0.65715
G1 X93.478 Y82.467 E0.20204
G1 X91.739 Y86.240 E0.13026
G1 X72.089 Y86.240 E0.61610
M204 S1250
G1 X72.546 Y85.863 F9000.000
M204 S800
;TYPE:External perimeter
G1 F1200.000
G1 X73.466 Y82.988 E0.09462
G1 X74.649 Y79.543 E0.11422
G1 X75.586 Y77.043 E0.08372
G1 X95.682 Y77.043 E0.63011
G1 X93.137 Y82.306 E0.18330
G1 X91.498 Y85.863 E0.12280
G1 X72.606 Y85.863 E0.59233
M204 S1250
G1 X72.150 Y85.803 F9000.000
G1 E-2.24000 F2400.000
;WIPE_START
G1 F7200.000
G1 X73.431 Y83.103 E-0.91200
;WIPE_END
G1 E-0.04800 F2400.000
G1 Z0.400 F9000.000
G1 X75.475 Y76.240
G1 Z0.200
G1 E3.20000 F1500.000
M204 S800
;TYPE:Perimeter
G1 F1200.000
G1 X79.175 Y67.398 E0.30053
G1 X79.415 Y66.962 E0.01560
G1 X79.635 Y66.504 E0.01594
G1 X79.834 Y65.992 E0.01723
G1 X79.985 Y65.441 E0.01789
G1 X80.088 Y64.665 E0.02454
G1 X102.494 Y64.665 E0.70253
G1 X100.654 Y67.932 E0.11755
G1 X96.485 Y76.240 E0.29143
G1 X75.535 Y76.240 E0.65690
M204 S1250
G1 X76.041 Y75.863 F9000.000
M204 S800
;TYPE:External perimeter
G1 F1200.000
G1 X79.515 Y67.562 E0.28213
G1 X79.750 Y67.135 E0.01529
G1 X79.982 Y66.654 E0.01672
G1 X80.193 Y66.110 E0.01831
G1 X80.355 Y65.516 E0.01930
G1 X80.418 Y65.043 E0.01498
G1 X101.849 Y65.043 E0.67195
G1 X100.322 Y67.755 E0.09761
G1 X96.253 Y75.863 E0.28442
G1 X76.101 Y75.863 E0.63184
M204 S1250
M73 P1 R98
G1 X75.646 Y75.800 F9000.000
G1 E-2.24000 F2400.000
;WIPE_START
G1 F7200.000
G1 X77.197 Y73.199 E-0.91200
;WIPE_END
G1 E-0.04800 F2400.000
G1 Z0.400 F9000.000
G1 X39.085 Y64.561
G1 Z0.200
G1 E3.20000 F1500.000
M204 S800
;TYPE:Perimeter
G1 F1200.000
G1 X39.656 Y63.925 E0.02681
G1 X40.442 Y63.690 E0.02572
G1 X41.335 Y63.638 E0.02805
G1 X49.566 Y63.602 E0.25807
G1 X76.092 Y63.319 E0.83176
G1 X76.705 Y63.351 E0.01922
G1 X77.272 Y63.480 E0.01825
G1 X77.804 Y63.803 E0.01951
G1 X78.121 Y64.375 E0.02051
G1 X78.127 Y64.976 E0.01884
G1 X77.978 Y65.506 E0.01727
G1 X77.741 Y66.035 E0.01815
G1 X77.455 Y66.566 E0.01892
G1 X77.359 Y66.791 E0.00767
G1 X75.107 Y72.137 E0.18189
G1 X73.483 Y76.069 E0.13338
G1 X71.964 Y80.228 E0.13883
G1 X70.556 Y84.480 E0.14042
G1 X69.270 Y88.674 E0.13755
G1 X68.119 Y92.660 E0.13009
G1 X65.578 Y101.893 E0.30025
G1 X63.494 Y109.119 E0.23581
G1 X62.800 Y111.448 E0.07620
G1 X62.122 Y113.621 E0.07135
G1 X61.470 Y115.570 E0.06445
G1 X60.850 Y117.233 E0.05565
G1 X60.250 Y118.585 E0.04638
G1 X60.012 Y118.914 E0.01274
G1 X59.681 Y119.174 E0.01320
G1 X59.302 Y119.330 E0.01284
G1 X58.901 Y119.377 E0.01266
G1 X58.498 Y119.314 E0.01279
G1 X58.120 Y119.137 E0.01307
G1 X57.798 Y118.852 E0.01349
G1 X57.589 Y118.510 E0.01256
G1 X56.970 Y116.981 E0.05172
G1 X56.298 Y115.056 E0.06393
G1 X55.573 Y112.807 E0.07410
G1 X52.530 Y102.763 E0.32904
G1 X51.829 Y100.543 E0.07301
G1 X46.971 Y85.404 E0.49849
G1 X45.969 Y82.361 E0.10045
G1 X45.082 Y79.774 E0.08575
G1 X42.500 Y72.911 E0.22990
G1 X41.532 Y70.503 E0.08138
G1 X41.057 Y69.435 E0.03665
G1 X40.589 Y68.489 E0.03309
G1 X39.655 Y66.752 E0.06184
G1 X39.304 Y66.055 E0.02447
G1 X39.066 Y65.368 E0.02279
G1 X39.084 Y64.621 E0.02344
M204 S1250
G1 X39.459 Y64.709 F9000.000
M204 S800
;TYPE:External perimeter
G1 F1200.000
G1 X39.866 Y64.256 E0.01912
G1 X40.508 Y64.064 E0.02101
G1 X41.347 Y64.015 E0.02635
G1 X49.569 Y63.980 E0.25778
G1 X76.084 Y63.696 E0.83141
G1 X76.653 Y63.726 E0.01785
G1 X77.129 Y63.835 E0.01532
G1 X77.523 Y64.074 E0.01445
G1 X77.745 Y64.475 E0.01437
G1 X77.749 Y64.926 E0.01415
G1 X77.622 Y65.378 E0.01471
G1 X77.403 Y65.868 E0.01685
G1 X77.115 Y66.402 E0.01902
G1 X77.011 Y66.644 E0.00824
G1 X74.759 Y71.992 E0.18196
G1 X73.131 Y75.932 E0.13367
G1 X71.608 Y80.104 E0.13926
G1 X70.197 Y84.365 E0.14073
G1 X68.909 Y88.566 E0.13778
G1 X67.756 Y92.558 E0.13026
G1 X65.216 Y101.791 E0.30025
G1 X63.132 Y109.013 E0.23568
G1 X62.439 Y111.338 E0.07607
G1 X61.763 Y113.505 E0.07116
G1 X61.115 Y115.444 E0.06412
G1 X60.501 Y117.090 E0.05509
G1 X59.921 Y118.396 E0.04478
G1 X59.737 Y118.650 E0.00984
G1 X59.489 Y118.845 E0.00989
G1 X59.207 Y118.961 E0.00958
G1 X58.908 Y118.996 E0.00942
G1 X58.609 Y118.950 E0.00949
G1 X58.329 Y118.819 E0.00968
G1 X58.090 Y118.607 E0.01002
G1 X57.927 Y118.340 E0.00982
G1 X57.323 Y116.848 E0.05045
G1 X56.655 Y114.936 E0.06350
G1 X55.933 Y112.694 E0.07385
G1 X52.890 Y102.652 E0.32901
G1 X52.188 Y100.428 E0.07311
G1 X47.330 Y85.287 E0.49857
G1 X46.326 Y82.241 E0.10057
G1 X45.437 Y79.647 E0.08600
G1 X42.852 Y72.775 E0.23021
M73 P1 R97
G1 X41.880 Y70.356 E0.08173
G1 X41.399 Y69.275 E0.03711
G1 X40.924 Y68.316 E0.03354
G1 X39.989 Y66.578 E0.06188
G1 X39.652 Y65.908 E0.02353
G1 X39.444 Y65.309 E0.01987
G1 X39.457 Y64.769 E0.01693
M204 S1250
G1 X39.229 Y64.382 F9000.000
G1 E-2.24000 F2400.000
;WIPE_START
G1 F7200.000
G1 X39.866 Y64.256 E-0.20786
G1 X40.508 Y64.064 E-0.21224
G1 X41.347 Y64.015 E-0.26614
G1 X42.060 Y64.012 E-0.22575
;WIPE_END
G1 E-0.04800 F2400.000
G1 Z0.400 F9000.000
G1 X106.551 Y54.240
G1 Z0.200
G1 E3.20000 F1500.000
M204 S800
;TYPE:Perimeter
G1 F1200.000
G1 X16.258 Y54.240 E2.83109
G1 X16.161 Y52.167 E0.06505
G1 X16.231 Y50.997 E0.03674
G1 X16.552 Y49.701 E0.04186
G1 X17.276 Y48.415 E0.04629
G1 X18.524 Y47.322 E0.05201
G1 X20.345 Y46.590 E0.06154
G1 X22.747 Y46.316 E0.07582
G1 X27.446 Y46.187 E0.14736
G1 X36.421 Y45.901 E0.28158
G1 X48.329 Y45.571 E0.37350
G1 X61.785 Y45.304 E0.42197
G1 X75.316 Y45.217 E0.42427
G1 X87.824 Y45.417 E0.39225
G1 X97.679 Y46.021 E0.30958
G1 X103.666 Y47.167 E0.19110
G1 X104.948 Y47.934 E0.04686
G1 X105.847 Y48.968 E0.04295
G1 X106.385 Y50.149 E0.04071
G1 X106.640 Y51.442 E0.04131
G1 X106.678 Y52.784 E0.04209
G1 X106.556 Y54.180 E0.04394
M204 S1250
G1 X106.205 Y53.863 F9000.000
M204 S800
;TYPE:External perimeter
G1 F1200.000
G1 X16.617 Y53.863 E2.80897
G1 X16.538 Y52.170 E0.05314
G1 X16.605 Y51.054 E0.03503
G1 X16.905 Y49.842 E0.03917
G1 X17.573 Y48.656 E0.04266
G1 X18.724 Y47.648 E0.04798
G1 X20.438 Y46.958 E0.05793
G1 X22.774 Y46.692 E0.07371
G1 X27.457 Y46.564 E0.14688
G1 X36.433 Y46.278 E0.28158
G1 X48.338 Y45.948 E0.37343
G1 X61.790 Y45.682 E0.42184
G1 X75.314 Y45.594 E0.42406
G1 X87.810 Y45.794 E0.39185
G1 X97.632 Y46.396 E0.30855
G1 X103.529 Y47.524 E0.18825
G1 X104.703 Y48.227 E0.04289
G1 X105.527 Y49.174 E0.03935
G1 X106.024 Y50.265 E0.03760
G1 X106.264 Y51.484 E0.03894
G1 X106.300 Y52.773 E0.04042
G1 X106.211 Y53.803 E0.03242
M204 S1250
G1 X106.202 Y54.262 F9000.000
G1 E-2.24000 F2400.000
;WIPE_START
G1 F7200.000
G1 X103.331 Y53.805 E-0.91200
;WIPE_END
G1 E-0.04800 F2400.000
G1 Z0.400 F9000.000
G1 X16.283 Y54.665
G1 Z0.200
G1 E3.20000 F1500.000
M204 S800
;TYPE:Perimeter
G1 F1200.000
G1 X106.514 Y54.665 E2.82914
G1 X106.048 Y56.826 E0.06931
G1 X105.601 Y58.286 E0.04788
G1 X104.931 Y59.916 E0.05525
G1 X104.122 Y61.612 E0.05893
G1 X102.734 Y64.240 E0.09316
G1 X80.165 Y64.240 E0.70765
G1 X79.615 Y63.037 E0.04145
G1 X79.439 Y62.761 E0.01025
G1 X79.202 Y62.475 E0.01167
G1 X78.904 Y62.197 E0.01276
G1 X78.535 Y61.942 E0.01408
G1 X78.082 Y61.716 E0.01587
G1 X77.536 Y61.533 E0.01804
G1 X76.883 Y61.411 E0.02084
G1 X76.090 Y61.366 E0.02489
G1 X50.917 Y61.633 E0.78933
G1 X40.906 Y61.687 E0.31390
G1 X40.466 Y61.713 E0.01383
G1 X39.961 Y61.780 E0.01597
G1 X39.424 Y61.910 E0.01731
G1 X38.886 Y62.116 E0.01809
G1 X38.372 Y62.416 E0.01865
G1 X37.902 Y62.828 E0.01957
G1 X37.489 Y63.383 E0.02170
G1 X37.199 Y64.007 E0.02157
G1 X37.064 Y64.603 E0.01917
G1 X37.054 Y65.191 E0.01842
G1 X37.222 Y66.240 E0.03331
G1 X22.028 Y66.240 E0.47640
G1 X20.873 Y63.982 E0.07950
G1 X20.230 Y62.819 E0.04166
G1 X18.729 Y60.266 E0.09287
G1 X17.976 Y58.925 E0.04821
G1 X17.292 Y57.573 E0.04752
G1 X16.731 Y56.228 E0.04569
G1 X16.299 Y54.723 E0.04909
M204 S1250
G1 X16.783 Y55.043 F9000.000
M204 S800
;TYPE:External perimeter
G1 F1200.000
G1 X106.047 Y55.043 E2.79881
G1 X105.683 Y56.731 E0.05416
G1 X105.245 Y58.159 E0.04683
G1 X104.586 Y59.763 E0.05438
G1 X103.785 Y61.443 E0.05836
G1 X102.507 Y63.863 E0.08579
G1 X80.407 Y63.863 E0.69293
G1 X79.947 Y62.857 E0.03468
G1 X79.745 Y62.539 E0.01181
G1 X79.477 Y62.215 E0.01317
G1 X79.141 Y61.903 E0.01439
G1 X78.728 Y61.616 E0.01577
G1 X78.227 Y61.366 E0.01755
G1 X77.631 Y61.167 E0.01969
G1 X76.928 Y61.036 E0.02241
G1 X76.099 Y60.989 E0.02604
G1 X50.914 Y61.256 E0.78970
G1 X40.894 Y61.310 E0.31418
G1 X40.430 Y61.337 E0.01458
G1 X39.891 Y61.409 E0.01703
G1 X39.312 Y61.549 E0.01869
G1 X38.722 Y61.775 E0.01982
G1 X38.151 Y62.109 E0.02074
G1 X37.624 Y62.570 E0.02196
G1 X37.163 Y63.189 E0.02417
G1 X36.840 Y63.884 E0.02405
G1 X36.688 Y64.558 E0.02165
G1 X36.676 Y65.217 E0.02069
G1 X36.780 Y65.863 E0.02048
G1 X22.259 Y65.863 E0.45530
G1 X21.206 Y63.805 E0.07246
G1 X20.558 Y62.633 E0.04201
G1 X19.056 Y60.078 E0.09291
G1 X18.309 Y58.748 E0.04784
G1 X17.634 Y57.415 E0.04683
G1 X17.087 Y56.103 E0.04457
G1 X16.800 Y55.100 E0.03272
M204 S1250
G1 X16.737 Y54.645 F9000.000
G1 E-2.24000 F2400.000
;WIPE_START
G1 F7200.000
G1 X19.680 Y55.098 E-0.91200
;WIPE_END
G1 E-0.04800 F2400.000
G1 Z0.400 F9000.000
G1 X22.246 Y66.665
G1 Z0.200
G1 E3.20000 F1500.000
M204 S800
;TYPE:Perimeter
G1 F1200.000
G1 X37.426 Y66.665 E0.47596
M73 P2 R97
G1 X37.888 Y67.589 E0.03238
G1 X38.734 Y69.163 E0.05603
G1 X39.120 Y69.937 E0.02712
G1 X39.434 Y70.625 E0.02371
G1 X39.751 Y71.369 E0.02535
G1 X40.393 Y72.977 E0.05428
G1 X41.618 Y76.240 E0.10928
G1 X26.940 Y76.240 E0.46020
G1 X26.301 Y74.855 E0.04783
G1 X23.680 Y69.467 E0.18786
G1 X22.273 Y66.719 E0.09679
M204 S1250
G1 X22.863 Y67.043 F9000.000
M204 S800
;TYPE:External perimeter
G1 F1200.000
G1 X37.193 Y67.043 E0.44933
G1 X37.554 Y67.762 E0.02525
G1 X38.400 Y69.336 E0.05602
G1 X38.780 Y70.099 E0.02673
G1 X39.089 Y70.777 E0.02336
G1 X39.403 Y71.512 E0.02507
G1 X40.041 Y73.113 E0.05402
G1 X41.073 Y75.863 E0.09209
G1 X27.181 Y75.863 E0.43557
G1 X26.641 Y74.693 E0.04039
G1 X24.017 Y69.299 E0.18810
G1 X22.890 Y67.096 E0.07758
M204 S1250
G1 X22.802 Y66.647 F9000.000
G1 E-2.24000 F2400.000
;WIPE_START
G1 F7200.000
G1 X25.770 Y67.085 E-0.91200
;WIPE_END
G1 E-0.04800 F2400.000
G1 Z0.400 F9000.000
G1 X27.137 Y76.665
G1 Z0.200
G1 E3.20000 F1500.000
M204 S800
;TYPE:Perimeter
G1 F1200.000
G1 X41.776 Y76.665 E0.45899
G1 X42.947 Y79.722 E0.10262
G1 X43.500 Y81.289 E0.05210
G1 X45.150 Y86.240 E0.16363
G1 X31.363 Y86.240 E0.43229
G1 X30.818 Y84.906 E0.04518
G1 X28.694 Y80.037 E0.16655
G1 X27.162 Y76.720 E0.11456
M204 S1250
G1 X27.726 Y77.043 F9000.000
M204 S800
;TYPE:External perimeter
G1 F1200.000
G1 X41.516 Y77.043 E0.43238
G1 X42.593 Y79.852 E0.09434
G1 X43.144 Y81.411 E0.05184
G1 X44.627 Y85.863 E0.14712
G1 X31.616 Y85.863 E0.40795
G1 X31.165 Y84.759 E0.03737
G1 X29.038 Y79.882 E0.16682
G1 X27.752 Y77.097 E0.09620
M204 S1250
G1 X27.671 Y76.646 F9000.000
G1 E-2.24000 F2400.000
;WIPE_START
G1 F7200.000
G1 X30.631 Y77.086 E-0.91200
;WIPE_END
G1 E-0.04800 F2400.000
G1 Z0.400 F9000.000
G1 X31.536 Y86.665
G1 Z0.200
G1 E3.20000 F1500.000
M204 S800
;TYPE:Perimeter
G1 F1200.000
G1 X45.280 Y86.665 E0.43091
G1 X48.329 Y96.240 E0.31504
G1 X35.079 Y96.240 E0.41542
G1 X34.101 Y93.269 E0.09807
G1 X32.634 Y89.352 E0.13113
G1 X31.559 Y86.721 E0.08912
M204 S1250
G1 X32.098 Y87.043 F9000.000
M204 S800
;TYPE:External perimeter
G1 F1200.000
G1 X45.004 Y87.043 E0.40467
G1 X47.813 Y95.863 E0.29023
G1 X35.352 Y95.863 E0.39069
G1 X34.457 Y93.144 E0.08975
G1 X32.985 Y89.215 E0.13154
G1 X32.120 Y87.098 E0.07170
M204 S1250
G1 X32.049 Y86.646 F9000.000
G1 E-2.24000 F2400.000
;WIPE_START
G1 F7200.000
G1 X35.000 Y87.086 E-0.91200
