; generated by PrusaSlicer 2.3.3+win64 on 2022-03-16 at 13:16:47 UTC


;
;

;
;
; 

; external perimeters extrusion width = 0.45mm
; perimeters extrusion width = 0.45mm
; infill extrusion width = 0.45mm
; solid infill extrusion width = 0.45mm
; top infill extrusion width = 0.40mm
; first layer extrusion width = 0.42mm

M73 P0 R112
M201 X1250 Y1250 Z400 E5000 ; sets maximum accelerations, mm/sec^2
M203 X180 Y180 Z12 E80 ; sets maximum feedrates, mm/sec
M204 P1250 R1250 T1250 ; sets acceleration (P, T) and retract acceleration (R), mm/sec^2
M205 X8.00 Y8.00 Z2.00 E10.00 ; sets the jerk limits, mm/sec
M205 S0 T0 ; sets the minimum extruding and travel feed rate, mm/sec
M107
;TYPE:Custom
G90 ; use absolute coordinates
M83 ; extruder relative mode
M104 S170 ; set extruder temp for bed leveling
M140 S85 ; set bed temp
M109 R170 ; wait for bed leveling temp
M190 S85 ; wait for bed temp
G28 ; home all without mesh bed level
G29 ; mesh bed leveling 
M104 S230 ; set extruder temp
G92 E0.0
G1 Y-2.0 X179 F2400
G1 Z3 F720
M109 S230 ; wait for extruder temp

; intro line
M73 P0 R111
G1 X170 F1000
G1 Z0.2 F720
G1 X110.0 E8.0 F900
G1 X40.0 E10.0 F700
G92 E0.0

M221 S95 ; set flow
G21 ; set units to millimeters
G90 ; use absolute coordinates
M83 ; use relative distances for extrusion
M900 K0.2 ; Filament gcode
;LAYER_CHANGE
;Z:0.2
;HEIGHT:0.2
;BEFORE_LAYER_CHANGE
G92 E0.0
;0.2


G1 E-3.20000 F2400.000
G1 Z0.200 F9000.000
;AFTER_LAYER_CHANGE
;0.2
G1 Z0.400
G1 X34.423 Y42.559
G1 Z0.200
G1 E3.20000 F1500.000
M204 S800
;TYPE:Skirt
;WIDTH:0.42
G1 F1200.000
G1 X35.299 Y41.954 E0.03339
G1 X36.931 Y41.128 E0.05735
G1 X38.756 Y40.550 E0.06002
G1 X39.917 Y40.324 E0.03708
G1 X41.909 Y40.140 E0.06273
G1 X62.424 Y38.988 E0.64425
G1 X80.704 Y38.119 E0.57381
G1 X93.334 Y37.693 E0.39622
G1 X105.101 Y37.525 E0.36899
G1 X112.065 Y37.617 E0.21837
G1 X114.826 Y37.723 E0.08662
G1 X119.077 Y38.031 E0.13365
G1 X120.750 Y38.232 E0.05285
G1 X123.155 Y38.677 E0.07666
G1 X124.800 Y39.178 E0.05394
G1 X125.788 Y39.610 E0.03380
G1 X126.894 Y40.257 E0.04017
G1 X127.668 Y40.837 E0.03033
G1 X128.358 Y41.480 E0.02958
G1 X129.144 Y42.394 E0.03780
G1 X129.792 Y43.379 E0.03695
G1 X130.602 Y45.176 E0.06181
G1 X130.932 Y46.345 E0.03809
G1 X131.203 Y48.189 E0.05843
G1 X131.244 Y49.756 E0.04915
G1 X130.984 Y52.571 E0.08864
G1 X130.355 Y55.607 E0.09723
G1 X102.192 Y142.964 E2.87783
G1 X101.615 Y144.184 E0.04232
G1 X100.946 Y145.216 E0.03855
G1 X100.141 Y146.151 E0.03868
G1 X99.323 Y146.872 E0.03419
G1 X98.019 Y147.704 E0.04851
G1 X97.013 Y148.145 E0.03444
G1 X95.738 Y148.493 E0.04144
G1 X94.511 Y148.646 E0.03877
G1 X68.395 Y149.282 E0.81910
G1 X66.674 Y149.166 E0.05407
G1 X65.210 Y148.792 E0.04738
G1 X63.736 Y148.098 E0.05109
G1 X62.691 Y147.379 E0.03978
G1 X61.666 Y146.408 E0.04428
G1 X60.667 Y145.098 E0.05162
G1 X59.997 Y143.918 E0.04256
G1 X59.401 Y142.479 E0.04884
G1 X31.277 Y56.166 E2.84633
G1 X30.978 Y55.101 E0.03467
G1 X30.769 Y53.968 E0.03612
G1 X30.543 Y50.942 E0.09515
G1 X30.675 Y49.090 E0.05822
G1 X31.172 Y47.063 E0.06543
G1 X31.628 Y45.977 E0.03692
G1 X32.289 Y44.841 E0.04122
G1 X33.085 Y43.816 E0.04070
G1 X34.379 Y42.600 E0.05565
M204 S1250
; printing object Brave Gogo.stl id:0 copy 0
G1 E-2.24000 F2400.000
;WIPE_START
G1 F7200.000
G1 X35.299 Y41.954 E-0.35605
G1 X36.865 Y41.161 E-0.55595
;WIPE_END
G1 E-0.04800 F2400.000
G1 Z0.400 F9000.000
G1 X93.706 Y92.664
G1 Z0.200
G1 E3.20000 F1500.000
M204 S800
;TYPE:Perimeter
G1 F1200.000
G1 X108.292 Y92.664 E0.45732
G1 X106.735 Y96.930 E0.14239
G1 X105.921 Y98.993 E0.06953
G1 X105.100 Y101.238 E0.07496
G1 X91.532 Y101.238 E0.42542
G1 X93.691 Y92.722 E0.27546
M204 S1250
G1 X94.000 Y93.041 F9000.000
M204 S800
;TYPE:External perimeter
G1 F1200.000
G1 X107.753 Y93.041 E0.43122
G1 X106.382 Y96.796 E0.12533
G1 X105.568 Y98.859 E0.06953
G1 X104.837 Y100.861 E0.06684
G1 X92.017 Y100.861 E0.40196
G1 X93.985 Y93.099 E0.25107
M204 S1250
G1 X93.876 Y92.661 F9000.000
G1 E-2.24000 F2400.000
;WIPE_START
G1 F7200.000
G1 X96.865 Y93.087 E-0.91200
;WIPE_END
G1 E-0.04800 F2400.000
G1 Z0.400 F9000.000
G1 X91.172 Y102.664
G1 Z0.200
G1 E3.20000 F1500.000
M204 S800
;TYPE:Perimeter
G1 F1200.000
G1 X104.513 Y102.664 E0.41831
G1 X102.839 Y108.376 E0.18664
G1 X101.917 Y112.238 E0.12449
G1 X88.649 Y112.238 E0.41601
G1 X90.311 Y106.008 E0.20216
G1 X91.157 Y102.722 E0.10640
M204 S1250
G1 X91.464 Y103.041 F9000.000
M204 S800
;TYPE:External perimeter
G1 F1200.000
G1 X104.010 Y103.041 E0.39336
G1 X102.474 Y108.279 E0.17115
G1 X101.620 Y111.861 E0.11545
G1 X89.140 Y111.861 E0.39129
G1 X90.675 Y106.104 E0.18682
G1 X91.449 Y103.099 E0.09728
M204 S1250
G1 X91.498 Y102.643 F9000.000
G1 E-2.24000 F2400.000
;WIPE_START
G1 F7200.000
G1 X94.329 Y103.086 E-0.91200
;WIPE_END
G1 E-0.04800 F2400.000
G1 Z0.400 F9000.000
G1 X88.271 Y113.664
G1 Z0.200
G1 E3.20000 F1500.000
M204 S800
;TYPE:Perimeter
G1 F1200.000
G1 X101.593 Y113.664 E0.41769
G1 X100.708 Y118.151 E0.14341
G1 X100.199 Y121.238 E0.09809
G1 X86.138 Y121.238 E0.44086
G1 X87.275 Y117.304 E0.12839
G1 X88.255 Y113.722 E0.11645
M204 S1250
G1 X88.559 Y114.041 F9000.000
M204 S800
;TYPE:External perimeter
G1 F1200.000
G1 X101.134 Y114.041 E0.39429
G1 X100.336 Y118.084 E0.12921
G1 X99.879 Y120.861 E0.08824
G1 X86.640 Y120.861 E0.41510
G1 X87.638 Y117.406 E0.11275
G1 X88.543 Y114.099 E0.10751
M204 S1250
G1 X88.595 Y113.643 F9000.000
G1 E-2.24000 F2400.000
;WIPE_START
G1 F7200.000
G1 X91.423 Y114.086 E-0.91200
;WIPE_END
G1 E-0.04800 F2400.000
G1 Z0.400 F9000.000
G1 X85.699 Y122.664
G1 Z0.200
G1 E3.20000 F1500.000
M204 S800
;TYPE:Perimeter
G1 F1200.000
G1 X99.959 Y122.664 E0.44711
G1 X99.307 Y127.306 E0.14697
G1 X98.947 Y130.238 E0.09263
G1 X82.729 Y130.238 E0.50851
G1 X82.359 Y129.071 E0.03838
G1 X82.909 Y128.683 E0.02112
G1 X83.211 Y128.415 E0.01265
G1 X83.482 Y128.113 E0.01275
G1 X83.721 Y127.777 E0.01291
G1 X83.927 Y127.401 E0.01345
G1 X84.425 Y126.254 E0.03920
G1 X84.957 Y124.844 E0.04725
G1 X85.680 Y122.721 E0.07033
M204 S1250
G1 X85.969 Y123.041 F9000.000
M204 S800
;TYPE:External perimeter
G1 F1200.000
G1 X99.525 Y123.041 E0.42505
G1 X98.933 Y127.257 E0.13347
G1 X98.613 Y129.861 E0.08228
G1 X83.005 Y129.861 E0.48940
G1 X82.802 Y129.221 E0.02107
G1 X83.144 Y128.979 E0.01313
G1 X83.477 Y128.683 E0.01398
G1 X83.777 Y128.349 E0.01409
G1 X84.041 Y127.978 E0.01426
G1 X84.266 Y127.567 E0.01468
G1 X84.775 Y126.396 E0.04004
G1 X85.312 Y124.972 E0.04773
G1 X85.950 Y123.098 E0.06206
M204 S1250
G1 X86.015 Y122.644 F9000.000
G1 E-2.24000 F2400.000
;WIPE_START
G1 F7200.000
G1 X88.830 Y123.086 E-0.91200
;WIPE_END
G1 E-0.04800 F2400.000
G1 Z0.400 F9000.000
G1 X90.069 Y139.664
G1 Z0.200
G1 E3.20000 F1500.000
M204 S800
;TYPE:Perimeter
G1 F1200.000
G1 X97.971 Y139.664 E0.24778
G1 X97.352 Y141.272 E0.05401
G1 X97.101 Y141.760 E0.01722
G1 X96.790 Y142.218 E0.01736
G1 X96.409 Y142.634 E0.01768
G1 X95.956 Y142.989 E0.01804
G1 X95.434 Y143.271 E0.01861
G1 X94.846 Y143.465 E0.01942
G1 X94.167 Y143.570 E0.02154
G1 X93.303 Y143.475 E0.02724
G1 X92.483 Y143.108 E0.02817
G1 X91.756 Y142.593 E0.02793
G1 X91.085 Y142.002 E0.02806
G1 X89.674 Y140.653 E0.06120
G1 X90.046 Y139.720 E0.03152
M204 S1250
G1 X90.324 Y140.041 F9000.000
M204 S800
;TYPE:External perimeter
G1 F1200.000
G1 X97.422 Y140.041 E0.22255
G1 X97.008 Y141.117 E0.03615
G1 X96.776 Y141.567 E0.01586
G1 X96.493 Y141.983 E0.01578
G1 X96.151 Y142.356 E0.01586
G1 X95.749 Y142.672 E0.01606
G1 X95.284 Y142.923 E0.01656
G1 X94.757 Y143.097 E0.01739
G1 X94.158 Y143.189 E0.01899
G1 X93.403 Y143.107 E0.02382
G1 X92.671 Y142.779 E0.02516
G1 X91.990 Y142.297 E0.02614
G1 X91.340 Y141.724 E0.02719
G1 X90.118 Y140.557 E0.05298
G1 X90.302 Y140.097 E0.01552
M204 S1250
G1 X90.252 Y139.648 F9000.000
G1 E-2.24000 F2400.000
;WIPE_START
G1 F7200.000
G1 X93.182 Y140.074 E-0.91200
;WIPE_END
G1 E-0.04800 F2400.000
G1 Z0.400 F9000.000
G1 X84.353 Y140.496
G1 Z0.200
G1 E3.20000 F1500.000
M204 S800
;TYPE:Perimeter
G1 F1200.000
G1 X83.711 Y141.459 E0.03630
G1 X83.388 Y142.042 E0.02089
G1 X82.985 Y142.677 E0.02359
G1 X82.380 Y143.279 E0.02677
G1 X81.504 Y143.696 E0.03041
G1 X80.352 Y143.854 E0.03645
G1 X79.389 Y143.710 E0.03055
G1 X78.599 Y143.275 E0.02826
G1 X78.024 Y142.676 E0.02602
G1 X77.607 Y142.032 E0.02407
G1 X76.321 Y139.664 E0.08448
G1 X83.909 Y139.664 E0.23789
G1 X84.325 Y140.443 E0.02769
M204 S1250
G1 X83.914 Y140.474 F9000.000
M204 S800
;TYPE:External perimeter
G1 F1200.000
G1 X83.388 Y141.263 E0.02971
G1 X83.064 Y141.849 E0.02103
G1 X82.690 Y142.440 E0.02191
G1 X82.159 Y142.966 E0.02343
G1 X81.395 Y143.331 E0.02656
G1 X80.355 Y143.473 E0.03291
G1 X79.512 Y143.347 E0.02673
G1 X78.831 Y142.972 E0.02434
G1 X78.321 Y142.441 E0.02309
G1 X77.931 Y141.839 E0.02249
G1 X76.955 Y140.041 E0.06415
G1 X83.683 Y140.041 E0.21094
G1 X83.886 Y140.421 E0.01352
M204 S1250
G1 X84.281 Y140.635 F9000.000
G1 E-2.24000 F2400.000
;WIPE_START
G1 F7200.000
G1 X83.388 Y141.263 E-0.30946
G1 X83.064 Y141.849 E-0.21237
G1 X82.690 Y142.440 E-0.22131
G1 X82.311 Y142.815 E-0.16886
;WIPE_END
G1 E-0.04800 F2400.000
G1 Z0.400 F9000.000
G1 X73.696 Y140.781
G1 Z0.200
G1 E3.20000 F1500.000
M204 S800
;TYPE:Perimeter
G1 F1200.000
G1 X72.889 Y141.430 E0.03248
G1 X71.577 Y142.601 E0.05515
G1 X70.871 Y143.171 E0.02844
G1 X70.097 Y143.670 E0.02889
G1 X69.222 Y144.041 E0.02980
G1 X68.240 Y144.206 E0.03122
G1 X67.141 Y144.079 E0.03466
G1 X66.200 Y143.653 E0.03240
G1 X65.452 Y143.019 E0.03074
G1 X64.885 Y142.272 E0.02939
G1 X64.462 Y141.480 E0.02816
G1 X63.751 Y139.664 E0.06116
G1 X73.303 Y139.664 E0.29950
G1 X73.676 Y140.724 E0.03524
M204 S1250
G1 X73.252 Y140.654 F9000.000
M204 S800
;TYPE:External perimeter
G1 F1200.000
G1 X72.645 Y141.142 E0.02442
G1 X71.332 Y142.314 E0.05517
G1 X70.649 Y142.865 E0.02752
G1 X69.919 Y143.336 E0.02724
G1 X69.115 Y143.677 E0.02738
G1 X68.230 Y143.825 E0.02815
G1 X67.243 Y143.711 E0.03114
G1 X66.404 Y143.331 E0.02890
G1 X65.728 Y142.758 E0.02779
G1 X65.204 Y142.068 E0.02716
G1 X64.805 Y141.322 E0.02652
G1 X64.303 Y140.041 E0.04313
G1 X73.036 Y140.041 E0.27381
G1 X73.232 Y140.598 E0.01850
M204 S1250
G1 X73.578 Y140.886 F9000.000
G1 E-2.24000 F2400.000
;WIPE_START
G1 F7200.000
G1 X72.645 Y141.142 E-0.25353
G1 X71.332 Y142.314 E-0.55715
G1 X71.083 Y142.515 E-0.10132
;WIPE_END
G1 E-0.04800 F2400.000
G1 Z0.400 F9000.000
G1 X62.789 Y131.664
G1 Z0.200
G1 E3.20000 F1500.000
M204 S800
;TYPE:Perimeter
G1 F1200.000
G1 X98.775 Y131.664 E1.12832
M73 P0 R110
G1 X98.026 Y138.238 E0.20746
G1 X63.614 Y138.238 E1.07897
M73 P1 R110
G1 X63.189 Y134.989 E0.10274
G1 X62.796 Y131.724 E0.10313
M204 S1250
G1 X63.214 Y132.041 F9000.000
M204 S800
;TYPE:External perimeter
G1 F1200.000
G1 X98.353 Y132.041 E1.10174
G1 X97.690 Y137.861 E0.18366
G1 X63.945 Y137.861 E1.05804
G1 X63.563 Y134.942 E0.09230
G1 X63.221 Y132.101 E0.08973
M204 S1250
G1 X63.198 Y131.641 F9000.000
G1 E-2.24000 F2400.000
;WIPE_START
G1 F7200.000
G1 X66.101 Y132.096 E-0.91200
;WIPE_END
G1 E-0.04800 F2400.000
G1 Z0.400 F9000.000
G1 X61.809 Y122.664
G1 Z0.200
G1 E3.20000 F1500.000
M204 S800
;TYPE:Perimeter
G1 F1200.000
G1 X75.481 Y122.664 E0.42867
G1 X76.533 Y125.464 E0.09377
G1 X76.967 Y126.516 E0.03570
G1 X77.367 Y127.396 E0.03030
G1 X77.576 Y127.779 E0.01369
G1 X77.813 Y128.116 E0.01289
G1 X78.082 Y128.418 E0.01270
G1 X78.379 Y128.686 E0.01254
G1 X78.927 Y129.074 E0.02105
G1 X78.555 Y130.238 E0.03831
G1 X62.635 Y130.238 E0.49917
G1 X62.092 Y124.963 E0.16628
G1 X61.816 Y122.724 E0.07074
M204 S1250
G1 X62.235 Y123.041 F9000.000
M204 S800
;TYPE:External perimeter
G1 F1200.000
G1 X75.220 Y123.041 E0.40712
G1 X76.182 Y125.602 E0.08578
G1 X76.621 Y126.666 E0.03610
G1 X77.029 Y127.565 E0.03094
G1 X77.256 Y127.979 E0.01480
G1 X77.517 Y128.350 E0.01423
G1 X77.814 Y128.685 E0.01403
G1 X78.143 Y128.980 E0.01388
G1 X78.484 Y129.222 E0.01309
G1 X78.280 Y129.861 E0.02103
G1 X62.975 Y129.861 E0.47986
G1 X62.467 Y124.920 E0.15573
G1 X62.243 Y123.101 E0.05749
M204 S1250
G1 X62.221 Y122.641 F9000.000
G1 E-2.24000 F2400.000
;WIPE_START
G1 F7200.000
G1 X65.123 Y123.087 E-0.91200
;WIPE_END
G1 E-0.04800 F2400.000
G1 Z0.400 F9000.000
G1 X60.215 Y113.664
G1 Z0.200
G1 E3.20000 F1500.000
M204 S800
;TYPE:Perimeter
G1 F1200.000
G1 X72.473 Y113.664 E0.38434
G1 X74.980 Y121.238 E0.25015
G1 X61.613 Y121.238 E0.41910
G1 X61.141 Y118.413 E0.08980
G1 X60.683 Y115.966 E0.07806
G1 X60.226 Y113.723 E0.07178
M204 S1250
G1 X60.676 Y114.041 F9000.000
M204 S800
;TYPE:External perimeter
G1 F1200.000
G1 X72.200 Y114.041 E0.36133
G1 X74.458 Y120.861 E0.22524
G1 X61.932 Y120.861 E0.39272
G1 X61.512 Y118.348 E0.07990
G1 X61.054 Y115.894 E0.07827
G1 X60.688 Y114.100 E0.05740
M204 S1250
G1 X60.651 Y113.642 F9000.000
G1 E-2.24000 F2400.000
;WIPE_START
G1 F7200.000
G1 X63.568 Y114.085 E-0.91200
;WIPE_END
G1 E-0.04800 F2400.000
G1 Z0.400 F9000.000
G1 X57.994 Y103.664
G1 Z0.200
G1 E3.20000 F1500.000
M204 S800
;TYPE:Perimeter
G1 F1200.000
G1 X69.145 Y103.664 E0.34964
G1 X70.395 Y107.330 E0.12145
G1 X72.011 Y112.238 E0.16201
G1 X59.912 Y112.238 E0.37936
G1 X59.443 Y110.068 E0.06962
G1 X58.007 Y103.723 E0.20399
M204 S1250
G1 X58.466 Y104.041 F9000.000
M204 S800
;TYPE:External perimeter
G1 F1200.000
G1 X68.875 Y104.041 E0.32638
G1 X70.038 Y107.450 E0.11293
G1 X71.490 Y111.861 E0.14561
G1 X60.216 Y111.861 E0.35348
G1 X59.812 Y109.986 E0.06013
G1 X58.479 Y104.100 E0.18925
M204 S1250
G1 X58.437 Y103.642 F9000.000
G1 E-2.24000 F2400.000
;WIPE_START
G1 F7200.000
G1 X61.359 Y104.083 E-0.91200
;WIPE_END
G1 E-0.04800 F2400.000
G1 Z0.400 F9000.000
G1 X55.064 Y92.664
G1 Z0.200
G1 E3.20000 F1500.000
M204 S800
;TYPE:Perimeter
G1 F1200.000
G1 X65.329 Y92.664 E0.32185
G1 X68.639 Y102.238 E0.31762
G1 X57.664 Y102.238 E0.34411
G1 X56.495 Y97.214 E0.16173
G1 X55.961 Y95.284 E0.06281
G1 X55.084 Y92.721 E0.08493
M204 S1250
G1 X55.592 Y93.041 F9000.000
M204 S800
;TYPE:External perimeter
G1 F1200.000
G1 X65.061 Y93.041 E0.29689
G1 X68.110 Y101.861 E0.29260
G1 X57.963 Y101.861 E0.31813
G1 X56.861 Y97.121 E0.15258
G1 X56.321 Y95.172 E0.06341
G1 X55.611 Y93.098 E0.06874
M204 S1250
G1 X55.552 Y92.643 F9000.000
G1 E-2.24000 F2400.000
;WIPE_START
G1 F7200.000
G1 X58.491 Y93.081 E-0.91200
;WIPE_END
G1 E-0.04800 F2400.000
G1 Z0.400 F9000.000
G1 X51.288 Y83.664
G1 Z0.200
G1 E3.20000 F1500.000
M204 S800
;TYPE:Perimeter
G1 F1200.000
G1 X62.222 Y83.664 E0.34284
G1 X64.844 Y91.238 E0.25131
G1 X54.505 Y91.238 E0.32418
G1 X54.042 Y90.039 E0.04031
G1 X52.697 Y86.828 E0.10913
G1 X51.312 Y83.719 E0.10673
M204 S1250
G1 X51.868 Y84.041 F9000.000
M204 S800
;TYPE:External perimeter
G1 F1200.000
G1 X61.953 Y84.041 E0.31621
G1 X64.314 Y90.861 E0.22629
G1 X54.763 Y90.861 E0.29947
G1 X54.392 Y89.898 E0.03236
G1 X53.044 Y86.679 E0.10943
G1 X51.893 Y84.096 E0.08866
M204 S1250
G1 X51.814 Y83.645 F9000.000
G1 E-2.24000 F2400.000
;WIPE_START
G1 F7200.000
G1 X54.773 Y84.080 E-0.91200
;WIPE_END
G1 E-0.04800 F2400.000
G1 Z0.400 F9000.000
G1 X46.450 Y73.664
G1 Z0.200
G1 E3.20000 F1500.000
M204 S800
;TYPE:Perimeter
G1 F1200.000
G1 X58.485 Y73.664 E0.37734
G1 X59.303 Y75.664 E0.06775
G1 X59.893 Y77.203 E0.05167
G1 X61.725 Y82.238 E0.16800
G1 X50.628 Y82.238 E0.34793
G1 X49.352 Y79.513 E0.09435
G1 X47.396 Y75.518 E0.13947
G1 X46.478 Y73.718 E0.06337
M204 S1250
G1 X47.066 Y74.041 F9000.000
M204 S800
;TYPE:External perimeter
G1 F1200.000
G1 X58.232 Y74.041 E0.35010
G1 X58.952 Y75.803 E0.05969
G1 X59.540 Y77.335 E0.05144
G1 X61.186 Y81.861 E0.15101
G1 X50.868 Y81.861 E0.32353
G1 X49.692 Y79.350 E0.08693
G1 X47.733 Y75.349 E0.13967
G1 X47.093 Y74.095 E0.04417
M204 S1250
G1 X47.005 Y73.646 F9000.000
G1 E-2.24000 F2400.000
;WIPE_START
G1 F7200.000
G1 X49.973 Y74.081 E-0.91200
;WIPE_END
G1 E-0.04800 F2400.000
G1 Z0.400 F9000.000
G1 X41.120 Y63.664
G1 Z0.200
G1 E3.20000 F1500.000
M204 S800
;TYPE:Perimeter
G1 F1200.000
G1 X54.334 Y63.664 E0.41434
G1 X55.079 Y65.309 E0.05661
G1 X55.799 Y67.004 E0.05775
G1 X57.902 Y72.238 E0.17685
G1 X45.729 Y72.238 E0.38166
G1 X43.027 Y67.123 E0.18137
G1 X41.149 Y63.717 E0.12198
M204 S1250
G1 X41.758 Y64.041 F9000.000
M204 S800
;TYPE:External perimeter
G1 F1200.000
G1 X54.091 Y64.041 E0.38669
G1 X54.733 Y65.461 E0.04885
