; generated by PrusaSlicer 2.3.3+win64 on 2022-03-17 at 10:37:08 UTC


;
;

;
;
; 

; external perimeters extrusion width = 0.45mm
; perimeters extrusion width = 0.45mm
; infill extrusion width = 0.45mm
; solid infill extrusion width = 0.45mm
; top infill extrusion width = 0.40mm
; first layer extrusion width = 0.42mm

M73 P0 R107
M201 X1250 Y1250 Z400 E5000 ; sets maximum accelerations, mm/sec^2
M203 X180 Y180 Z12 E80 ; sets maximum feedrates, mm/sec
M204 P1250 R1250 T1250 ; sets acceleration (P, T) and retract acceleration (R), mm/sec^2
M205 X8.00 Y8.00 Z2.00 E10.00 ; sets the jerk limits, mm/sec
M205 S0 T0 ; sets the minimum extruding and travel feed rate, mm/sec
M107
;TYPE:Custom
G90 ; use absolute coordinates
M83 ; extruder relative mode
M104 S170 ; set extruder temp for bed leveling
M140 S85 ; set bed temp
M109 R170 ; wait for bed leveling temp
M190 S85 ; wait for bed temp
G28 ; home all without mesh bed level
G29 ; mesh bed leveling 
M104 S230 ; set extruder temp
G92 E0.0
G1 Y-2.0 X179 F2400
G1 Z3 F720
M109 S230 ; wait for extruder temp

; intro line
G1 X170 F1000
G1 Z0.2 F720
G1 X110.0 E8.0 F900
G1 X40.0 E10.0 F700
G92 E0.0

M221 S95 ; set flow
G21 ; set units to millimeters
G90 ; use absolute coordinates
M83 ; use relative distances for extrusion
M900 K0.2 ; Filament gcode
;LAYER_CHANGE
;Z:0.2
;HEIGHT:0.2
;BEFORE_LAYER_CHANGE
G92 E0.0
;0.2


G1 E-3.20000 F2400.000
G1 Z0.200 F9000.000
;AFTER_LAYER_CHANGE
;0.2
G1 Z0.400
G1 X54.786 Y38.436
G1 Z0.200
G1 E3.20000 F1500.000
M204 S800
;TYPE:Skirt
;WIDTH:0.42
G1 F1200.000
G1 X55.658 Y37.347 E0.04376
G1 X56.496 Y36.564 E0.03596
G1 X57.304 Y35.976 E0.03132
G1 X58.843 Y35.185 E0.05428
G1 X59.881 Y34.837 E0.03431
G1 X60.972 Y34.607 E0.03496
G1 X62.885 Y34.457 E0.06017
G1 X101.411 Y34.104 E1.20801
G1 X116.632 Y34.318 E0.47728
G1 X118.358 Y34.498 E0.05441
G1 X119.456 Y34.790 E0.03563
G1 X120.382 Y35.159 E0.03127
G1 X121.848 Y36.005 E0.05305
G1 X122.681 Y36.664 E0.03330
G1 X123.464 Y37.448 E0.03476
G1 X124.355 Y38.587 E0.04534
G1 X125.143 Y39.964 E0.04975
G1 X125.759 Y41.484 E0.05140
G1 X126.189 Y43.057 E0.05113
G1 X126.497 Y44.887 E0.05818
G1 X126.642 Y46.796 E0.06003
G1 X128.658 Y135.386 E2.77839
G1 X128.667 Y136.845 E0.04576
G1 X128.577 Y138.167 E0.04155
G1 X128.382 Y139.327 E0.03687
G1 X128.052 Y140.416 E0.03570
G1 X127.564 Y141.423 E0.03508
G1 X126.505 Y142.823 E0.05505
G1 X125.606 Y143.653 E0.03835
G1 X124.771 Y144.236 E0.03194
G1 X123.684 Y144.813 E0.03856
G1 X122.628 Y145.213 E0.03540
G1 X121.511 Y145.499 E0.03616
G1 X120.316 Y145.670 E0.03784
G1 X60.110 Y145.896 E1.88774
G1 X58.244 Y145.704 E0.05883
G1 X56.548 Y145.159 E0.05585
G1 X55.535 Y144.624 E0.03591
G1 X54.216 Y143.610 E0.05218
G1 X53.481 Y142.824 E0.03373
G1 X52.767 Y141.812 E0.03882
G1 X52.173 Y140.650 E0.04094
G1 X51.746 Y139.423 E0.04074
G1 X51.468 Y138.117 E0.04185
G1 X51.334 Y136.709 E0.04435
G1 X53.027 Y44.959 E2.87724
G1 X53.219 Y42.499 E0.07739
G1 X53.500 Y41.217 E0.04114
G1 X53.948 Y39.957 E0.04193
G1 X54.757 Y38.489 E0.05254
M204 S1250
; printing object H.stl id:0 copy 0
G1 E-2.24000 F2400.000
;WIPE_START
G1 F7200.000
G1 X55.658 Y37.347 E-0.46074
G1 X56.496 Y36.564 E-0.36320
G1 X56.721 Y36.401 E-0.08807
;WIPE_END
G1 E-0.04800 F2400.000
G1 Z0.400 F9000.000
G1 X101.041 Y99.772
G1 Z0.200
G1 E3.20000 F1500.000
M204 S800
;TYPE:Perimeter
G1 F1200.000
G1 X119.521 Y99.772 E0.57942
G1 X119.576 Y102.365 E0.08133
G1 X120.011 Y109.346 E0.21931
G1 X101.440 Y109.346 E0.58230
G1 X101.044 Y99.832 E0.29857
M204 S1250
G1 X101.434 Y100.149 F9000.000
M204 S800
;TYPE:External perimeter
G1 F1200.000
G1 X119.152 Y100.149 E0.55552
G1 X119.199 Y102.381 E0.06999
G1 X119.610 Y108.969 E0.20697
G1 X101.801 Y108.969 E0.55838
G1 X101.437 Y100.209 E0.27490
M204 S1250
G1 X101.288 Y99.776 F9000.000
G1 E-2.24000 F2400.000
;WIPE_START
G1 F7200.000
G1 X104.317 Y100.199 E-0.91200
;WIPE_END
G1 E-0.04800 F2400.000
G1 Z0.400 F9000.000
G1 X101.458 Y109.772
M73 P0 R106
G1 Z0.200
G1 E3.20000 F1500.000
M204 S800
;TYPE:Perimeter
G1 F1200.000
G1 X120.038 Y109.772 E0.58256
G1 X120.109 Y110.908 E0.03568
G1 X121.073 Y119.346 E0.26630
G1 X101.817 Y119.346 E0.60377
G1 X101.460 Y109.832 E0.29852
M204 S1250
G1 X101.849 Y110.149 F9000.000
M204 S800
;TYPE:External perimeter
G1 F1200.000
G1 X119.684 Y110.149 E0.55918
G1 X119.733 Y110.941 E0.02488
G1 X120.650 Y118.969 E0.25335
G1 X102.180 Y118.969 E0.57913
G1 X101.852 Y110.209 E0.27486
M204 S1250
G1 X101.702 Y109.777 F9000.000
G1 E-2.24000 F2400.000
;WIPE_START
G1 F7200.000
G1 X104.732 Y110.199 E-0.91200
;WIPE_END
G1 E-0.04800 F2400.000
G1 Z0.400 F9000.000
G1 X101.834 Y119.772
G1 Z0.200
G1 E3.20000 F1500.000
M204 S800
;TYPE:Perimeter
G1 F1200.000
G1 X121.190 Y119.772 E0.60690
G1 X122.465 Y126.753 E0.22249
G1 X122.895 Y129.346 E0.08243
G1 X102.137 Y129.346 E0.65085
G1 X101.836 Y119.832 E0.29846
M204 S1250
G1 X102.223 Y120.149 F9000.000
M204 S800
;TYPE:External perimeter
G1 F1200.000
G1 X120.875 Y120.149 E0.58484
G1 X122.093 Y126.817 E0.21254
G1 X122.450 Y128.969 E0.06839
G1 X102.502 Y128.969 E0.62545
G1 X102.225 Y120.209 E0.27480
M204 S1250
G1 X102.072 Y119.779 F9000.000
G1 E-2.24000 F2400.000
;WIPE_START
G1 F7200.000
G1 X105.105 Y120.200 E-0.91200
;WIPE_END
G1 E-0.04800 F2400.000
G1 Z0.400 F9000.000
G1 X102.225 Y129.772
G1 Z0.200
G1 E3.20000 F1500.000
M204 S800
;TYPE:Perimeter
G1 F1200.000
G1 X122.957 Y129.772 E0.65003
G1 X123.264 Y132.178 E0.07606
G1 X123.460 Y134.257 E0.06546
G1 X123.540 Y136.173 E0.06014
G1 X123.443 Y137.790 E0.05079
G1 X123.050 Y138.971 E0.03901
G1 X122.305 Y139.713 E0.03297
G1 X121.485 Y140.188 E0.02973
G1 X120.609 Y140.478 E0.02893
G1 X119.724 Y140.618 E0.02808
G1 X118.870 Y140.636 E0.02679
G1 X118.076 Y140.552 E0.02504
G1 X117.367 Y140.373 E0.02292
G1 X116.804 Y140.105 E0.01958
G1 X116.074 Y139.562 E0.02852
G1 X115.566 Y139.103 E0.02145
G1 X115.202 Y138.681 E0.01746
G1 X114.657 Y137.827 E0.03178
G1 X114.497 Y137.638 E0.00777
G1 X114.242 Y137.420 E0.01051
G1 X113.961 Y137.248 E0.01034
G1 X113.607 Y137.095 E0.01207
G1 X113.204 Y136.976 E0.01318
G1 X112.783 Y136.902 E0.01340
G1 X112.374 Y136.881 E0.01285
G1 X112.008 Y136.914 E0.01151
G1 X111.714 Y136.993 E0.00956
G1 X111.492 Y137.112 E0.00790
G1 X111.118 Y137.446 E0.01571
G1 X110.796 Y137.852 E0.01624
G1 X110.117 Y138.857 E0.03803
G1 X109.631 Y139.405 E0.02298
G1 X108.970 Y139.896 E0.02581
G1 X108.106 Y140.258 E0.02936
G1 X107.043 Y140.457 E0.03393
G1 X105.803 Y140.534 E0.03894
G1 X104.787 Y140.480 E0.03190
G1 X103.928 Y140.263 E0.02779
G1 X103.220 Y139.835 E0.02594
G1 X102.731 Y139.205 E0.02499
G1 X102.468 Y138.474 E0.02438
G1 X102.350 Y137.688 E0.02491
G1 X102.313 Y136.842 E0.02654
G1 X102.150 Y129.772 E0.22174
G1 X102.165 Y129.772 E0.00046
M204 S1250
G1 X102.536 Y130.149 F9000.000
M204 S800
;TYPE:External perimeter
G1 F1200.000
G1 X122.625 Y130.149 E0.62986
G1 X122.889 Y132.220 E0.06545
G1 X123.084 Y134.282 E0.06495
G1 X123.162 Y136.170 E0.05923
G1 X123.070 Y137.718 E0.04864
G1 X122.721 Y138.767 E0.03465
G1 X122.074 Y139.411 E0.02863
G1 X121.329 Y139.842 E0.02698
G1 X120.520 Y140.111 E0.02675
G1 X119.691 Y140.241 E0.02630
G1 X118.886 Y140.258 E0.02524
G1 X118.142 Y140.180 E0.02345
G1 X117.496 Y140.017 E0.02091
G1 X116.999 Y139.780 E0.01725
G1 X116.313 Y139.270 E0.02680
G1 X115.837 Y138.839 E0.02015
G1 X115.506 Y138.456 E0.01588
G1 X114.961 Y137.602 E0.03173
G1 X114.765 Y137.371 E0.00951
G1 X114.465 Y137.114 E0.01240
G1 X114.135 Y136.912 E0.01213
G1 X113.736 Y136.740 E0.01361
G1 X113.291 Y136.609 E0.01455
G1 X112.826 Y136.527 E0.01479
G1 X112.367 Y136.503 E0.01441
G1 X111.942 Y136.541 E0.01339
G1 X111.574 Y136.641 E0.01195
G1 X111.274 Y136.801 E0.01066
G1 X110.843 Y137.186 E0.01813
G1 X110.492 Y137.629 E0.01771
G1 X109.819 Y138.625 E0.03771
G1 X109.375 Y139.126 E0.02097
G1 X108.782 Y139.566 E0.02315
G1 X107.998 Y139.895 E0.02667
G1 X106.996 Y140.082 E0.03195
G1 X105.801 Y140.157 E0.03753
G1 X104.844 Y140.105 E0.03006
G1 X104.075 Y139.912 E0.02487
G1 X103.475 Y139.548 E0.02198
G1 X103.066 Y139.021 E0.02093
G1 X102.835 Y138.381 E0.02134
G1 X102.726 Y137.651 E0.02312
G1 X102.690 Y136.830 E0.02579
G1 X102.538 Y130.209 E0.20764
M204 S1250
G1 X102.533 Y129.749 F9000.000
G1 E-2.24000 F2400.000
;WIPE_START
G1 F7200.000
G1 X105.418 Y130.200 E-0.91200
;WIPE_END
G1 E-0.04800 F2400.000
G1 Z0.400 F9000.000
G1 X78.033 Y129.772
G1 Z0.200
G1 E3.20000 F1500.000
M204 S800
;TYPE:Perimeter
G1 F1200.000
G1 X77.826 Y132.979 E0.10077
G1 X77.434 Y137.058 E0.12849
G1 X76.969 Y139.160 E0.06751
G1 X76.235 Y139.860 E0.03182
G1 X75.502 Y140.277 E0.02642
G1 X74.729 Y140.531 E0.02550
G1 X73.953 Y140.657 E0.02466
G1 X73.197 Y140.684 E0.02372
G1 X72.486 Y140.636 E0.02234
G1 X71.844 Y140.532 E0.02040
G1 X71.255 Y140.381 E0.01905
G1 X70.270 Y139.913 E0.03422
G1 X69.563 Y139.254 E0.03028
G1 X69.110 Y138.557 E0.02607
G1 X68.542 Y137.441 E0.03926
G1 X68.296 Y137.145 E0.01206
G1 X67.974 Y136.961 E0.01165
G1 X67.363 Y136.866 E0.01939
G1 X66.399 Y136.932 E0.03027
G1 X65.829 Y137.118 E0.01883
G1 X65.492 Y137.370 E0.01320
G1 X65.212 Y137.739 E0.01449
G1 X64.905 Y138.266 E0.01915
G1 X64.481 Y138.911 E0.02420
G1 X63.836 Y139.577 E0.02907
G1 X62.905 Y140.141 E0.03413
G1 X61.620 Y140.606 E0.04283
G1 X60.332 Y140.811 E0.04088
G1 X59.063 Y140.677 E0.04003
G1 X57.907 Y140.094 E0.04059
G1 X57.032 Y139.029 E0.04322
G1 X56.535 Y137.538 E0.04928
G1 X56.423 Y135.630 E0.05993
G1 X56.704 Y133.288 E0.07397
G1 X57.239 Y129.772 E0.11151
G1 X77.973 Y129.772 E0.65010
M204 S1250
G1 X77.631 Y130.149 F9000.000
M204 S800
;TYPE:External perimeter
G1 F1200.000
G1 X77.450 Y132.949 E0.08797
G1 X77.061 Y136.999 E0.12758
M73 P1 R106
G1 X76.626 Y138.967 E0.06318
G1 X76.008 Y139.555 E0.02676
G1 X75.349 Y139.931 E0.02379
G1 X74.640 Y140.164 E0.02339
G1 X73.916 Y140.281 E0.02300
G1 X73.203 Y140.306 E0.02236
G1 X72.529 Y140.261 E0.02118
G1 X71.921 Y140.163 E0.01931
G1 X71.384 Y140.025 E0.01737
G1 X70.484 Y139.597 E0.03125
G1 X69.854 Y139.010 E0.02701
G1 X69.437 Y138.368 E0.02399
G1 X68.859 Y137.232 E0.03996
G1 X68.543 Y136.852 E0.01551
G1 X68.101 Y136.599 E0.01597
G1 X67.379 Y136.487 E0.02290
G1 X66.327 Y136.559 E0.03305
G1 X65.652 Y136.779 E0.02226
G1 X65.223 Y137.101 E0.01681
G1 X64.898 Y137.529 E0.01687
G1 X64.584 Y138.068 E0.01955
G1 X64.186 Y138.675 E0.02276
G1 X63.599 Y139.279 E0.02642
G1 X62.741 Y139.799 E0.03144
G1 X61.525 Y140.239 E0.04054
G1 X60.322 Y140.430 E0.03820
G1 X59.171 Y140.309 E0.03631
G1 X58.148 Y139.793 E0.03593
G1 X57.368 Y138.844 E0.03853
G1 X56.908 Y137.466 E0.04552
G1 X56.801 Y135.642 E0.05731
G1 X57.077 Y133.339 E0.07272
G1 X57.563 Y130.149 E0.10117
G1 X77.571 Y130.149 E0.62733
M204 S1250
G1 X78.031 Y130.146 F9000.000
G1 E-2.24000 F2400.000
;WIPE_START
G1 F7200.000
G1 X77.450 Y132.949 E-0.88744
G1 X77.443 Y133.026 E-0.02456
;WIPE_END
G1 E-0.04800 F2400.000
G1 Z0.400 F9000.000
G1 X58.764 Y119.772
G1 Z0.200
G1 E3.20000 F1500.000
M204 S800
;TYPE:Perimeter
G1 F1200.000
G1 X78.567 Y119.772 E0.62091
G1 X78.186 Y127.405 E0.23963
G1 X78.061 Y129.346 E0.06099
G1 X57.304 Y129.346 E0.65081
G1 X58.755 Y119.831 E0.30178
M204 S1250
G1 X59.088 Y120.149 F9000.000
M204 S800
;TYPE:External perimeter
G1 F1200.000
G1 X78.170 Y120.149 E0.59833
G1 X77.810 Y127.383 E0.22711
G1 X77.707 Y128.969 E0.04982
G1 X57.743 Y128.969 E0.62596
G1 X59.079 Y120.208 E0.27786
M204 S1250
G1 X58.941 Y119.777 F9000.000
G1 E-2.24000 F2400.000
;WIPE_START
G1 F7200.000
G1 X61.959 Y120.199 E-0.91200
;WIPE_END
G1 E-0.04800 F2400.000
G1 Z0.400 F9000.000
G1 X59.755 Y109.772
G1 Z0.200
G1 E3.20000 F1500.000
M204 S800
;TYPE:Perimeter
G1 F1200.000
G1 X78.963 Y109.772 E0.60225
G1 X78.581 Y119.346 E0.30043
G1 X58.829 Y119.346 E0.61934
G1 X59.030 Y118.027 E0.04183
G1 X59.749 Y109.832 E0.25795
M204 S1250
G1 X60.100 Y110.149 F9000.000
M204 S800
;TYPE:External perimeter
G1 F1200.000
G1 X78.570 Y110.149 E0.57912
G1 X78.219 Y118.969 E0.27676
G1 X59.268 Y118.969 E0.59421
G1 X59.404 Y118.072 E0.02845
G1 X60.095 Y110.209 E0.24750
M204 S1250
G1 X60.113 Y109.749 F9000.000
G1 E-2.24000 F2400.000
;WIPE_START
G1 F7200.000
G1 X62.975 Y110.199 E-0.91200
;WIPE_END
G1 E-0.04800 F2400.000
G1 Z0.400 F9000.000
G1 X60.414 Y99.772
G1 Z0.200
G1 E3.20000 F1500.000
M204 S800
;TYPE:Perimeter
G1 F1200.000
G1 X79.295 Y99.772 E0.59199
G1 X78.979 Y109.346 E0.30035
G1 X59.792 Y109.346 E0.60160
G1 X60.289 Y103.695 E0.17787
G1 X60.412 Y99.832 E0.12118
M204 S1250
G1 X60.780 Y100.149 F9000.000
M204 S800
;TYPE:External perimeter
G1 F1200.000
G1 X78.905 Y100.149 E0.56832
G1 X78.614 Y108.969 E0.27670
G1 X60.204 Y108.969 E0.57725
G1 X60.665 Y103.717 E0.16529
G1 X60.778 Y100.209 E0.11006
M204 S1250
G1 X60.788 Y99.749 F9000.000
G1 E-2.24000 F2400.000
;WIPE_START
G1 F7200.000
G1 X63.658 Y100.199 E-0.91200
;WIPE_END
G1 E-0.04800 F2400.000
G1 Z0.400 F9000.000
G1 X60.703 Y90.772
G1 Z0.200
G1 E3.20000 F1500.000
M204 S800
;TYPE:Perimeter
G1 F1200.000
G1 X119.407 Y90.772 E1.84063
G1 X119.380 Y93.154 E0.07470
G1 X119.512 Y99.346 E0.19419
G1 X99.844 Y99.346 E0.61668
G1 X99.844 Y99.466 E0.00376
G1 X80.269 Y99.466 E0.61373
G1 X80.269 Y99.346 E0.00376
G1 X60.428 Y99.346 E0.62211
G1 X60.701 Y90.832 E0.26709
M204 S1250
G1 X61.068 Y91.149 F9000.000
M204 S800
;TYPE:External perimeter
G1 F1200.000
G1 X119.026 Y91.149 E1.81722
G1 X119.003 Y93.156 E0.06293
G1 X119.126 Y98.969 E0.18230
G1 X99.466 Y98.969 E0.61643
G1 X99.466 Y99.089 E0.00376
G1 X80.646 Y99.089 E0.59009
G1 X80.646 Y98.969 E0.00376
G1 X60.817 Y98.969 E0.62173
G1 X61.066 Y91.209 E0.24344
M204 S1250
G1 X60.914 Y90.780 F9000.000
G1 E-2.24000 F2400.000
;WIPE_START
G1 F7200.000
G1 X63.946 Y91.206 E-0.91200
;WIPE_END
G1 E-0.04800 F2400.000
G1 Z0.400 F9000.000
G1 X60.548 Y79.772
G1 Z0.200
G1 E3.20000 F1500.000
M204 S800
;TYPE:Perimeter
G1 F1200.000
G1 X80.658 Y79.772 E0.63053
M73 P1 R105
G1 X82.874 Y80.202 E0.07078
G1 X86.459 Y80.478 E0.11275
G1 X90.561 Y80.525 E0.12863
G1 X94.640 Y80.333 E0.12802
G1 X98.150 Y79.902 E0.11089
G1 X98.627 Y79.772 E0.01548
G1 X119.631 Y79.772 E0.65857
G1 X119.494 Y83.315 E0.11116
G1 X119.412 Y90.346 E0.22048
G1 X60.712 Y90.346 E1.84052
G1 X60.549 Y79.832 E0.32970
M204 S1250
G1 X60.931 Y80.149 F9000.000
M204 S800
;TYPE:External perimeter
G1 F1200.000
G1 X80.622 Y80.149 E0.61739
G1 X82.823 Y80.576 E0.07032
G1 X86.443 Y80.855 E0.11381
G1 X90.568 Y80.902 E0.12936
G1 X94.672 Y80.709 E0.12881
G1 X98.223 Y80.273 E0.11219
G1 X98.677 Y80.149 E0.01475
G1 X119.239 Y80.149 E0.64470
G1 X119.117 Y83.305 E0.09904
G1 X119.040 Y89.969 E0.20895
G1 X61.083 Y89.969 E1.81720
G1 X60.932 Y80.209 E0.30605
M204 S1250
G1 X60.751 Y79.792 F9000.000
G1 E-2.24000 F2400.000
;WIPE_START
G1 F7200.000
G1 X63.812 Y80.200 E-0.91200
;WIPE_END
G1 E-0.04800 F2400.000
G1 Z0.400 F9000.000
G1 X60.057 Y69.772
G1 Z0.200
G1 E3.20000 F1500.000
M204 S800
;TYPE:Perimeter
G1 F1200.000
G1 X79.492 Y69.772 E0.60938
G1 X79.253 Y74.624 E0.15231
G1 X79.754 Y79.346 E0.14890
G1 X60.563 Y79.346 E0.60172
G1 X60.060 Y69.832 E0.29873
M204 S1250
G1 X60.454 Y70.149 F9000.000
M204 S800
;TYPE:External perimeter
G1 F1200.000
G1 X79.096 Y70.149 E0.58450
G1 X78.875 Y74.634 E0.14081
G1 X79.335 Y78.969 E0.13667
G1 X60.920 Y78.969 E0.57736
G1 X60.458 Y70.209 E0.27505
M204 S1250
G1 X60.307 Y69.777 F9000.000
G1 E-2.24000 F2400.000
;WIPE_START
G1 F7200.000
G1 X63.338 Y70.200 E-0.91200
;WIPE_END
G1 E-0.04800 F2400.000
G1 Z0.400 F9000.000
G1 X59.280 Y59.772
G1 Z0.200
G1 E3.20000 F1500.000
M204 S800
;TYPE:Perimeter
G1 F1200.000
G1 X80.955 Y59.772 E0.67961
G1 X80.341 Y63.132 E0.10709
G1 X79.485 Y69.346 E0.19669
G1 X60.033 Y69.346 E0.60991
G1 X59.964 Y68.073 E0.03999
G1 X59.285 Y59.832 E0.25926
M204 S1250
G1 X59.690 Y60.149 F9000.000
M204 S800
;TYPE:External perimeter
G1 F1200.000
G1 X80.503 Y60.149 E0.65259
G1 X79.968 Y63.072 E0.09317
G1 X79.157 Y68.969 E0.18664
G1 X60.390 Y68.969 E0.58840
G1 X60.340 Y68.047 E0.02895
G1 X59.695 Y60.209 E0.24659
M204 S1250
G1 X59.679 Y59.749 F9000.000
G1 E-2.24000 F2400.000
;WIPE_START
G1 F7200.000
G1 X62.575 Y60.201 E-0.91200
;WIPE_END
G1 E-0.04800 F2400.000
G1 Z0.400 F9000.000
G1 X58.396 Y49.772
G1 Z0.200
G1 E3.20000 F1500.000
M204 S800
;TYPE:Perimeter
G1 F1200.000
G1 X82.780 Y49.772 E0.76455
M73 P2 R105
