; generated by PrusaSlicer 2.3.3+win64 on 2022-03-17 at 13:08:10 UTC


;
;

;
;
; 

; external perimeters extrusion width = 0.45mm
; perimeters extrusion width = 0.45mm
; infill extrusion width = 0.45mm
; solid infill extrusion width = 0.45mm
; top infill extrusion width = 0.40mm
; first layer extrusion width = 0.42mm

M73 P0 R123
M201 X1250 Y1250 Z400 E5000 ; sets maximum accelerations, mm/sec^2
M203 X180 Y180 Z12 E80 ; sets maximum feedrates, mm/sec
M204 P1250 R1250 T1250 ; sets acceleration (P, T) and retract acceleration (R), mm/sec^2
M205 X8.00 Y8.00 Z2.00 E10.00 ; sets the jerk limits, mm/sec
M205 S0 T0 ; sets the minimum extruding and travel feed rate, mm/sec
M107
;TYPE:Custom
G90 ; use absolute coordinates
M83 ; extruder relative mode
M104 S170 ; set extruder temp for bed leveling
M140 S85 ; set bed temp
M109 R170 ; wait for bed leveling temp
M190 S85 ; wait for bed temp
G28 ; home all without mesh bed level
G29 ; mesh bed leveling 
M104 S230 ; set extruder temp
G92 E0.0
G1 Y-2.0 X179 F2400
G1 Z3 F720
M109 S230 ; wait for extruder temp

; intro line
G1 X170 F1000
G1 Z0.2 F720
G1 X110.0 E8.0 F900
G1 X40.0 E10.0 F700
G92 E0.0

M221 S95 ; set flow
G21 ; set units to millimeters
G90 ; use absolute coordinates
M83 ; use relative distances for extrusion
M900 K0.2 ; Filament gcode
;LAYER_CHANGE
;Z:0.2
;HEIGHT:0.2
;BEFORE_LAYER_CHANGE
G92 E0.0
;0.2


G1 E-3.20000 F2400.000
G1 Z0.200 F9000.000
;AFTER_LAYER_CHANGE
;0.2
G1 Z0.400
G1 X42.907 Y36.490
G1 Z0.200
G1 E3.20000 F1500.000
M204 S800
;TYPE:Skirt
;WIDTH:0.42
G1 F1200.000
G1 X43.895 Y35.048 E0.05480
G1 X44.261 Y34.651 E0.01692
G1 X45.462 Y33.693 E0.04818
G1 X47.031 Y32.915 E0.05493
G1 X48.650 Y32.451 E0.05279
G1 X49.944 Y32.248 E0.04107
G1 X51.178 Y32.158 E0.03879
G1 X129.112 Y32.063 E2.44356
G1 X131.215 Y32.223 E0.06614
G1 X133.096 Y32.693 E0.06081
G1 X134.770 Y33.467 E0.05781
G1 X136.108 Y34.453 E0.05213
G1 X137.270 Y35.764 E0.05493
G1 X138.047 Y37.158 E0.05005
G1 X138.525 Y38.693 E0.05038
G1 X138.679 Y40.183 E0.04697
G1 X138.634 Y42.460 E0.07143
G1 X134.743 Y132.868 E2.83731
G1 X134.448 Y134.947 E0.06582
G1 X134.135 Y136.131 E0.03840
G1 X133.759 Y137.108 E0.03281
G1 X133.269 Y138.059 E0.03353
G1 X132.535 Y139.126 E0.04063
G1 X131.320 Y140.366 E0.05442
G1 X130.239 Y141.148 E0.04184
G1 X128.900 Y141.821 E0.04699
G1 X127.095 Y142.381 E0.05925
G1 X124.579 Y142.686 E0.07946
G1 X71.128 Y143.146 E1.67599
G1 X55.203 Y142.640 E0.49958
G1 X53.268 Y142.287 E0.06165
G1 X51.627 Y141.700 E0.05465
G1 X49.821 Y140.651 E0.06551
G1 X48.395 Y139.336 E0.06082
G1 X47.220 Y137.636 E0.06478
G1 X46.522 Y136.060 E0.05404
G1 X46.084 Y134.332 E0.05590
G1 X45.872 Y132.193 E0.06738
G1 X41.942 Y42.691 E2.80900
G1 X41.978 Y40.463 E0.06987
G1 X42.238 Y38.403 E0.06510
G1 X42.887 Y36.547 E0.06164
M204 S1250
; printing object m.stl id:0 copy 0
G1 E-2.24000 F2400.000
;WIPE_START
G1 F7200.000
G1 X43.895 Y35.048 E-0.57184
G1 X44.261 Y34.651 E-0.17091
G1 X44.678 Y34.318 E-0.16925
;WIPE_END
G1 E-0.04800 F2400.000
G1 Z0.400 F9000.000
G1 X76.179 Y87.590
G1 Z0.200
G1 E3.20000 F1500.000
M204 S800
;TYPE:Perimeter
G1 F1200.000
G1 X104.504 Y87.590 E0.88812
G1 X105.445 Y91.346 E0.12143
G1 X106.955 Y97.164 E0.18844
G1 X73.676 Y97.164 E1.04346
G1 X74.678 Y93.152 E0.12964
G1 X76.164 Y87.647 E0.17877
M204 S1250
G1 X76.468 Y87.967 F9000.000
M204 S800
;TYPE:External perimeter
G1 F1200.000
G1 X104.210 Y87.967 E0.86983
G1 X105.080 Y91.440 E0.11225
G1 X106.468 Y96.787 E0.17321
G1 X74.159 Y96.787 E1.01303
G1 X75.043 Y93.247 E0.11439
G1 X76.452 Y88.025 E0.16961
M204 S1250
G1 X76.502 Y87.568 F9000.000
G1 X76.452 Y87.164
M204 S800
;TYPE:Perimeter
G1 F1200.000
G1 X76.284 Y87.164 E0.00527
G1 X76.900 Y84.831 E0.07564
G1 X77.326 Y83.339 E0.04865
G1 X77.821 Y81.787 E0.05109
G1 X78.428 Y80.112 E0.05585
G1 X79.473 Y77.590 E0.08561
G1 X101.897 Y77.590 E0.70309
G1 X102.171 Y78.503 E0.02991
G1 X102.892 Y81.183 E0.08701
G1 X104.401 Y87.164 E0.19340
G1 X76.512 Y87.164 E0.87442
M204 S1250
G1 X76.774 Y86.787 F9000.000
M204 S800
;TYPE:External perimeter
G1 F1200.000
G1 X77.264 Y84.931 E0.06017
G1 X77.687 Y83.448 E0.04835
G1 X78.178 Y81.908 E0.05067
G1 X78.780 Y80.249 E0.05535
G1 X79.725 Y77.967 E0.07745
G1 X101.616 Y77.967 E0.68640
M73 P0 R122
G1 X101.809 Y78.606 E0.02094
G1 X102.527 Y81.278 E0.08674
G1 X103.917 Y86.787 E0.17813
G1 X76.834 Y86.787 E0.84916
M204 S1250
G1 X76.376 Y86.746 F9000.000
G1 E-2.24000 F2400.000
;WIPE_START
G1 F7200.000
G1 X77.264 Y84.931 E-0.60315
G1 X77.531 Y83.993 E-0.30885
;WIPE_END
G1 E-0.04800 F2400.000
G1 Z0.400 F9000.000
G1 X80.454 Y77.164
G1 Z0.200
G1 E3.20000 F1500.000
M204 S800
;TYPE:Perimeter
G1 F1200.000
G1 X80.003 Y76.362 E0.02885
G1 X80.849 Y74.967 E0.05114
G1 X81.726 Y74.109 E0.03848
G1 X82.725 Y73.585 E0.03536
G1 X83.778 Y73.393 E0.03358
G1 X84.818 Y73.494 E0.03274
G1 X85.797 Y73.836 E0.03253
G1 X86.692 Y74.372 E0.03271
G1 X87.447 Y75.033 E0.03147
G1 X87.699 Y75.280 E0.01103
G1 X88.629 Y76.046 E0.03778
G1 X88.245 Y77.164 E0.03706
G1 X80.514 Y77.164 E0.24240
M204 S1250
G1 X80.675 Y76.787 F9000.000
M204 S800
;TYPE:External perimeter
G1 F1200.000
G1 X80.440 Y76.369 E0.01503
G1 X81.147 Y75.204 E0.04273
G1 X81.950 Y74.418 E0.03526
G1 X82.849 Y73.946 E0.03182
G1 X83.794 Y73.773 E0.03012
G1 X84.736 Y73.865 E0.02967
G1 X85.637 Y74.179 E0.02991
G1 X86.470 Y74.678 E0.03043
G1 X87.191 Y75.310 E0.03007
G1 X87.446 Y75.560 E0.01121
G1 X88.187 Y76.171 E0.03010
G1 X87.976 Y76.787 E0.02042
G1 X80.735 Y76.787 E0.22704
M204 S1250
G1 X80.302 Y76.931 F9000.000
G1 E-2.24000 F2400.000
;WIPE_START
G1 F7200.000
G1 X80.440 Y76.369 E-0.16197
G1 X81.147 Y75.204 E-0.43156
G1 X81.866 Y74.501 E-0.31847
;WIPE_END
G1 E-0.04800 F2400.000
G1 Z0.400 F9000.000
G1 X91.637 Y76.021
G1 Z0.200
G1 E3.20000 F1500.000
M204 S800
;TYPE:Perimeter
G1 F1200.000
G1 X92.563 Y75.325 E0.03634
G1 X93.307 Y74.707 E0.03032
G1 X94.063 Y74.162 E0.02920
G1 X95.052 Y73.688 E0.03441
G1 X96.177 Y73.361 E0.03672
G1 X97.357 Y73.243 E0.03718
G1 X98.632 Y73.403 E0.04029
G1 X99.823 Y73.945 E0.04105
G1 X100.829 Y74.926 E0.04406
G1 X101.934 Y77.164 E0.07824
G1 X92.018 Y77.164 E0.31091
G1 X91.656 Y76.078 E0.03589
M204 S1250
G1 X92.080 Y76.159 F9000.000
M204 S800
;TYPE:External perimeter
G1 F1200.000
G1 X92.797 Y75.621 E0.02811
G1 X93.538 Y75.005 E0.03021
G1 X94.256 Y74.488 E0.02774
G1 X95.187 Y74.041 E0.03238
G1 X96.249 Y73.732 E0.03466
G1 X97.352 Y73.622 E0.03476
G1 X98.528 Y73.770 E0.03716
G1 X99.607 Y74.261 E0.03718
G1 X100.520 Y75.151 E0.03997
G1 X101.327 Y76.787 E0.05719
G1 X92.290 Y76.787 E0.28336
G1 X92.099 Y76.216 E0.01886
M204 S1250
G1 X91.760 Y75.920 F9000.000
G1 E-2.24000 F2400.000
;WIPE_START
G1 F7200.000
G1 X92.797 Y75.621 E-0.29046
G1 X93.538 Y75.005 E-0.30508
G1 X94.256 Y74.488 E-0.28019
G1 X94.359 Y74.438 E-0.03627
;WIPE_END
G1 E-0.04800 F2400.000
G1 Z0.400 F9000.000
G1 X109.083 Y87.590
G1 Z0.200
G1 E3.20000 F1500.000
M204 S800
;TYPE:Perimeter
G1 F1200.000
G1 X129.088 Y87.590 E0.62724
G1 X129.144 Y97.164 E0.30020
G1 X109.155 Y97.164 E0.62674
G1 X109.201 Y93.159 E0.12556
G1 X109.084 Y87.649 E0.17280
M204 S1250
G1 X109.468 Y87.967 F9000.000
M204 S800
;TYPE:External perimeter
G1 F1200.000
G1 X128.713 Y87.967 E0.60341
G1 X128.765 Y96.787 E0.27655
G1 X109.536 Y96.787 E0.60289
G1 X109.578 Y93.158 E0.11379
G1 X109.469 Y88.027 E0.16092
M204 S1250
G1 X109.467 Y87.567 F9000.000
G1 E-2.24000 F2400.000
;WIPE_START
G1 F7200.000
G1 X112.349 Y88.018 E-0.91200
;WIPE_END
G1 E-0.04800 F2400.000
G1 Z0.400 F9000.000
G1 X108.682 Y77.590
G1 Z0.200
G1 E3.20000 F1500.000
M204 S800
;TYPE:Perimeter
G1 F1200.000
G1 X129.208 Y77.590 E0.64359
G1 X129.082 Y80.952 E0.10551
G1 X129.086 Y87.164 E0.19476
G1 X109.074 Y87.164 E0.62746
G1 X109.041 Y85.649 E0.04752
G1 X108.684 Y77.649 E0.25105
M204 S1250
G1 X109.076 Y77.967 F9000.000
M204 S800
;TYPE:External perimeter
G1 F1200.000
G1 X128.816 Y77.967 E0.61895
G1 X128.705 Y80.945 E0.09346
G1 X128.708 Y86.787 E0.18315
G1 X109.443 Y86.787 E0.60405
G1 X109.418 Y85.636 E0.03608
G1 X109.079 Y78.027 E0.23883
M204 S1250
G1 X109.070 Y77.567 F9000.000
G1 E-2.24000 F2400.000
;WIPE_START
G1 F7200.000
G1 X111.959 Y78.018 E-0.91200
;WIPE_END
G1 E-0.04800 F2400.000
G1 Z0.400 F9000.000
G1 X108.041 Y67.590
G1 Z0.200
G1 E3.20000 F1500.000
M204 S800
;TYPE:Perimeter
G1 F1200.000
G1 X130.101 Y67.590 E0.69168
G1 X129.812 Y69.735 E0.06787
G1 X129.295 Y75.261 E0.17403
G1 X129.224 Y77.164 E0.05970
G1 X108.661 Y77.164 E0.64472
G1 X108.044 Y67.649 E0.29894
M204 S1250
G1 X108.443 Y67.967 F9000.000
M204 S800
;TYPE:External perimeter
G1 F1200.000
G1 X129.669 Y67.967 E0.66555
M73 P1 R122
G1 X129.438 Y69.692 E0.05459
G1 X128.918 Y75.236 E0.17460
G1 X128.861 Y76.787 E0.04864
G1 X109.015 Y76.787 E0.62225
G1 X108.447 Y68.026 E0.27524
M204 S1250
G1 X108.292 Y67.596 F9000.000
G1 E-2.24000 F2400.000
;WIPE_START
G1 F7200.000
G1 X111.327 Y68.018 E-0.91200
;WIPE_END
G1 E-0.04800 F2400.000
G1 Z0.400 F9000.000
G1 X107.125 Y57.590
G1 Z0.200
G1 E3.20000 F1500.000
M204 S800
;TYPE:Perimeter
G1 F1200.000
G1 X131.613 Y57.590 E0.76782
G1 X130.533 Y64.371 E0.21530
G1 X130.158 Y67.164 E0.08835
G1 X107.989 Y67.164 E0.69510
G1 X107.330 Y59.456 E0.24255
G1 X107.131 Y57.649 E0.05700
M204 S1250
G1 X107.545 Y57.967 F9000.000
M204 S800
;TYPE:External perimeter
G1 F1200.000
G1 X131.171 Y57.967 E0.74077
G1 X130.160 Y64.316 E0.20159
G1 X129.828 Y66.787 E0.07816
G1 X108.335 Y66.787 E0.67390
G1 X107.705 Y59.419 E0.23183
G1 X107.552 Y58.026 E0.04395
M204 S1250
G1 X107.534 Y57.567 F9000.000
G1 E-2.24000 F2400.000
;WIPE_START
G1 F7200.000
G1 X110.432 Y58.019 E-0.91200
;WIPE_END
G1 E-0.04800 F2400.000
G1 Z0.400 F9000.000
G1 X105.913 Y47.590
G1 Z0.200
G1 E3.20000 F1500.000
M204 S800
;TYPE:Perimeter
G1 F1200.000
G1 X133.087 Y47.590 E0.85203
G1 X132.896 Y49.331 E0.05494
G1 X132.178 Y54.161 E0.15310
G1 X131.686 Y57.164 E0.09540
G1 X107.078 Y57.164 E0.77157
G1 X106.403 Y51.022 E0.19372
G1 X105.921 Y47.649 E0.10684
M204 S1250
G1 X106.347 Y47.967 F9000.000
M204 S800
;TYPE:External perimeter
G1 F1200.000
G1 X132.666 Y47.967 E0.82521
G1 X132.522 Y49.283 E0.04153
G1 X131.805 Y54.103 E0.15278
G1 X131.366 Y56.787 E0.08527
G1 X107.416 Y56.787 E0.75093
G1 X106.777 Y50.975 E0.18331
G1 X106.356 Y48.026 E0.09340
M204 S1250
G1 X106.331 Y47.567 F9000.000
G1 E-2.24000 F2400.000
;WIPE_START
G1 F7200.000
G1 X109.236 Y48.019 E-0.91200
;WIPE_END
G1 E-0.04800 F2400.000
G1 Z0.400 F9000.000
G1 X133.134 Y47.164
G1 Z0.200
G1 E3.20000 F1500.000
M204 S800
;TYPE:Perimeter
G1 F1200.000
G1 X105.851 Y47.164 E0.85541
G1 X105.201 Y42.589 E0.14487
G1 X105.164 Y41.639 E0.02980
G1 X105.273 Y40.664 E0.03076
G1 X105.586 Y39.724 E0.03107
G1 X106.175 Y38.855 E0.03291
G1 X107.063 Y38.154 E0.03547
G1 X108.239 Y37.674 E0.03982
G1 X109.692 Y37.430 E0.04621
G1 X110.901 Y37.383 E0.03791
G1 X111.909 Y37.434 E0.03164
G1 X112.767 Y37.571 E0.02726
G1 X113.501 Y37.787 E0.02400
G1 X114.128 Y38.064 E0.02150
G1 X114.667 Y38.382 E0.01961
G1 X115.571 Y39.030 E0.03486
G1 X116.485 Y39.734 E0.03618
G1 X117.178 Y40.335 E0.02878
G1 X118.064 Y41.190 E0.03858
G1 X118.344 Y41.435 E0.01169
G1 X118.576 Y41.583 E0.00862
G1 X118.856 Y41.689 E0.00939
G1 X119.305 Y41.774 E0.01433
G1 X119.629 Y41.807 E0.01021
G1 X119.920 Y41.801 E0.00911
G1 X120.217 Y41.739 E0.00951
G1 X120.590 Y41.583 E0.01269
G1 X121.085 Y41.276 E0.01825
G1 X121.720 Y40.772 E0.02544
G1 X122.513 Y40.031 E0.03403
G1 X123.539 Y38.963 E0.04641
G1 X124.562 Y38.202 E0.03999
G1 X125.945 Y37.624 E0.04699
G1 X127.499 Y37.262 E0.05005
G1 X129.115 Y37.134 E0.05083
G1 X130.684 Y37.278 E0.04940
G1 X132.103 Y37.772 E0.04712
G1 X133.204 Y38.754 E0.04625
G1 X133.602 Y40.169 E0.04607
G1 X133.404 Y44.695 E0.14204
G1 X133.140 Y47.104 E0.07599
M204 S1250
G1 X132.796 Y46.787 F9000.000
M204 S800
;TYPE:External perimeter
G1 F1200.000
G1 X106.179 Y46.787 E0.83455
G1 X105.577 Y42.555 E0.13401
G1 X105.542 Y41.653 E0.02831
G1 X105.643 Y40.745 E0.02863
G1 X105.927 Y39.892 E0.02819
G1 X106.454 Y39.115 E0.02945
G1 X107.255 Y38.483 E0.03198
G1 X108.342 Y38.039 E0.03684
G1 X109.731 Y37.806 E0.04415
G1 X110.899 Y37.760 E0.03663
G1 X111.869 Y37.809 E0.03047
G1 X112.684 Y37.940 E0.02587
G1 X113.371 Y38.142 E0.02247
G1 X113.956 Y38.400 E0.02004
G1 X114.461 Y38.698 E0.01839
G1 X115.346 Y39.332 E0.03413
G1 X116.246 Y40.026 E0.03563
G1 X116.924 Y40.614 E0.02812
G1 X117.808 Y41.467 E0.03855
G1 X118.117 Y41.738 E0.01287
G1 X118.406 Y41.922 E0.01074
G1 X118.754 Y42.053 E0.01165
G1 X119.251 Y42.147 E0.01587
G1 X119.614 Y42.184 E0.01144
G1 X119.962 Y42.177 E0.01092
G1 X120.329 Y42.101 E0.01175
G1 X120.764 Y41.919 E0.01477
G1 X121.302 Y41.585 E0.01987
G1 X121.966 Y41.058 E0.02660
G1 X122.778 Y40.300 E0.03483
G1 X123.789 Y39.247 E0.04575
G1 X124.750 Y38.532 E0.03756
G1 X126.061 Y37.984 E0.04455
G1 X127.557 Y37.635 E0.04817
G1 X129.113 Y37.512 E0.04893
G1 X130.604 Y37.649 E0.04694
G1 X131.908 Y38.103 E0.04332
G1 X132.870 Y38.962 E0.04044
G1 X133.223 Y40.213 E0.04073
G1 X133.028 Y44.666 E0.13976
G1 X132.802 Y46.727 E0.06501
M204 S1250
G1 X132.787 Y47.186 F9000.000
G1 E-2.24000 F2400.000
;WIPE_START
G1 F7200.000
G1 X129.922 Y46.733 E-0.91200
;WIPE_END
G1 E-0.04800 F2400.000
G1 Z0.400 F9000.000
G1 X74.920 Y47.164
G1 Z0.200
G1 E3.20000 F1500.000
M204 S800
;TYPE:Perimeter
G1 F1200.000
G1 X47.392 Y47.164 E0.86312
G1 X47.159 Y44.322 E0.08939
G1 X47.083 Y42.380 E0.06093
G1 X47.114 Y40.769 E0.05054
G1 X47.263 Y39.477 E0.04076
G1 X47.554 Y38.685 E0.02647
G1 X48.103 Y38.058 E0.02613
G1 X48.790 Y37.652 E0.02501
G1 X49.536 Y37.413 E0.02457
G1 X50.310 Y37.281 E0.02463
G1 X51.103 Y37.217 E0.02492
G1 X52.659 Y37.180 E0.04883
G1 X53.553 Y37.209 E0.02803
G1 X54.424 Y37.343 E0.02763
G1 X55.264 Y37.601 E0.02754
G1 X56.078 Y37.993 E0.02833
G1 X56.871 Y38.527 E0.02998
G1 X57.657 Y39.206 E0.03256
G1 X58.460 Y40.038 E0.03625
G1 X59.279 Y41.010 E0.03985
G1 X59.567 Y41.323 E0.01335
G1 X59.808 Y41.515 E0.00965
G1 X60.029 Y41.638 E0.00793
G1 X60.252 Y41.715 E0.00741
G1 X60.491 Y41.759 E0.00759
G1 X61.137 Y41.779 E0.02027
G1 X61.850 Y41.743 E0.02239
G1 X62.035 Y41.704 E0.00593
G1 X62.169 Y41.644 E0.00461
G1 X62.340 Y41.525 E0.00651
G1 X64.081 Y39.859 E0.07558
G1 X64.726 Y39.289 E0.02698
G1 X65.339 Y38.807 E0.02446
G1 X65.954 Y38.400 E0.02311
G1 X66.596 Y38.063 E0.02274
G1 X67.283 Y37.788 E0.02322
G1 X68.036 Y37.562 E0.02464
G1 X68.879 Y37.370 E0.02711
G1 X69.899 Y37.182 E0.03253
G1 X70.639 Y37.170 E0.02319
G1 X71.510 Y37.321 E0.02772
G1 X72.431 Y37.615 E0.03030
G1 X73.351 Y38.057 E0.03202
G1 X74.212 Y38.654 E0.03286
G1 X74.943 Y39.434 E0.03349
G1 X75.432 Y40.418 E0.03446
G1 X75.531 Y41.502 E0.03412
G1 X74.926 Y47.104 E0.17668
M204 S1250
G1 X74.581 Y46.787 F9000.000
M204 S800
;TYPE:External perimeter
G1 F1200.000
G1 X47.739 Y46.787 E0.84161
G1 X47.536 Y44.299 E0.07824
G1 X47.460 Y42.377 E0.06033
G1 X47.491 Y40.794 E0.04963
G1 X47.632 Y39.565 E0.03879
G1 X47.884 Y38.881 E0.02286
G1 X48.347 Y38.352 E0.02204
G1 X48.945 Y37.998 E0.02179
G1 X49.626 Y37.780 E0.02240
G1 X50.357 Y37.655 E0.02327
G1 X51.122 Y37.594 E0.02406
G1 X52.658 Y37.557 E0.04816
G1 X53.518 Y37.586 E0.02699
G1 X54.340 Y37.712 E0.02607
G1 X55.126 Y37.953 E0.02579
G1 X55.890 Y38.321 E0.02658
G1 X56.642 Y38.827 E0.02842
G1 X57.397 Y39.480 E0.03132
G1 X58.180 Y40.291 E0.03532
G1 X58.996 Y41.259 E0.03971
G1 X59.310 Y41.600 E0.01451
G1 X59.597 Y41.830 E0.01155
G1 X59.875 Y41.984 E0.00995
G1 X60.156 Y42.081 E0.00933
G1 X60.450 Y42.135 E0.00939
G1 X61.141 Y42.156 E0.02165
G1 X61.899 Y42.118 E0.02381
G1 X62.151 Y42.064 E0.00809
G1 X62.355 Y41.975 E0.00698
G1 X62.574 Y41.822 E0.00838
G1 X64.337 Y40.136 E0.07649
G1 X64.967 Y39.579 E0.02637
G1 X65.560 Y39.113 E0.02363
G1 X66.146 Y38.725 E0.02204
G1 X66.754 Y38.406 E0.02153
G1 X67.408 Y38.144 E0.02208
G1 X68.133 Y37.927 E0.02372
G1 X68.955 Y37.739 E0.02646
G1 X69.937 Y37.558 E0.03129
G1 X70.609 Y37.548 E0.02109
G1 X71.420 Y37.688 E0.02580
G1 X72.291 Y37.967 E0.02867
G1 X73.161 Y38.384 E0.03026
G1 X73.965 Y38.942 E0.03067
G1 X74.630 Y39.651 E0.03049
G1 X75.062 Y40.523 E0.03051
G1 X75.152 Y41.499 E0.03073
G1 X74.588 Y46.727 E0.16488
M204 S1250
G1 X74.571 Y47.186 F9000.000
G1 E-2.24000 F2400.000
;WIPE_START
G1 F7200.000
G1 X71.708 Y46.733 E-0.91200
;WIPE_END
