; generated by PrusaSlicer 2.3.3+win64 on 2022-03-17 at 16:53:53 UTC


;
;

;
;
; 

; external perimeters extrusion width = 0.45mm
; perimeters extrusion width = 0.45mm
; infill extrusion width = 0.45mm
; solid infill extrusion width = 0.45mm
; top infill extrusion width = 0.40mm
; first layer extrusion width = 0.42mm

M73 P0 R86
M201 X1250 Y1250 Z400 E5000 ; sets maximum accelerations, mm/sec^2
M203 X180 Y180 Z12 E80 ; sets maximum feedrates, mm/sec
M204 P1250 R1250 T1250 ; sets acceleration (P, T) and retract acceleration (R), mm/sec^2
M205 X8.00 Y8.00 Z2.00 E10.00 ; sets the jerk limits, mm/sec
M205 S0 T0 ; sets the minimum extruding and travel feed rate, mm/sec
M107
;TYPE:Custom
G90 ; use absolute coordinates
M83 ; extruder relative mode
M104 S170 ; set extruder temp for bed leveling
M140 S85 ; set bed temp
M109 R170 ; wait for bed leveling temp
M190 S85 ; wait for bed temp
G28 ; home all without mesh bed level
G29 ; mesh bed leveling 
M104 S230 ; set extruder temp
G92 E0.0
G1 Y-2.0 X179 F2400
G1 Z3 F720
M109 S230 ; wait for extruder temp

; intro line
G1 X170 F1000
G1 Z0.2 F720
G1 X110.0 E8.0 F900
G1 X40.0 E10.0 F700
G92 E0.0

M221 S95 ; set flow
G21 ; set units to millimeters
G90 ; use absolute coordinates
M83 ; use relative distances for extrusion
M900 K0.2 ; Filament gcode
;LAYER_CHANGE
;Z:0.2
;HEIGHT:0.2
;BEFORE_LAYER_CHANGE
G92 E0.0
;0.2


G1 E-3.20000 F2400.000
G1 Z0.200 F9000.000
;AFTER_LAYER_CHANGE
;0.2
G1 Z0.400
G1 X79.245 Y59.591
G1 Z0.200
G1 E3.20000 F1500.000
M204 S800
;TYPE:Skirt
;WIDTH:0.42
G1 F1200.000
G1 X95.842 Y37.520 E0.86584
G1 X96.746 Y36.566 E0.04122
G1 X97.397 Y36.023 E0.02658
G1 X98.630 Y35.244 E0.04573
G1 X99.435 Y34.867 E0.02787
G1 X100.381 Y34.537 E0.03142
G1 X101.336 Y34.311 E0.03077
G1 X103.623 Y34.086 E0.07205
G1 X119.094 Y34.122 E0.48506
G1 X121.126 Y34.296 E0.06397
G1 X122.251 Y34.546 E0.03612
G1 X123.220 Y34.869 E0.03203
G1 X124.686 Y35.579 E0.05107
G1 X125.460 Y36.089 E0.02907
G1 X126.552 Y37.009 E0.04477
G1 X127.582 Y38.184 E0.04898
G1 X128.183 Y39.079 E0.03380
G1 X128.665 Y39.996 E0.03248
G1 X129.257 Y41.584 E0.05316
G1 X129.559 Y43.015 E0.04585
G1 X129.651 Y44.293 E0.04018
G1 X131.022 Y133.881 E2.80929
G1 X130.962 Y135.347 E0.04601
G1 X130.824 Y136.206 E0.02726
G1 X130.357 Y137.759 E0.05086
G1 X129.621 Y139.217 E0.05121
G1 X128.661 Y140.516 E0.05062
G1 X127.206 Y141.867 E0.06225
G1 X125.527 Y142.928 E0.06228
G1 X123.688 Y143.727 E0.06286
G1 X121.655 Y144.331 E0.06652
G1 X119.534 Y144.756 E0.06781
G1 X117.216 Y145.060 E0.07332
G1 X112.379 Y145.392 E0.15200
G1 X95.321 Y145.914 E0.53510
G1 X92.144 Y145.850 E0.09964
G1 X88.755 Y145.638 E0.10646
G1 X85.243 Y145.248 E0.11080
G1 X81.610 Y144.644 E0.11546
G1 X77.922 Y143.790 E0.11869
G1 X74.218 Y142.650 E0.12152
G1 X70.579 Y141.199 E0.12285
G1 X67.048 Y139.403 E0.12418
G1 X63.613 Y137.186 E0.12821
G1 X60.492 Y134.629 E0.12649
G1 X58.497 Y132.652 E0.08806
G1 X56.949 Y130.882 E0.07375
G1 X55.345 Y128.796 E0.08252
G1 X53.768 Y126.406 E0.08977
G1 X52.217 Y123.572 E0.10129
G1 X50.850 Y120.368 E0.10923
G1 X49.825 Y116.988 E0.11072
G1 X49.140 Y113.085 E0.12424
G1 X48.979 Y109.143 E0.12373
G1 X49.425 Y104.584 E0.14362
G1 X49.965 Y102.112 E0.07934
G1 X50.658 Y99.842 E0.07442
G1 X51.532 Y97.640 E0.07426
G1 X52.668 Y95.349 E0.08020
G1 X53.980 Y93.189 E0.07925
G1 X79.209 Y59.639 E1.31616
M204 S1250
; printing object Terrific Duup-Borwo.stl id:0 copy 0
G1 E-2.24000 F2400.000
;WIPE_START
G1 F7200.000
G1 X80.940 Y57.337 E-0.91200
;WIPE_END
G1 E-0.04800 F2400.000
G1 Z0.400 F9000.000
G1 X101.213 Y99.437
G1 Z0.200
G1 E3.20000 F1500.000
M204 S800
;TYPE:Perimeter
G1 F1200.000
G1 X101.571 Y103.859 E0.13911
G1 X101.823 Y107.686 E0.12024
G1 X101.932 Y110.246 E0.08032
G1 X101.970 Y112.745 E0.07838
G1 X102.581 Y116.761 E0.12736
G1 X102.678 Y117.583 E0.02595
G1 X102.745 Y118.414 E0.02614
G1 X102.773 Y119.262 E0.02662
G1 X102.751 Y120.131 E0.02723
G1 X102.672 Y121.020 E0.02798
G1 X102.585 Y121.566 E0.01734
G1 X102.286 Y122.106 E0.01935
G1 X101.862 Y122.499 E0.01814
G1 X101.388 Y122.767 E0.01705
G1 X100.896 Y122.952 E0.01649
G1 X100.392 Y123.086 E0.01634
G1 X98.466 Y123.469 E0.06158
G1 X96.911 Y123.567 E0.04884
G1 X95.384 Y123.631 E0.04792
G1 X93.842 Y123.658 E0.04838
G1 X92.285 Y123.637 E0.04880
G1 X90.722 Y123.560 E0.04908
G1 X89.154 Y123.418 E0.04937
G1 X87.585 Y123.201 E0.04964
G1 X86.022 Y122.902 E0.04991
G1 X84.467 Y122.511 E0.05028
G1 X82.887 Y122.005 E0.05201
G1 X81.961 Y121.522 E0.03274
G1 X81.071 Y121.017 E0.03208
G1 X80.186 Y120.461 E0.03277
G1 X79.319 Y119.850 E0.03326
G1 X78.487 Y119.181 E0.03349
G1 X77.702 Y118.450 E0.03362
G1 X76.982 Y117.651 E0.03372
G1 X76.344 Y116.783 E0.03379
G1 X75.805 Y115.839 E0.03407
G1 X75.429 Y114.923 E0.03105
G1 X75.130 Y114.757 E0.01074
G1 X74.910 Y114.571 E0.00902
G1 X74.725 Y114.295 E0.01043
G1 X74.168 Y112.427 E0.06110
G1 X73.941 Y110.679 E0.05529
G1 X73.997 Y108.941 E0.05450
G1 X74.317 Y107.246 E0.05410
G1 X74.880 Y105.618 E0.05400
G1 X75.669 Y104.085 E0.05406
G1 X76.665 Y102.671 E0.05422
G1 X77.850 Y101.401 E0.05447
G1 X79.208 Y100.303 E0.05475
G1 X80.733 Y99.395 E0.05567
G1 X82.759 Y98.640 E0.06776
G1 X84.776 Y98.148 E0.06512
G1 X86.798 Y97.879 E0.06394
G1 X88.817 Y97.796 E0.06336
G1 X90.828 Y97.867 E0.06310
G1 X92.825 Y98.056 E0.06289
G1 X94.805 Y98.329 E0.06269
G1 X96.765 Y98.655 E0.06228
G1 X101.154 Y99.427 E0.13973
M204 S1250
G1 X100.861 Y99.758 F9000.000
M204 S800
;TYPE:External perimeter
G1 F1200.000
G1 X101.195 Y103.887 E0.12988
G1 X101.446 Y107.707 E0.12002
G1 X101.555 Y110.256 E0.08002
G1 X101.594 Y112.777 E0.07903
G1 X102.207 Y116.811 E0.12796
G1 X102.303 Y117.620 E0.02553
G1 X102.368 Y118.435 E0.02564
G1 X102.396 Y119.264 E0.02600
G1 X102.375 Y120.109 E0.02651
G1 X102.297 Y120.973 E0.02720
G1 X102.223 Y121.441 E0.01486
G1 X101.985 Y121.870 E0.01539
G1 X101.638 Y122.193 E0.01486
G1 X101.228 Y122.424 E0.01475
G1 X100.780 Y122.592 E0.01500
G1 X100.307 Y122.719 E0.01537
G1 X98.417 Y123.094 E0.06040
G1 X96.892 Y123.190 E0.04793
G1 X95.373 Y123.254 E0.04765
G1 X93.841 Y123.281 E0.04805
G1 X92.297 Y123.260 E0.04840
G1 X90.748 Y123.184 E0.04862
G1 X89.196 Y123.043 E0.04886
G1 X87.646 Y122.829 E0.04906
G1 X86.103 Y122.534 E0.04926
G1 X84.570 Y122.148 E0.04957
G1 X83.033 Y121.655 E0.05063
G1 X82.141 Y121.191 E0.03152
G1 X81.265 Y120.694 E0.03160
G1 X80.396 Y120.147 E0.03219
G1 X79.546 Y119.548 E0.03258
G1 X78.734 Y118.896 E0.03268
G1 X77.971 Y118.185 E0.03267
G1 X77.275 Y117.413 E0.03261
G1 X76.661 Y116.577 E0.03251
G1 X76.145 Y115.674 E0.03262
G1 X75.736 Y114.662 E0.03420
G1 X75.345 Y114.445 E0.01401
G1 X75.194 Y114.317 E0.00621
G1 X75.070 Y114.132 E0.00699
G1 X74.538 Y112.349 E0.05836
G1 X74.319 Y110.660 E0.05338
G1 X74.373 Y108.983 E0.05263
G1 X74.683 Y107.343 E0.05232
G1 X75.228 Y105.767 E0.05229
G1 X75.992 Y104.281 E0.05240
G1 X76.958 Y102.909 E0.05259
G1 X78.108 Y101.678 E0.05283
G1 X79.424 Y100.613 E0.05308
G1 X80.897 Y99.736 E0.05375
G1 X82.869 Y99.001 E0.06600
G1 X84.846 Y98.519 E0.06379
G1 X86.830 Y98.255 E0.06277
G1 X88.818 Y98.173 E0.06236
G1 X90.804 Y98.243 E0.06230
G1 X92.781 Y98.430 E0.06229
G1 X94.749 Y98.702 E0.06227
G1 X96.701 Y99.026 E0.06206
G1 X100.802 Y99.748 E0.13054
M204 S1250
G1 X101.261 Y99.759 F9000.000
G1 E-2.24000 F2400.000
;WIPE_START
G1 F7200.000
G1 X101.074 Y102.615 E-0.91200
;WIPE_END
G1 E-0.04800 F2400.000
G1 Z0.400 F9000.000
G1 X103.221 Y100.636
G1 Z0.200
G1 E3.20000 F1500.000
M204 S800
;TYPE:Perimeter
G1 F1200.000
G1 X123.143 Y100.636 E0.62464
G1 X123.531 Y107.482 E0.21499
G1 X123.740 Y110.211 E0.08580
G1 X104.025 Y110.211 E0.61818
G1 X103.773 Y106.929 E0.10320
G1 X103.226 Y100.696 E0.19617
M204 S1250
G1 X103.632 Y101.013 F9000.000
M204 S800
;TYPE:External perimeter
G1 F1200.000
G1 X122.787 Y101.013 E0.60057
G1 X123.155 Y107.507 E0.20393
G1 X123.333 Y109.833 E0.07315
G1 X104.374 Y109.833 E0.59446
G1 X104.148 Y106.898 E0.09232
G1 X103.638 Y101.073 E0.18333
M204 S1250
G1 X103.621 Y100.614 F9000.000
G1 E-2.24000 F2400.000
;WIPE_START
G1 F7200.000
G1 X106.518 Y101.064 E-0.91200
;WIPE_END
G1 E-0.04800 F2400.000
G1 Z0.400 F9000.000
G1 X104.051 Y110.636
G1 Z0.200
G1 E3.20000 F1500.000
M204 S800
;TYPE:Perimeter
G1 F1200.000
G1 X123.773 Y110.636 E0.61835
G1 X124.168 Y115.797 E0.16228
G1 X124.577 Y120.211 E0.13897
G1 X104.344 Y120.211 E0.63439
M73 P1 R86
G1 X104.334 Y117.229 E0.09349
G1 X104.262 Y114.669 E0.08030
G1 X104.055 Y110.696 E0.12472
M204 S1250
G1 X104.449 Y111.013 F9000.000
M204 S800
;TYPE:External perimeter
G1 F1200.000
G1 X123.424 Y111.013 E0.59494
G1 X123.793 Y115.829 E0.15143
G1 X124.164 Y119.833 E0.12610
G1 X104.720 Y119.833 E0.60964
G1 X104.711 Y117.223 E0.08185
G1 X104.639 Y114.654 E0.08059
G1 X104.452 Y111.073 E0.11241
M204 S1250
G1 X104.443 Y110.614 F9000.000
G1 E-2.24000 F2400.000
;WIPE_START
G1 F7200.000
G1 X107.332 Y111.064 E-0.91200
;WIPE_END
G1 E-0.04800 F2400.000
G1 Z0.400 F9000.000
G1 X102.535 Y80.636
G1 Z0.200
G1 E3.20000 F1500.000
M204 S800
;TYPE:Perimeter
G1 F1200.000
G1 X122.739 Y80.636 E0.63348
M73 P1 R85
G1 X122.708 Y82.810 E0.06816
G1 X122.791 Y91.211 E0.26340
G1 X64.003 Y91.211 E1.84324
G1 X63.610 Y90.093 E0.03715
G1 X65.880 Y88.273 E0.09123
G1 X69.689 Y85.974 E0.13948
G1 X73.872 Y84.104 E0.14367
G1 X78.376 Y82.686 E0.14804
G1 X83.149 Y81.741 E0.15256
G1 X88.133 Y81.292 E0.15691
G1 X90.907 Y81.311 E0.08697
G1 X93.424 Y81.524 E0.07919
G1 X95.678 Y81.879 E0.07156
G1 X97.661 Y82.321 E0.06371
G1 X99.364 Y82.794 E0.05542
G1 X102.374 Y83.764 E0.09916
G1 X102.532 Y80.696 E0.09632
M204 S1250
G1 X102.893 Y81.013 F9000.000
M204 S800
;TYPE:External perimeter
G1 F1200.000
G1 X122.356 Y81.013 E0.61026
G1 X122.331 Y82.809 E0.05631
G1 X122.410 Y90.833 E0.25160
G1 X64.270 Y90.833 E1.82292
G1 X64.055 Y90.220 E0.02039
G1 X66.097 Y88.583 E0.08207
G1 X69.864 Y86.308 E0.13796
G1 X74.006 Y84.458 E0.14226
G1 X78.469 Y83.052 E0.14671
G1 X83.203 Y82.115 E0.15129
G1 X88.149 Y81.669 E0.15572
G1 X90.890 Y81.688 E0.08594
G1 X93.378 Y81.898 E0.07831
G1 X95.608 Y82.250 E0.07076
G1 X97.570 Y82.687 E0.06303
G1 X99.256 Y83.156 E0.05487
G1 X102.522 Y84.208 E0.10758
G1 X102.728 Y84.236 E0.00652
G1 X102.890 Y81.073 E0.09929
M204 S1250
G1 X102.908 Y80.614 F9000.000
G1 E-2.24000 F2400.000
;WIPE_START
G1 F7200.000
G1 X105.770 Y81.065 E-0.91200
;WIPE_END
G1 E-0.04800 F2400.000
G1 Z0.400 F9000.000
G1 X102.217 Y70.636
G1 Z0.200
G1 E3.20000 F1500.000
M204 S800
;TYPE:Perimeter
G1 F1200.000
G1 X122.961 Y70.636 E0.65041
G1 X122.831 Y74.133 E0.10970
G1 X122.745 Y80.211 E0.19059
G1 X102.557 Y80.211 E0.63299
G1 X102.672 Y77.964 E0.07053
G1 X102.334 Y71.561 E0.20105
G1 X102.224 Y70.696 E0.02733
M204 S1250
G1 X102.644 Y71.013 F9000.000
M204 S800
;TYPE:External perimeter
G1 F1200.000
G1 X122.569 Y71.013 E0.62473
G1 X122.454 Y74.123 E0.09756
G1 X122.373 Y79.833 E0.17907
G1 X102.954 Y79.833 E0.60889
G1 X103.049 Y77.964 E0.05870
G1 X102.709 Y71.527 E0.20210
G1 X102.652 Y71.073 E0.01435
M204 S1250
G1 X102.637 Y70.614 F9000.000
G1 E-2.24000 F2400.000
;WIPE_START
G1 F7200.000
G1 X105.532 Y71.064 E-0.91200
;WIPE_END
G1 E-0.04800 F2400.000
G1 Z0.400 F9000.000
G1 X100.738 Y60.636
G1 Z0.200
G1 E3.20000 F1500.000
M204 S800
;TYPE:Perimeter
G1 F1200.000
G1 X123.421 Y60.636 E0.71121
G1 X123.171 Y64.959 E0.13575
G1 X122.976 Y70.211 E0.16478
G1 X102.163 Y70.211 E0.65260
G1 X101.548 Y65.358 E0.15338
G1 X100.748 Y60.696 E0.14831
M204 S1250
G1 X101.186 Y61.014 F9000.000
M204 S800
;TYPE:External perimeter
G1 F1200.000
G1 X123.022 Y61.014 E0.68466
G1 X122.795 Y64.941 E0.12335
G1 X122.613 Y69.833 E0.15351
G1 X102.495 Y69.833 E0.63079
G1 X101.921 Y65.302 E0.14322
G1 X101.196 Y61.073 E0.13454
M204 S1250
G1 X101.166 Y60.614 F9000.000
G1 E-2.24000 F2400.000
;WIPE_START
G1 F7200.000
G1 X104.076 Y61.065 E-0.91200
;WIPE_END
G1 E-0.04800 F2400.000
G1 Z0.400 F9000.000
G1 X98.983 Y50.636
G1 Z0.200
G1 E3.20000 F1500.000
M204 S800
;TYPE:Perimeter
G1 F1200.000
G1 X124.080 Y50.636 E0.78690
G1 X123.740 Y55.124 E0.14111
G1 X123.446 Y60.211 E0.15975
G1 X100.672 Y60.211 E0.71407
G1 X99.544 Y54.127 E0.19400
G1 X98.993 Y50.696 E0.10896
M204 S1250
G1 X99.426 Y51.014 F9000.000
M204 S800
;TYPE:External perimeter
G1 F1200.000
G1 X123.673 Y51.014 E0.76027
G1 X123.364 Y55.099 E0.12846
G1 X123.090 Y59.833 E0.14870
G1 X100.986 Y59.833 E0.69307
G1 X99.916 Y54.062 E0.18403
G1 X99.435 Y51.073 E0.09495
M204 S1250
G1 X99.402 Y50.614 F9000.000
G1 E-2.24000 F2400.000
;WIPE_START
G1 F7200.000
G1 X102.315 Y51.066 E-0.91200
;WIPE_END
G1 E-0.04800 F2400.000
G1 Z0.400 F9000.000
G1 X124.112 Y50.211
G1 Z0.200
G1 E3.20000 F1500.000
M204 S800
;TYPE:Perimeter
G1 F1200.000
G1 X98.915 Y50.211 E0.79006
G1 X98.780 Y49.377 E0.02648
G1 X98.487 Y45.356 E0.12641
G1 X98.942 Y42.126 E0.10227
G1 X100.572 Y39.877 E0.08709
G1 X103.502 Y39.157 E0.09459
G1 X104.991 Y39.345 E0.04707
G1 X106.245 Y39.812 E0.04194
G1 X107.318 Y40.511 E0.04015
G1 X108.220 Y41.378 E0.03923
G1 X108.977 Y42.357 E0.03879
G1 X109.616 Y43.400 E0.03836
G1 X110.166 Y44.465 E0.03760
G1 X111.476 Y47.348 E0.09926
G1 X111.622 Y47.586 E0.00875
G1 X111.726 Y47.692 E0.00466
G1 X111.792 Y47.730 E0.00239
G1 X111.926 Y47.739 E0.00422
G1 X112.041 Y47.706 E0.00373
G1 X112.183 Y47.634 E0.00499
G1 X112.334 Y47.524 E0.00587
G1 X112.479 Y47.385 E0.00630
G1 X112.589 Y47.248 E0.00548
G1 X112.920 Y46.621 E0.02222
G1 X113.171 Y45.821 E0.02632
G1 X113.621 Y43.812 E0.06454
G1 X113.926 Y42.730 E0.03526
G1 X114.378 Y41.661 E0.03638
G1 X115.065 Y40.675 E0.03769
G1 X116.056 Y39.875 E0.03992
G1 X117.368 Y39.366 E0.04411
G1 X118.998 Y39.201 E0.05138
G1 X120.352 Y39.330 E0.04264
G1 X121.489 Y39.673 E0.03726
G1 X122.426 Y40.191 E0.03356
G1 X123.162 Y40.833 E0.03061
G1 X123.712 Y41.542 E0.02813
G1 X124.097 Y42.263 E0.02564
G1 X124.348 Y42.951 E0.02296
G1 X124.491 Y43.566 E0.01982
G1 X124.552 Y44.081 E0.01625
G1 X124.550 Y44.434 E0.01108
G1 X124.117 Y50.151 E0.17975
M204 S1250
G1 X123.763 Y49.833 F9000.000
M204 S800
;TYPE:External perimeter
G1 F1200.000
G1 X99.236 Y49.833 E0.76903
G1 X99.155 Y49.333 E0.01589
G1 X98.866 Y45.369 E0.12463
G1 X99.302 Y42.271 E0.09807
G1 X100.796 Y40.210 E0.07982
G1 X103.524 Y39.540 E0.08807
G1 X104.901 Y39.714 E0.04350
G1 X106.074 Y40.151 E0.03926
G1 X107.082 Y40.808 E0.03773
G1 X107.939 Y41.631 E0.03724
G1 X108.666 Y42.571 E0.03727
G1 X109.287 Y43.585 E0.03728
G1 X109.827 Y44.630 E0.03687
G1 X111.143 Y47.525 E0.09969
G1 X111.322 Y47.819 E0.01082
G1 X111.493 Y47.993 E0.00764
G1 X111.653 Y48.085 E0.00578
G1 X111.813 Y48.121 E0.00515
G1 X111.988 Y48.113 E0.00549
G1 X112.179 Y48.058 E0.00624
G1 X112.380 Y47.956 E0.00705
G1 X112.577 Y47.814 E0.00762
G1 X112.758 Y47.640 E0.00788
G1 X112.906 Y47.456 E0.00739
G1 X113.269 Y46.767 E0.02443
G1 X113.536 Y45.919 E0.02789
G1 X113.987 Y43.904 E0.06472
G1 X114.282 Y42.855 E0.03419
G1 X114.710 Y41.844 E0.03440
G1 X115.344 Y40.934 E0.03477
G1 X116.247 Y40.205 E0.03639
G1 X117.456 Y39.736 E0.04067
G1 X118.999 Y39.580 E0.04861
G1 X120.278 Y39.702 E0.04031
G1 X121.342 Y40.023 E0.03483
G1 X122.209 Y40.502 E0.03105
G1 X122.887 Y41.093 E0.02820
G1 X123.394 Y41.748 E0.02598
G1 X123.752 Y42.417 E0.02380
G1 X123.986 Y43.058 E0.02141
G1 X124.119 Y43.632 E0.01845
G1 X124.175 Y44.102 E0.01485
G1 X124.173 Y44.418 E0.00993
G1 X123.767 Y49.774 E0.16839
M204 S1250
G1 X123.753 Y50.233 F9000.000
G1 E-2.24000 F2400.000
;WIPE_START
G1 F7200.000
G1 X120.887 Y49.781 E-0.91200
;WIPE_END
G1 E-0.04800 F2400.000
G1 Z0.400 F9000.000
G1 X122.806 Y91.636
G1 Z0.200
G1 E3.20000 F1500.000
M204 S800
;TYPE:Perimeter
G1 F1200.000
G1 X123.105 Y100.211 E0.26900
G1 X103.179 Y100.211 E0.62477
G1 X102.936 Y97.409 E0.08816
G1 X102.528 Y97.433 E0.01280
G1 X101.369 Y97.423 E0.03634
G1 X100.241 Y97.348 E0.03547
G1 X99.138 Y97.218 E0.03482
G1 X98.051 Y97.047 E0.03451
G1 X96.972 Y96.844 E0.03443
G1 X92.642 Y95.956 E0.13859
G1 X90.239 Y95.956 E0.07535
G1 X88.356 Y95.915 E0.05903
G1 X86.527 Y96.007 E0.05743
G1 X84.732 Y96.237 E0.05673
G1 X82.986 Y96.613 E0.05599
G1 X81.305 Y97.142 E0.05527
G1 X79.700 Y97.831 E0.05476
G1 X78.186 Y98.686 E0.05452
G1 X76.773 Y99.716 E0.05481
G1 X76.245 Y100.211 E0.02270
G1 X56.034 Y100.211 E0.63368
G1 X57.263 Y97.536 E0.09230
G1 X59.610 Y94.076 E0.13108
