; generated by PrusaSlicer 2.3.3+win64 on 2022-03-18 at 10:24:21 UTC


;
;

;
;
; 

; external perimeters extrusion width = 0.45mm
; perimeters extrusion width = 0.45mm
; infill extrusion width = 0.45mm
; solid infill extrusion width = 0.45mm
; top infill extrusion width = 0.40mm
; first layer extrusion width = 0.42mm

M73 P0 R92
M201 X1250 Y1250 Z400 E5000 ; sets maximum accelerations, mm/sec^2
M203 X180 Y180 Z12 E80 ; sets maximum feedrates, mm/sec
M204 P1250 R1250 T1250 ; sets acceleration (P, T) and retract acceleration (R), mm/sec^2
M205 X8.00 Y8.00 Z2.00 E10.00 ; sets the jerk limits, mm/sec
M205 S0 T0 ; sets the minimum extruding and travel feed rate, mm/sec
M107
;TYPE:Custom
G90 ; use absolute coordinates
M83 ; extruder relative mode
M104 S170 ; set extruder temp for bed leveling
M140 S85 ; set bed temp
M109 R170 ; wait for bed leveling temp
M190 S85 ; wait for bed temp
G28 ; home all without mesh bed level
G29 ; mesh bed leveling 
M104 S230 ; set extruder temp
G92 E0.0
G1 Y-2.0 X179 F2400
G1 Z3 F720
M109 S230 ; wait for extruder temp

; intro line
G1 X170 F1000
G1 Z0.2 F720
G1 X110.0 E8.0 F900
G1 X40.0 E10.0 F700
G92 E0.0

M221 S95 ; set flow
G21 ; set units to millimeters
G90 ; use absolute coordinates
M83 ; use relative distances for extrusion
M900 K0.2 ; Filament gcode
;LAYER_CHANGE
;Z:0.2
;HEIGHT:0.2
;BEFORE_LAYER_CHANGE
G92 E0.0
;0.2


M73 P0 R91
G1 E-3.20000 F2400.000
G1 Z0.200 F9000.000
;AFTER_LAYER_CHANGE
;0.2
G1 Z0.400
G1 X46.871 Y34.674
G1 Z0.200
G1 E3.20000 F1500.000
M204 S800
;TYPE:Skirt
;WIDTH:0.42
G1 F1200.000
G1 X48.460 Y33.893 E0.05552
G1 X49.726 Y33.563 E0.04100
G1 X51.301 Y33.433 E0.04956
G1 X129.084 Y34.001 E2.43887
G1 X130.720 Y34.226 E0.05181
G1 X132.012 Y34.720 E0.04335
G1 X132.889 Y35.251 E0.03214
G1 X133.431 Y35.680 E0.02168
G1 X134.612 Y36.985 E0.05520
G1 X135.363 Y38.249 E0.04610
G1 X135.777 Y39.263 E0.03432
G1 X136.144 Y40.508 E0.04070
G1 X136.427 Y41.873 E0.04373
G1 X136.677 Y43.688 E0.05745
G1 X136.838 Y45.711 E0.06363
G1 X136.919 Y48.241 E0.07934
G1 X135.022 Y132.047 E2.62837
G1 X134.681 Y136.139 E0.12874
G1 X134.191 Y138.826 E0.08563
G1 X133.787 Y140.239 E0.04609
G1 X133.285 Y141.498 E0.04249
G1 X132.673 Y142.605 E0.03966
G1 X132.107 Y143.382 E0.03015
G1 X131.515 Y144.019 E0.02725
G1 X130.677 Y144.718 E0.03422
G1 X129.906 Y145.190 E0.02835
G1 X129.065 Y145.559 E0.02878
G1 X127.889 Y145.872 E0.03817
G1 X126.855 Y145.966 E0.03257
G1 X60.017 Y146.566 E2.09574
G1 X58.291 Y146.448 E0.05423
G1 X56.834 Y146.161 E0.04657
G1 X55.202 Y145.596 E0.05416
G1 X54.033 Y144.973 E0.04151
G1 X53.030 Y144.240 E0.03897
G1 X52.168 Y143.406 E0.03762
G1 X51.504 Y142.573 E0.03337
G1 X50.956 Y141.679 E0.03289
G1 X50.383 Y140.356 E0.04519
G1 X50.035 Y139.010 E0.04362
G1 X49.898 Y137.761 E0.03937
G1 X43.098 Y57.122 E2.53735
G1 X43.083 Y42.707 E0.45198
G1 X43.210 Y41.330 E0.04337
G1 X43.810 Y38.872 E0.07934
G1 X44.508 Y37.274 E0.05465
G1 X45.125 Y36.319 E0.03567
G1 X45.959 Y35.391 E0.03912
G1 X46.824 Y34.711 E0.03449
M204 S1250
; printing object Funky Waasa-Uusam.stl id:0 copy 0
G1 E-2.24000 F2400.000
;WIPE_START
G1 F7200.000
G1 X48.460 Y33.893 E-0.57933
G1 X49.477 Y33.628 E-0.33267
;WIPE_END
G1 E-0.04800 F2400.000
G1 Z0.400 F9000.000
G1 X79.623 Y90.054
G1 Z0.200
G1 E3.20000 F1500.000
M204 S800
;TYPE:Perimeter
G1 F1200.000
G1 X110.050 Y90.054 E0.95401
G1 X109.895 Y91.070 E0.03222
G1 X109.898 Y92.191 E0.03513
G1 X110.066 Y93.327 E0.03602
G1 X110.391 Y94.466 E0.03712
G1 X110.867 Y95.590 E0.03827
G1 X111.487 Y96.682 E0.03939
G1 X112.255 Y97.749 E0.04122
G1 X113.029 Y98.747 E0.03959
G1 X112.597 Y99.629 E0.03078
G1 X81.311 Y99.629 E0.98094
G1 X80.434 Y97.855 E0.06205
G1 X79.991 Y96.901 E0.03295
G1 X79.633 Y95.900 E0.03334
G1 X79.372 Y94.881 E0.03298
G1 X79.214 Y93.849 E0.03273
G1 X79.164 Y92.813 E0.03252
G1 X79.228 Y91.780 E0.03245
G1 X79.409 Y90.758 E0.03254
G1 X79.606 Y90.112 E0.02120
M204 S1250
G1 X79.903 Y90.431 F9000.000
M204 S800
;TYPE:External perimeter
G1 F1200.000
G1 X109.611 Y90.431 E0.93149
G1 X109.518 Y91.042 E0.01937
G1 X109.521 Y92.219 E0.03690
G1 X109.696 Y93.407 E0.03765
G1 X110.035 Y94.592 E0.03863
G1 X110.529 Y95.757 E0.03968
G1 X111.169 Y96.886 E0.04070
G1 X111.953 Y97.975 E0.04207
G1 X112.587 Y98.792 E0.03243
G1 X112.362 Y99.251 E0.01603
G1 X81.545 Y99.251 E0.96623
G1 X80.774 Y97.692 E0.05456
G1 X80.341 Y96.758 E0.03226
G1 X79.994 Y95.790 E0.03225
G1 X79.742 Y94.806 E0.03185
G1 X79.590 Y93.812 E0.03153
G1 X79.542 Y92.816 E0.03126
G1 X79.603 Y91.825 E0.03112
G1 X79.776 Y90.847 E0.03115
G1 X79.885 Y90.489 E0.01173
M204 S1250
G1 X79.931 Y90.032 F9000.000
G1 E-2.24000 F2400.000
;WIPE_START
G1 F7200.000
G1 X82.765 Y90.483 E-0.91200
;WIPE_END
G1 E-0.04800 F2400.000
G1 Z0.400 F9000.000
G1 X81.519 Y100.054
G1 Z0.200
G1 E3.20000 F1500.000
M204 S800
;TYPE:Perimeter
G1 F1200.000
G1 X114.024 Y100.054 E1.01917
G1 X115.204 Y101.655 E0.06236
G1 X116.830 Y103.934 E0.08778
G1 X120.224 Y108.782 E0.18555
G1 X119.782 Y109.629 E0.02994
G1 X85.868 Y109.629 E1.06337
G1 X81.544 Y100.109 E0.32783
M204 S1250
G1 X82.104 Y100.431 F9000.000
M204 S800
;TYPE:External perimeter
G1 F1200.000
G1 X113.833 Y100.431 E0.99484
G1 X114.898 Y101.877 E0.05629
G1 X116.522 Y104.152 E0.08764
G1 X119.784 Y108.811 E0.17831
G1 X119.554 Y109.251 E0.01559
G1 X86.111 Y109.251 E1.04858
G1 X82.129 Y100.486 E0.30186
M204 S1250
G1 X81.932 Y100.071 F9000.000
G1 E-2.24000 F2400.000
;WIPE_START
G1 F7200.000
G1 X85.009 Y100.481 E-0.91200
;WIPE_END
G1 E-0.04800 F2400.000
G1 Z0.400 F9000.000
G1 X86.057 Y110.054
G1 Z0.200
G1 E3.20000 F1500.000
M204 S800
;TYPE:Perimeter
G1 F1200.000
G1 X121.113 Y110.054 E1.09916
M73 P1 R91
G1 X123.711 Y113.724 E0.14096
G1 X125.393 Y116.032 E0.08955
G1 X127.466 Y118.743 E0.10701
G1 X127.042 Y119.629 E0.03077
G1 X89.963 Y119.629 E1.16258
G1 X90.114 Y118.651 E0.03103
G1 X90.094 Y118.227 E0.01329
G1 X89.986 Y117.794 E0.01399
G1 X89.759 Y117.318 E0.01653
G1 X88.897 Y115.807 E0.05456
G1 X87.945 Y113.971 E0.06484
G1 X86.083 Y110.108 E0.13444
M204 S1250
G1 X86.658 Y110.431 F9000.000
M204 S800
;TYPE:External perimeter
G1 F1200.000
G1 X120.918 Y110.431 E1.07422
G1 X123.404 Y113.944 E0.13493
G1 X125.091 Y116.257 E0.08977
G1 X127.026 Y118.789 E0.09990
G1 X126.805 Y119.251 E0.01608
G1 X90.403 Y119.251 E1.14135
G1 X90.492 Y118.671 E0.01843
G1 X90.469 Y118.172 E0.01565
G1 X90.343 Y117.666 E0.01636
G1 X90.093 Y117.143 E0.01816
G1 X89.228 Y115.626 E0.05475
G1 X88.282 Y113.802 E0.06443
G1 X86.684 Y110.486 E0.11544
M204 S1250
G1 X86.597 Y110.036 F9000.000
G1 E-2.24000 F2400.000
;WIPE_START
G1 F7200.000
G1 X89.564 Y110.481 E-0.91200
;WIPE_END
G1 E-0.04800 F2400.000
G1 Z0.400 F9000.000
G1 X86.029 Y80.054
G1 Z0.200
G1 E3.20000 F1500.000
M204 S800
;TYPE:Perimeter
G1 F1200.000
G1 X116.658 Y80.054 E0.96036
G1 X117.075 Y80.988 E0.03206
G1 X111.699 Y86.943 E0.25156
G1 X110.941 Y87.921 E0.03880
G1 X110.407 Y88.927 E0.03570
G1 X110.177 Y89.629 E0.02315
G1 X80.573 Y89.629 E0.92822
G1 X80.121 Y88.829 E0.02881
G1 X80.692 Y87.881 E0.03469
G1 X85.995 Y80.104 E0.29514
M204 S1250
G1 X86.228 Y80.431 F9000.000
M204 S800
;TYPE:External perimeter
G1 F1200.000
G1 X116.413 Y80.431 E0.94644
G1 X116.631 Y80.917 E0.01669
G1 X111.410 Y86.701 E0.24430
G1 X110.623 Y87.716 E0.04026
G1 X110.059 Y88.779 E0.03773
G1 X109.904 Y89.251 E0.01560
G1 X80.793 Y89.251 E0.91276
G1 X80.557 Y88.835 E0.01501
G1 X81.009 Y88.085 E0.02746
G1 X86.194 Y80.481 E0.28856
M204 S1250
G1 X86.307 Y80.039 F9000.000
G1 E-2.24000 F2400.000
;WIPE_START
G1 F7200.000
G1 X89.074 Y80.476 E-0.91200
;WIPE_END
G1 E-0.04800 F2400.000
G1 Z0.400 F9000.000
G1 X87.357 Y79.629
G1 Z0.200
G1 E3.20000 F1500.000
M204 S800
;TYPE:Perimeter
M73 P1 R90
G1 F1200.000
G1 X86.914 Y78.779 E0.03004
G1 X89.185 Y75.590 E0.12276
G1 X90.731 Y73.513 E0.08118
G1 X92.254 Y71.568 E0.07747
G1 X93.526 Y70.054 E0.06197
G1 X125.565 Y70.054 E1.00456
G1 X125.983 Y70.984 E0.03194
G1 X118.290 Y79.629 E0.36284
G1 X87.417 Y79.629 E0.96799
M204 S1250
G1 X87.586 Y79.251 F9000.000
M204 S800
;TYPE:External perimeter
G1 F1200.000
G1 X87.355 Y78.809 E0.01563
G1 X89.490 Y75.812 E0.11539
G1 X91.031 Y73.742 E0.08091
G1 X92.547 Y71.805 E0.07712
G1 X93.702 Y70.431 E0.05626
G1 X125.321 Y70.431 E0.99141
G1 X125.539 Y70.915 E0.01664
G1 X118.121 Y79.251 E0.34988
G1 X87.646 Y79.251 E0.95552
M204 S1250
G1 X87.216 Y79.405 F9000.000
G1 E-2.24000 F2400.000
;WIPE_START
G1 F7200.000
G1 X87.355 Y78.809 E-0.16750
G1 X88.719 Y76.894 E-0.74450
;WIPE_END
G1 E-0.04800 F2400.000
G1 Z0.400 F9000.000
G1 X95.212 Y69.629
G1 Z0.200
G1 E3.20000 F1500.000
M204 S800
;TYPE:Perimeter
G1 F1200.000
G1 X94.783 Y68.739 E0.03098
G1 X95.538 Y67.788 E0.03807
G1 X95.968 Y67.034 E0.02724
G1 X96.361 Y66.099 E0.03177
G1 X96.649 Y65.077 E0.03331
G1 X96.775 Y64.057 E0.03221
G1 X96.701 Y63.128 E0.02921
G1 X96.410 Y62.360 E0.02578
G1 X95.872 Y61.754 E0.02538
G1 X95.049 Y61.342 E0.02888
G1 X95.353 Y60.054 E0.04148
G1 X131.183 Y60.054 E1.12341
G1 X130.959 Y61.843 E0.05650
G1 X130.563 Y64.095 E0.07171
G1 X130.333 Y64.965 E0.02821
G1 X130.012 Y65.810 E0.02836
G1 X129.604 Y66.618 E0.02837
G1 X129.115 Y67.381 E0.02839
G1 X128.560 Y68.072 E0.02781
G1 X127.183 Y69.629 E0.06515
G1 X95.272 Y69.629 E1.00054
M204 S1250
G1 X95.449 Y69.251 F9000.000
M204 S800
;TYPE:External perimeter
G1 F1200.000
G1 X95.225 Y68.788 E0.01614
G1 X95.851 Y68.000 E0.03155
G1 X96.307 Y67.201 E0.02886
G1 X96.718 Y66.224 E0.03322
G1 X97.019 Y65.151 E0.03494
G1 X97.153 Y64.066 E0.03431
G1 X97.072 Y63.045 E0.03209
G1 X96.738 Y62.161 E0.02963
G1 X96.106 Y61.450 E0.02983
G1 X95.484 Y61.138 E0.02181
G1 X95.652 Y60.431 E0.02277
G1 X130.756 Y60.431 E1.10066
G1 X130.586 Y61.786 E0.04282
G1 X130.195 Y64.014 E0.07092
G1 X129.973 Y64.849 E0.02709
G1 X129.666 Y65.658 E0.02713
G1 X129.276 Y66.431 E0.02714
G1 X128.809 Y67.160 E0.02715
G1 X128.271 Y67.829 E0.02690
G1 X127.013 Y69.251 E0.05955
G1 X95.509 Y69.251 E0.98780
M204 S1250
G1 X95.069 Y69.375 F9000.000
G1 E-2.24000 F2400.000
;WIPE_START
G1 F7200.000
G1 X95.225 Y68.788 E-0.17208
G1 X95.851 Y68.000 E-0.31863
G1 X96.307 Y67.201 E-0.29143
G1 X96.466 Y66.823 E-0.12986
;WIPE_END
G1 E-0.04800 F2400.000
G1 Z0.400 F9000.000
G1 X52.561 Y50.054
G1 Z0.200
G1 E3.20000 F1500.000
M204 S800
;TYPE:Perimeter
G1 F1200.000
G1 X131.825 Y50.054 E2.48527
G1 X131.766 Y52.735 E0.08405
G1 X131.581 Y55.992 E0.10230
G1 X131.256 Y59.629 E0.11448
G1 X49.028 Y59.629 E2.57820
G1 X48.675 Y59.175 E0.01800
G1 X48.300 Y58.167 E0.03375
G1 X48.145 Y57.042 E0.03560
G1 X48.198 Y55.849 E0.03744
G1 X48.464 Y54.634 E0.03899
G1 X48.960 Y53.458 E0.04005
G1 X49.707 Y52.385 E0.04098
G1 X50.725 Y51.498 E0.04234
G1 X52.157 Y50.810 E0.04980
G1 X52.290 Y50.657 E0.00634
G1 X52.537 Y50.109 E0.01885
M204 S1250
G1 X52.805 Y50.431 F9000.000
M204 S800
;TYPE:External perimeter
G1 F1200.000
G1 X131.440 Y50.431 E2.46554
G1 X131.389 Y52.720 E0.07176
G1 X131.204 Y55.964 E0.10190
G1 X130.911 Y59.251 E0.10348
G1 X49.212 Y59.251 E2.56160
M73 P2 R90
G1 X49.008 Y58.990 E0.01041
G1 X48.667 Y58.074 E0.03063
G1 X48.523 Y57.024 E0.03322
G1 X48.573 Y55.898 E0.03535
G1 X48.825 Y54.749 E0.03688
G1 X49.292 Y53.641 E0.03772
G1 X49.990 Y52.639 E0.03828
G1 X50.933 Y51.817 E0.03923
G1 X52.066 Y51.285 E0.03924
G1 X52.395 Y51.110 E0.01168
G1 X52.611 Y50.863 E0.01028
G1 X52.780 Y50.486 E0.01295
M204 S1250
G1 X52.877 Y50.038 F9000.000
G1 E-2.24000 F2400.000
;WIPE_START
G1 F7200.000
G1 X55.660 Y50.484 E-0.91200
;WIPE_END
G1 E-0.04800 F2400.000
G1 Z0.400 F9000.000
G1 X131.841 Y49.629
G1 Z0.200
G1 E3.20000 F1500.000
M204 S800
;TYPE:Perimeter
G1 F1200.000
G1 X52.580 Y49.629 E2.48517
G1 X52.255 Y48.704 E0.03072
G1 X52.031 Y48.318 E0.01400
G1 X51.747 Y48.005 E0.01326
G1 X51.343 Y47.735 E0.01524
G1 X50.557 Y47.290 E0.02830
G1 X49.841 Y46.753 E0.02807
G1 X49.252 Y46.160 E0.02620
G1 X48.791 Y45.521 E0.02472
G1 X48.455 Y44.845 E0.02367
G1 X48.240 Y44.147 E0.02290
G1 X48.134 Y43.440 E0.02242
G1 X48.126 Y42.735 E0.02208
G1 X48.201 Y42.041 E0.02190
G1 X48.346 Y41.368 E0.02157
G1 X48.586 Y40.546 E0.02686
G1 X48.857 Y39.876 E0.02267
G1 X49.202 Y39.320 E0.02053
G1 X49.662 Y38.888 E0.01979
G1 X50.216 Y38.627 E0.01917
G1 X50.794 Y38.521 E0.01845
G1 X51.372 Y38.503 E0.01812
G1 X53.575 Y38.588 E0.06912
G1 X79.888 Y38.993 E0.82514
G1 X95.969 Y39.213 E0.50426
G1 X103.460 Y39.280 E0.23489
G1 X110.538 Y39.306 E0.22190
G1 X117.164 Y39.282 E0.20776
G1 X123.303 Y39.199 E0.19252
G1 X129.149 Y39.040 E0.18336
G1 X130.389 Y39.763 E0.04499
G1 X131.127 Y41.463 E0.05812
G1 X131.549 Y43.698 E0.07131
G1 X131.774 Y46.420 E0.08564
G1 X131.839 Y49.569 E0.09875
M204 S1250
G1 X131.456 Y49.251 F9000.000
M204 S800
;TYPE:External perimeter
G1 F1200.000
G1 X52.847 Y49.251 E2.46472
G1 X52.599 Y48.546 E0.02345
G1 X52.338 Y48.094 E0.01637
G1 X51.995 Y47.717 E0.01598
G1 X51.541 Y47.414 E0.01712
G1 X50.764 Y46.974 E0.02797
G1 X50.090 Y46.468 E0.02646
G1 X49.541 Y45.916 E0.02441
G1 X49.115 Y45.325 E0.02282
G1 X48.807 Y44.704 E0.02174
G1 X48.609 Y44.063 E0.02105
G1 X48.511 Y43.409 E0.02072
G1 X48.503 Y42.754 E0.02056
G1 X48.574 Y42.101 E0.02058
G1 X48.712 Y41.461 E0.02053
G1 X48.943 Y40.670 E0.02584
G1 X49.195 Y40.047 E0.02106
G1 X49.497 Y39.561 E0.01796
G1 X49.877 Y39.203 E0.01637
G1 X50.332 Y38.989 E0.01577
G1 X50.834 Y38.897 E0.01601
G1 X51.370 Y38.881 E0.01682
G1 X53.565 Y38.965 E0.06885
G1 X79.883 Y39.370 E0.82528
G1 X95.965 Y39.591 E0.50430
G1 X103.458 Y39.658 E0.23495
G1 X110.538 Y39.683 E0.22197
G1 X117.167 Y39.660 E0.20786
G1 X123.311 Y39.576 E0.19266
G1 X129.052 Y39.419 E0.18007
G1 X130.092 Y40.026 E0.03775
G1 X130.764 Y41.574 E0.05292
G1 X131.174 Y43.748 E0.06937
G1 X131.397 Y46.439 E0.08466
G1 X131.454 Y49.192 E0.08631
M204 S1250
G1 X131.463 Y49.651 F9000.000
G1 E-2.24000 F2400.000
;WIPE_START
G1 F7200.000
G1 X128.574 Y49.194 E-0.91200
;WIPE_END
G1 E-0.04800 F2400.000
G1 Z0.400 F9000.000
G1 X128.561 Y120.054
G1 Z0.200
G1 E3.20000 F1500.000
M204 S800
;TYPE:Perimeter
G1 F1200.000
G1 X129.164 Y121.374 E0.04547
G1 X129.566 Y123.282 E0.06115
G1 X129.832 Y125.652 E0.07477
G1 X129.982 Y128.629 E0.09345
G1 X58.376 Y128.629 E2.24516
M73 P2 R89
G1 X56.854 Y127.540 E0.05866
G1 X56.225 Y126.994 E0.02611
G1 X55.884 Y126.640 E0.01542
G1 X55.478 Y126.107 E0.02099
G1 X55.166 Y125.505 E0.02128
G1 X54.952 Y124.882 E0.02064
G1 X54.820 Y124.254 E0.02014
G1 X54.757 Y123.635 E0.01951
G1 X54.750 Y123.040 E0.01866
G1 X54.791 Y122.477 E0.01769
G1 X54.869 Y121.960 E0.01641
G1 X54.980 Y121.496 E0.01495
G1 X55.120 Y121.094 E0.01334
G1 X55.361 Y120.609 E0.01698
G1 X55.731 Y120.054 E0.02090
G1 X78.575 Y120.054 E0.71626
G1 X80.794 Y120.172 E0.06967
G1 X83.448 Y120.284 E0.08329
G1 X85.964 Y120.361 E0.07893
G1 X88.268 Y120.400 E0.07226
G1 X88.752 Y120.347 E0.01526
G1 X89.131 Y120.214 E0.01258
G1 X89.381 Y120.054 E0.00930
G1 X128.501 Y120.054 E1.22660
M204 S1250
G1 X128.319 Y120.432 F9000.000
M204 S800
;TYPE:External perimeter
G1 F1200.000
G1 X128.803 Y121.492 E0.03657
G1 X129.194 Y123.342 E0.05927
G1 X129.456 Y125.682 E0.07384
G1 X129.585 Y128.251 E0.08066
G1 X58.497 Y128.251 E2.22893
G1 X57.088 Y127.243 E0.05431
G1 X56.485 Y126.720 E0.02502
G1 X56.171 Y126.394 E0.01421
G1 X55.798 Y125.905 E0.01928
G1 X55.514 Y125.356 E0.01937
G1 X55.317 Y124.782 E0.01904
G1 X55.193 Y124.196 E0.01878
G1 X55.134 Y123.614 E0.01835
G1 X55.127 Y123.051 E0.01764
G1 X55.166 Y122.519 E0.01673
G1 X55.240 Y122.032 E0.01545
G1 X55.343 Y121.602 E0.01386
G1 X55.469 Y121.240 E0.01201
G1 X55.688 Y120.798 E0.01548
G1 X55.933 Y120.431 E0.01381
G1 X78.565 Y120.431 E0.70962
G1 X80.776 Y120.549 E0.06942
G1 X83.434 Y120.661 E0.08343
G1 X85.955 Y120.738 E0.07908
G1 X88.286 Y120.777 E0.07308
G1 X88.836 Y120.717 E0.01736
G1 X89.297 Y120.555 E0.01531
G1 X89.491 Y120.431 E0.00722
G1 X128.259 Y120.432 E1.21554
M204 S1250
G1 X128.703 Y120.319 F9000.000
G1 E-2.24000 F2400.000
;WIPE_START
G1 F7200.000
G1 X128.803 Y121.492 E-0.37759
G1 X129.152 Y123.144 E-0.53441
;WIPE_END
G1 E-0.04800 F2400.000
G1 Z0.400 F9000.000
G1 X58.956 Y129.054
G1 Z0.200
G1 E3.20000 F1500.000
M204 S800
;TYPE:Perimeter
G1 F1200.000
G1 X129.966 Y129.054 E2.22645
G1 X129.964 Y131.136 E0.06528
G1 X129.813 Y133.884 E0.08628
G1 X129.505 Y136.392 E0.07922
G1 X129.016 Y138.499 E0.06783
