; generated by PrusaSlicer 2.3.3+win64 on 2022-03-17 at 13:09:24 UTC


;
;

;
;
; 

; external perimeters extrusion width = 0.45mm
; perimeters extrusion width = 0.45mm
; infill extrusion width = 0.45mm
; solid infill extrusion width = 0.45mm
; top infill extrusion width = 0.40mm
; first layer extrusion width = 0.42mm

M73 P0 R79
M201 X1250 Y1250 Z400 E5000 ; sets maximum accelerations, mm/sec^2
M203 X180 Y180 Z12 E80 ; sets maximum feedrates, mm/sec
M204 P1250 R1250 T1250 ; sets acceleration (P, T) and retract acceleration (R), mm/sec^2
M205 X8.00 Y8.00 Z2.00 E10.00 ; sets the jerk limits, mm/sec
M205 S0 T0 ; sets the minimum extruding and travel feed rate, mm/sec
M107
;TYPE:Custom
G90 ; use absolute coordinates
M83 ; extruder relative mode
M104 S170 ; set extruder temp for bed leveling
M140 S85 ; set bed temp
M109 R170 ; wait for bed leveling temp
M190 S85 ; wait for bed temp
G28 ; home all without mesh bed level
G29 ; mesh bed leveling 
M104 S230 ; set extruder temp
G92 E0.0
G1 Y-2.0 X179 F2400
G1 Z3 F720
M109 S230 ; wait for extruder temp

; intro line
G1 X170 F1000
G1 Z0.2 F720
G1 X110.0 E8.0 F900
G1 X40.0 E10.0 F700
G92 E0.0

M221 S95 ; set flow
G21 ; set units to millimeters
G90 ; use absolute coordinates
M83 ; use relative distances for extrusion
M900 K0.2 ; Filament gcode
;LAYER_CHANGE
;Z:0.2
;HEIGHT:0.2
;BEFORE_LAYER_CHANGE
G92 E0.0
;0.2


G1 E-3.20000 F2400.000
G1 Z0.200 F9000.000
;AFTER_LAYER_CHANGE
;0.2
G1 Z0.400
G1 X72.837 Y37.570
G1 Z0.200
G1 E3.20000 F1500.000
M204 S800
;TYPE:Skirt
;WIDTH:0.42
G1 F1200.000
G1 X73.334 Y36.825 E0.02808
G1 X74.261 Y35.793 E0.04349
G1 X74.949 Y35.222 E0.02804
G1 X76.174 Y34.464 E0.04516
G1 X77.006 Y34.095 E0.02855
G1 X78.440 Y33.661 E0.04697
G1 X79.977 Y33.434 E0.04871
G1 X80.902 Y33.398 E0.02903
G1 X96.555 Y33.469 E0.49080
G1 X98.269 Y33.608 E0.05392
G1 X99.627 Y33.914 E0.04363
G1 X100.886 Y34.398 E0.04231
G1 X102.341 Y35.233 E0.05260
G1 X103.607 Y36.325 E0.05242
G1 X104.458 Y37.332 E0.04134
G1 X105.190 Y38.527 E0.04394
G1 X145.762 Y117.059 E2.77152
G1 X146.527 Y118.833 E0.06057
G1 X147.019 Y120.886 E0.06620
G1 X147.192 Y122.893 E0.06316
G1 X147.037 Y136.593 E0.42956
G1 X146.842 Y138.716 E0.06687
G1 X146.544 Y140.008 E0.04157
G1 X146.190 Y141.004 E0.03312
G1 X145.500 Y142.224 E0.04397
G1 X144.567 Y143.298 E0.04459
G1 X143.760 Y143.985 E0.03323
G1 X142.767 Y144.631 E0.03713
G1 X141.742 Y145.138 E0.03588
G1 X140.583 Y145.555 E0.03862
G1 X138.595 Y145.965 E0.06365
G1 X137.424 Y146.037 E0.03678
G1 X40.890 Y146.602 E3.02680
G1 X39.878 Y146.546 E0.03177
G1 X38.908 Y146.386 E0.03084
G1 X38.011 Y146.129 E0.02926
G1 X37.145 Y145.759 E0.02954
G1 X36.413 Y145.334 E0.02651
G1 X35.421 Y144.534 E0.03998
G1 X34.893 Y143.954 E0.02461
G1 X34.296 Y143.087 E0.03298
G1 X33.572 Y141.495 E0.05484
G1 X33.252 Y140.451 E0.03424
G1 X33.009 Y139.285 E0.03734
G1 X32.873 Y138.029 E0.03963
G1 X32.828 Y122.744 E0.47922
G1 X33.016 Y121.358 E0.04385
G1 X33.298 Y120.288 E0.03473
G1 X33.654 Y119.356 E0.03128
G1 X72.811 Y37.624 E2.84155
M204 S1250
; printing object Surprising Rottis (1).stl id:0 copy 0
G1 E-2.24000 F2400.000
;WIPE_START
G1 F7200.000
G1 X73.334 Y36.825 E-0.30244
G1 X74.261 Y35.793 E-0.43922
G1 X74.675 Y35.450 E-0.17035
;WIPE_END
G1 E-0.04800 F2400.000
G1 Z0.400 F9000.000
G1 X78.766 Y89.525
G1 Z0.200
G1 E3.20000 F1500.000
M204 S800
;TYPE:Perimeter
G1 F1200.000
G1 X99.907 Y89.525 E0.66285
G1 X99.856 Y92.800 E0.10270
G1 X99.841 Y99.099 E0.19750
G1 X78.867 Y99.099 E0.65762
G1 X78.767 Y89.585 E0.29833
M204 S1250
G1 X79.148 Y89.902 F9000.000
M204 S800
;TYPE:External perimeter
G1 F1200.000
G1 X99.524 Y89.902 E0.63889
G1 X99.478 Y92.797 E0.09077
G1 X99.464 Y98.722 E0.18578
M73 P0 R78
G1 X79.240 Y98.722 E0.63413
G1 X79.148 Y89.962 E0.27468
M204 S1250
G1 X78.997 Y89.532 F9000.000
G1 E-2.24000 F2400.000
;WIPE_START
G1 F7200.000
G1 X82.028 Y89.954 E-0.91200
;WIPE_END
G1 E-0.04800 F2400.000
G1 Z0.400 F9000.000
G1 X78.878 Y99.525
G1 Z0.200
G1 E3.20000 F1500.000
M204 S800
;TYPE:Perimeter
G1 F1200.000
G1 X99.840 Y99.525 E0.65725
G1 X99.833 Y102.502 E0.09333
G1 X99.939 Y109.099 E0.20689
G1 X78.841 Y109.099 E0.66149
G1 X78.877 Y99.585 E0.29831
M204 S1250
G1 X79.253 Y99.902 F9000.000
M204 S800
;TYPE:External perimeter
G1 F1200.000
G1 X99.462 Y99.902 E0.63362
G1 X99.456 Y102.504 E0.08159
G1 X99.556 Y108.722 E0.19498
G1 X79.220 Y108.722 E0.63761
M73 P1 R78
G1 X79.253 Y99.962 E0.27467
M204 S1250
G1 X79.102 Y99.532 F9000.000
G1 E-2.24000 F2400.000
;WIPE_START
G1 F7200.000
G1 X82.133 Y99.953 E-0.91200
;WIPE_END
G1 E-0.04800 F2400.000
G1 Z0.400 F9000.000
G1 X78.834 Y109.525
G1 Z0.200
G1 E3.20000 F1500.000
M204 S800
;TYPE:Perimeter
G1 F1200.000
G1 X99.946 Y109.525 E0.66196
G1 X99.981 Y111.744 E0.06958
G1 X100.256 Y118.099 E0.19946
G1 X78.412 Y118.099 E0.68491
G1 X78.635 Y115.856 E0.07068
G1 X78.832 Y109.585 E0.19672
M204 S1250
G1 X79.199 Y109.902 F9000.000
M204 S800
;TYPE:External perimeter
G1 F1200.000
G1 X99.575 Y109.902 E0.63886
G1 X99.604 Y111.755 E0.05810
G1 X99.863 Y117.722 E0.18727
G1 X78.829 Y117.722 E0.65951
G1 X79.011 Y115.880 E0.05803
G1 X79.197 Y109.962 E0.18566
M204 S1250
G1 X79.205 Y109.502 F9000.000
G1 E-2.24000 F2400.000
;WIPE_START
G1 F7200.000
G1 X82.077 Y109.953 E-0.91200
;WIPE_END
G1 E-0.04800 F2400.000
G1 Z0.400 F9000.000
G1 X78.565 Y79.525
G1 Z0.200
G1 E3.20000 F1500.000
M204 S800
;TYPE:Perimeter
G1 F1200.000
G1 X100.097 Y79.525 E0.67513
G1 X100.009 Y83.011 E0.10934
G1 X99.914 Y89.099 E0.19091
G1 X78.753 Y89.099 E0.66346
G1 X78.566 Y79.585 E0.29837
M204 S1250
G1 X78.950 Y79.902 F9000.000
M204 S800
;TYPE:External perimeter
G1 F1200.000
G1 X99.711 Y79.902 E0.65095
G1 X99.632 Y83.003 E0.09727
G1 X99.543 Y88.722 E0.17932
G1 X79.123 Y88.722 E0.64023
G1 X78.951 Y79.962 E0.27472
M204 S1250
G1 X78.798 Y79.532 F9000.000
G1 E-2.24000 F2400.000
;WIPE_START
G1 F7200.000
G1 X81.831 Y79.954 E-0.91200
;WIPE_END
G1 E-0.04800 F2400.000
G1 Z0.400 F9000.000
G1 X78.292 Y69.525
G1 Z0.200
G1 E3.20000 F1500.000
M204 S800
;TYPE:Perimeter
G1 F1200.000
G1 X100.377 Y69.525 E0.69248
G1 X100.249 Y73.508 E0.12494
G1 X100.108 Y79.099 E0.17537
G1 X78.549 Y79.099 E0.67596
G1 X78.294 Y69.585 E0.29842
M204 S1250
G1 X78.679 Y69.902 F9000.000
M204 S800
;TYPE:External perimeter
G1 F1200.000
G1 X99.988 Y69.902 E0.66812
G1 X99.872 Y73.497 E0.11277
G1 X99.740 Y78.722 E0.16389
G1 X78.916 Y78.722 E0.65292
G1 X78.681 Y69.962 E0.27476
M204 S1250
G1 X78.527 Y69.532 F9000.000
G1 E-2.24000 F2400.000
;WIPE_START
G1 F7200.000
G1 X81.561 Y69.954 E-0.91200
;WIPE_END
G1 E-0.04800 F2400.000
G1 Z0.400 F9000.000
G1 X77.939 Y59.525
G1 Z0.200
G1 E3.20000 F1500.000
M204 S800
;TYPE:Perimeter
G1 F1200.000
G1 X100.721 Y59.525 E0.71432
G1 X100.390 Y69.099 E0.30037
G1 X78.272 Y69.099 E0.69350
G1 X77.941 Y59.585 E0.29849
M204 S1250
G1 X78.330 Y59.902 F9000.000
M204 S800
;TYPE:External perimeter
G1 F1200.000
G1 X100.331 Y59.902 E0.68984
G1 X100.026 Y68.722 E0.27671
G1 X78.636 Y68.722 E0.67066
G1 X78.332 Y59.962 E0.27483
M204 S1250
G1 X78.176 Y59.533 F9000.000
G1 E-2.24000 F2400.000
;WIPE_START
G1 F7200.000
G1 X81.212 Y59.954 E-0.91200
;WIPE_END
G1 E-0.04800 F2400.000
G1 Z0.400 F9000.000
G1 X77.470 Y49.525
G1 Z0.200
G1 E3.20000 F1500.000
M204 S800
;TYPE:Perimeter
G1 F1200.000
G1 X101.099 Y49.525 E0.74088
G1 X100.738 Y59.099 E0.30040
G1 X77.916 Y59.099 E0.71556
G1 X77.623 Y52.271 E0.21429
G1 X77.473 Y49.585 E0.08435
M204 S1250
G1 X77.869 Y49.902 F9000.000
M204 S800
;TYPE:External perimeter
G1 F1200.000
G1 X100.708 Y49.902 E0.71610
G1 X100.375 Y58.722 E0.27674
G1 X78.277 Y58.722 E0.69285
G1 X78.000 Y52.252 E0.20304
G1 X77.872 Y49.962 E0.07192
M204 S1250
G1 X77.862 Y49.502 F9000.000
G1 E-2.24000 F2400.000
;WIPE_START
G1 F7200.000
G1 X80.752 Y49.954 E-0.91200
;WIPE_END
G1 E-0.04800 F2400.000
G1 Z0.400 F9000.000
G1 X101.112 Y49.099
G1 Z0.200
G1 E3.20000 F1500.000
M204 S800
;TYPE:Perimeter
G1 F1200.000
G1 X77.446 Y49.099 E0.74204
G1 X77.266 Y45.886 E0.10089
G1 X76.933 Y42.073 E0.12001
G1 X76.986 Y40.772 E0.04083
G1 X77.574 Y39.665 E0.03930
G1 X78.539 Y38.941 E0.03782
G1 X79.690 Y38.566 E0.03797
G1 X80.934 Y38.456 E0.03915
G1 X82.213 Y38.560 E0.04025
G1 X83.470 Y38.846 E0.04043
G1 X84.648 Y39.296 E0.03953
G1 X85.685 Y39.907 E0.03773
G1 X86.456 Y40.643 E0.03342
G1 X87.744 Y42.276 E0.06522
G1 X88.402 Y43.005 E0.03079
G1 X88.669 Y43.253 E0.01141
G1 X88.898 Y43.432 E0.00911
G1 X89.075 Y43.537 E0.00647
G1 X89.276 Y43.592 E0.00652
G1 X89.601 Y43.565 E0.01024
G1 X89.888 Y43.498 E0.00924
G1 X90.120 Y43.402 E0.00786
G1 X90.315 Y43.277 E0.00727
G1 X90.495 Y43.111 E0.00768
G1 X90.672 Y42.892 E0.00881
G1 X90.848 Y42.614 E0.01031
G1 X91.020 Y42.279 E0.01182
G1 X91.412 Y41.343 E0.03183
G1 X91.995 Y40.399 E0.03478
G1 X92.925 Y39.593 E0.03857
G1 X94.051 Y39.002 E0.03989
G1 X95.307 Y38.632 E0.04104
G1 X96.629 Y38.511 E0.04162
G1 X97.956 Y38.686 E0.04196
G1 X99.204 Y39.214 E0.04248
G1 X100.256 Y40.150 E0.04415
G1 X100.974 Y41.498 E0.04790
G1 X101.265 Y43.192 E0.05390
G1 X101.228 Y45.772 E0.08090
G1 X101.114 Y49.039 E0.10249
M204 S1250
G1 X100.748 Y48.722 F9000.000
M204 S800
;TYPE:External perimeter
G1 F1200.000
G1 X77.803 Y48.722 E0.71944
G1 X77.642 Y45.859 E0.08990
G1 X77.311 Y42.064 E0.11944
G1 X77.360 Y40.873 E0.03738
G1 X77.867 Y39.916 E0.03397
G1 X78.715 Y39.280 E0.03322
G1 X79.766 Y38.938 E0.03466
G1 X80.935 Y38.835 E0.03680
G1 X82.156 Y38.934 E0.03840
G1 X83.361 Y39.208 E0.03874
G1 X84.484 Y39.637 E0.03771
G1 X85.456 Y40.210 E0.03538
G1 X86.177 Y40.897 E0.03122
G1 X87.456 Y42.520 E0.06478
G1 X88.133 Y43.270 E0.03169
G1 X88.424 Y43.541 E0.01245
G1 X88.685 Y43.744 E0.01038
G1 X88.911 Y43.878 E0.00825
G1 X89.100 Y43.949 E0.00634
G1 X89.267 Y43.971 E0.00527
G1 X89.660 Y43.939 E0.01236
G1 X90.004 Y43.858 E0.01109
G1 X90.295 Y43.737 E0.00988
G1 X90.546 Y43.576 E0.00934
G1 X90.771 Y43.370 E0.00957
G1 X90.979 Y43.113 E0.01037
G1 X91.175 Y42.802 E0.01152
G1 X91.363 Y42.439 E0.01281
G1 X91.749 Y41.516 E0.03138
G1 X92.286 Y40.646 E0.03204
G1 X93.139 Y39.907 E0.03540
G1 X94.194 Y39.353 E0.03736
G1 X95.378 Y39.004 E0.03871
G1 X96.622 Y38.891 E0.03915
G1 X97.856 Y39.053 E0.03904
G1 X99.000 Y39.537 E0.03893
G1 X99.955 Y40.386 E0.04009
G1 X100.612 Y41.622 E0.04387
G1 X100.887 Y43.222 E0.05091
G1 X100.851 Y45.763 E0.07968
G1 X100.750 Y48.662 E0.09095
M204 S1250
G1 X100.745 Y49.122 F9000.000
G1 E-2.24000 F2400.000
;WIPE_START
G1 F7200.000
G1 X97.870 Y48.670 E-0.91200
;WIPE_END
G1 E-0.04800 F2400.000
G1 Z0.400 F9000.000
G1 X42.560 Y129.525
G1 Z0.200
G1 E3.20000 F1500.000
M204 S800
;TYPE:Perimeter
G1 F1200.000
G1 X137.601 Y129.525 E2.97996
M73 P2 R78
G1 X137.982 Y130.409 E0.03019
G1 X138.199 Y130.702 E0.01141
G1 X138.497 Y130.986 E0.01292
G1 X138.866 Y131.262 E0.01446
G1 X139.745 Y131.832 E0.03284
G1 X140.203 Y132.153 E0.01753
G1 X140.644 Y132.539 E0.01838
G1 X141.012 Y133.007 E0.01868
G1 X141.430 Y133.856 E0.02966
G1 X141.705 Y134.650 E0.02636
G1 X141.871 Y135.407 E0.02427
G1 X141.946 Y136.111 E0.02221
G1 X141.951 Y136.752 E0.02010
G1 X141.905 Y137.320 E0.01785
G1 X141.829 Y137.807 E0.01545
G1 X141.670 Y138.471 E0.02141
G1 X141.474 Y139.035 E0.01873
G1 X141.172 Y139.440 E0.01585
G1 X140.811 Y139.772 E0.01535
G1 X140.396 Y140.057 E0.01579
G1 X139.931 Y140.304 E0.01651
G1 X139.421 Y140.511 E0.01726
G1 X138.875 Y140.675 E0.01786
G1 X138.299 Y140.790 E0.01842
G1 X137.699 Y140.851 E0.01891
G1 X137.112 Y140.849 E0.01839
G1 X126.875 Y140.367 E0.32135
G1 X116.291 Y140.122 E0.33193
G1 X105.523 Y140.068 E0.33764
G1 X94.760 Y140.163 E0.33747
G1 X84.195 Y140.364 E0.33133
G1 X74.016 Y140.625 E0.31926
G1 X55.579 Y141.158 E0.57832
M73 P2 R77
G1 X47.698 Y141.342 E0.24718
G1 X40.852 Y141.414 E0.21465
G1 X40.300 Y141.385 E0.01734
G1 X39.804 Y141.286 E0.01587
G1 X39.514 Y141.180 E0.00969
G1 X39.227 Y141.026 E0.01021
G1 X38.949 Y140.797 E0.01129
G1 X38.730 Y140.505 E0.01143
G1 X38.539 Y140.100 E0.01404
G1 X38.370 Y139.649 E0.01511
G1 X38.216 Y139.119 E0.01730
G1 X38.091 Y138.519 E0.01922
G1 X38.009 Y137.857 E0.02090
G1 X37.985 Y137.144 E0.02238
G1 X38.034 Y136.388 E0.02374
G1 X38.173 Y135.604 E0.02497
G1 X38.418 Y134.804 E0.02624
G1 X38.794 Y133.987 E0.02820
G1 X39.227 Y133.376 E0.02346
G1 X39.747 Y132.860 E0.02298
G1 X40.297 Y132.420 E0.02207
G1 X41.352 Y131.667 E0.04065
G1 X41.794 Y131.317 E0.01768
G1 X42.140 Y130.976 E0.01524
G1 X42.373 Y130.647 E0.01265
G1 X42.501 Y130.312 E0.01123
G1 X42.555 Y129.585 E0.02287
M204 S1250
G1 X42.910 Y129.902 F9000.000
M204 S800
;TYPE:External perimeter
G1 F1200.000
G1 X137.353 Y129.902 E2.96121
G1 X137.653 Y130.598 E0.02378
G1 X137.915 Y130.953 E0.01381
G1 X138.254 Y131.274 E0.01465
G1 X138.651 Y131.572 E0.01555
G1 X139.534 Y132.145 E0.03303
G1 X139.970 Y132.450 E0.01668
G1 X140.369 Y132.800 E0.01664
G1 X140.691 Y133.209 E0.01634
G1 X141.082 Y134.002 E0.02769
G1 X141.342 Y134.753 E0.02492
G1 X141.498 Y135.467 E0.02293
G1 X141.569 Y136.133 E0.02098
G1 X141.574 Y136.738 E0.01899
G1 X141.530 Y137.275 E0.01690
G1 X141.458 Y137.734 E0.01455
G1 X141.307 Y138.365 E0.02035
G1 X141.137 Y138.856 E0.01631
G1 X140.890 Y139.187 E0.01293
G1 X140.576 Y139.476 E0.01341
G1 X140.200 Y139.734 E0.01428
G1 X139.771 Y139.962 E0.01523
G1 X139.296 Y140.155 E0.01609
G1 X138.784 Y140.308 E0.01675
G1 X138.243 Y140.417 E0.01730
G1 X137.681 Y140.474 E0.01772
G1 X137.122 Y140.472 E0.01751
G1 X126.888 Y139.990 E0.32123
G1 X116.297 Y139.745 E0.33217
G1 X105.522 Y139.691 E0.33783
G1 X94.755 Y139.786 E0.33761
G1 X84.187 Y139.987 E0.33143
G1 X74.006 Y140.248 E0.31932
G1 X55.569 Y140.781 E0.57831
G1 X47.691 Y140.965 E0.24707
G1 X40.860 Y141.037 E0.21419
G1 X40.347 Y141.009 E0.01611
G1 X39.906 Y140.922 E0.01412
G1 X39.668 Y140.835 E0.00793
G1 X39.438 Y140.711 E0.00820
G1 X39.223 Y140.534 E0.00872
G1 X39.055 Y140.310 E0.00881
G1 X38.886 Y139.954 E0.01235
G1 X38.728 Y139.530 E0.01418
G1 X38.582 Y139.028 E0.01639
G1 X38.464 Y138.457 E0.01828
G1 X38.385 Y137.827 E0.01990
G1 X38.362 Y137.150 E0.02126
G1 X38.409 Y136.434 E0.02250
G1 X38.540 Y135.693 E0.02359
G1 X38.772 Y134.939 E0.02473
G1 X39.122 Y134.176 E0.02631
G1 X39.515 Y133.621 E0.02133
G1 X39.998 Y133.142 E0.02133
G1 X40.524 Y132.721 E0.02111
G1 X41.578 Y131.968 E0.04062
G1 X42.044 Y131.600 E0.01861
G1 X42.429 Y131.221 E0.01693
G1 X42.709 Y130.826 E0.01520
G1 X42.873 Y130.395 E0.01445
G1 X42.905 Y129.962 E0.01362
M204 S1250
G1 X42.938 Y129.503 F9000.000
G1 E-2.24000 F2400.000
;WIPE_START
G1 F7200.000
G1 X45.785 Y129.960 E-0.91200
;WIPE_END
G1 E-0.04800 F2400.000
G1 Z0.400 F9000.000
G1 X137.846 Y129.099
G1 Z0.200
G1 E3.20000 F1500.000
M204 S800
;TYPE:Perimeter
G1 F1200.000
G1 X43.335 Y129.099 E2.96331
G1 X42.441 Y129.415 E0.02974
G1 X42.082 Y128.969 E0.01795
G1 X41.769 Y128.695 E0.01305
G1 X41.389 Y128.438 E0.01437
G1 X40.028 Y127.689 E0.04873
G1 X39.578 Y127.410 E0.01659
G1 X39.154 Y127.063 E0.01718
G1 X38.710 Y126.473 E0.02314
G1 X38.352 Y125.724 E0.02605
G1 X38.090 Y124.862 E0.02823
G1 X37.944 Y123.916 E0.03000
G1 X37.947 Y122.920 E0.03124
G1 X38.138 Y121.910 E0.03222
G1 X38.573 Y120.939 E0.03336
G1 X39.293 Y120.086 E0.03498
G1 X40.309 Y119.440 E0.03777
G1 X41.611 Y119.063 E0.04249
G1 X43.201 Y119.006 E0.04988
G1 X46.297 Y119.023 E0.09709
G1 X66.352 Y119.357 E0.62891
G1 X71.237 Y119.401 E0.15314
G1 X75.238 Y119.386 E0.12547
G1 X77.901 Y119.293 E0.08355
G1 X78.301 Y119.218 E0.01277
G1 X78.370 Y118.525 E0.02184
G1 X100.275 Y118.525 E0.68681
G1 X100.317 Y119.491 E0.03032
G1 X103.481 Y119.531 E0.09922
G1 X107.463 Y119.515 E0.12486
G1 X111.578 Y119.444 E0.12905
G1 X115.776 Y119.332 E0.13165
G1 X120.001 Y119.187 E0.13257
G1 X139.905 Y118.385 E0.62458
G1 X140.536 Y118.558 E0.02051
G1 X141.054 Y119.030 E0.02197
G1 X141.402 Y119.596 E0.02083
G1 X141.658 Y120.225 E0.02129
G1 X141.850 Y120.904 E0.02213
G1 X141.987 Y121.615 E0.02269
G1 X142.069 Y122.332 E0.02265
G1 X142.095 Y123.031 E0.02193
G1 X142.060 Y123.691 E0.02070
G1 X141.949 Y124.303 E0.01951
G1 X141.591 Y125.169 E0.02939
G1 X141.074 Y125.888 E0.02775
G1 X140.475 Y126.470 E0.02619
G1 X138.751 Y127.795 E0.06817
G1 X138.333 Y128.200 E0.01826
G1 X138.031 Y128.624 E0.01630
G1 X137.868 Y129.043 E0.01411
M204 S1250
G1 X137.588 Y128.722 F9000.000
M204 S800
;TYPE:External perimeter
G1 F1200.000
