; generated by PrusaSlicer 2.3.3+win64 on 2022-03-18 at 13:22:30 UTC


;
;

;
;
; 

; external perimeters extrusion width = 0.45mm
; perimeters extrusion width = 0.45mm
; infill extrusion width = 0.45mm
; solid infill extrusion width = 0.45mm
; top infill extrusion width = 0.40mm
; first layer extrusion width = 0.42mm

M73 P0 R73
M201 X1250 Y1250 Z400 E5000 ; sets maximum accelerations, mm/sec^2
M203 X180 Y180 Z12 E80 ; sets maximum feedrates, mm/sec
M204 P1250 R1250 T1250 ; sets acceleration (P, T) and retract acceleration (R), mm/sec^2
M205 X8.00 Y8.00 Z2.00 E10.00 ; sets the jerk limits, mm/sec
M205 S0 T0 ; sets the minimum extruding and travel feed rate, mm/sec
M107
;TYPE:Custom
G90 ; use absolute coordinates
M83 ; extruder relative mode
M104 S170 ; set extruder temp for bed leveling
M140 S85 ; set bed temp
M109 R170 ; wait for bed leveling temp
M190 S85 ; wait for bed temp
G28 ; home all without mesh bed level
G29 ; mesh bed leveling 
M104 S230 ; set extruder temp
G92 E0.0
G1 Y-2.0 X179 F2400
G1 Z3 F720
M109 S230 ; wait for extruder temp

; intro line
G1 X170 F1000
G1 Z0.2 F720
G1 X110.0 E8.0 F900
G1 X40.0 E10.0 F700
G92 E0.0

M221 S95 ; set flow
G21 ; set units to millimeters
G90 ; use absolute coordinates
M83 ; use relative distances for extrusion
M900 K0.2 ; Filament gcode
;LAYER_CHANGE
;Z:0.2
;HEIGHT:0.2
;BEFORE_LAYER_CHANGE
G92 E0.0
;0.2


G1 E-3.20000 F2400.000
G1 Z0.200 F9000.000
;AFTER_LAYER_CHANGE
;0.2
G1 Z0.400
G1 X73.115 Y36.535
G1 Z0.200
G1 E3.20000 F1500.000
M204 S800
;TYPE:Skirt
;WIDTH:0.42
G1 F1200.000
G1 X74.346 Y35.385 E0.05283
G1 X75.068 Y34.896 E0.02735
G1 X76.302 Y34.273 E0.04333
G1 X77.966 Y33.755 E0.05465
G1 X79.440 Y33.540 E0.04669
G1 X80.323 Y33.504 E0.02771
G1 X96.025 Y33.469 E0.49235
G1 X97.609 Y33.580 E0.04979
G1 X99.107 Y33.908 E0.04806
G1 X100.519 Y34.455 E0.04749
G1 X101.671 Y35.122 E0.04174
G1 X103.091 Y36.305 E0.05795
G1 X103.960 Y37.330 E0.04212
G1 X104.740 Y38.616 E0.04716
G1 X137.914 Y117.974 E2.69688
G1 X138.542 Y119.945 E0.06485
G1 X138.836 Y121.794 E0.05872
G1 X138.894 Y122.898 E0.03466
G1 X138.730 Y137.498 E0.45781
G1 X138.565 Y138.726 E0.03883
G1 X138.308 Y139.833 E0.03565
G1 X137.885 Y141.057 E0.04059
G1 X137.248 Y142.161 E0.03998
G1 X136.474 Y143.085 E0.03780
G1 X135.551 Y143.895 E0.03849
G1 X134.557 Y144.548 E0.03730
G1 X133.518 Y145.064 E0.03635
G1 X132.360 Y145.484 E0.03861
G1 X131.248 Y145.759 E0.03593
G1 X129.270 Y145.964 E0.06234
G1 X49.203 Y146.531 E2.51052
G1 X48.174 Y146.479 E0.03230
G1 X47.226 Y146.328 E0.03010
G1 X45.569 Y145.771 E0.05480
G1 X44.812 Y145.358 E0.02706
G1 X44.137 Y144.874 E0.02604
G1 X43.305 Y144.069 E0.03629
G1 X42.844 Y143.474 E0.02359
G1 X42.210 Y142.337 E0.04084
G1 X41.837 Y141.410 E0.03131
G1 X41.309 Y139.307 E0.06800
G1 X41.173 Y138.103 E0.03797
G1 X41.151 Y136.972 E0.03549
G1 X41.106 Y123.776 E0.41377
G1 X41.130 Y122.660 E0.03500
G1 X41.308 Y121.381 E0.04049
G1 X41.615 Y120.223 E0.03755
G1 X72.005 Y38.268 E2.74062
G1 X72.398 Y37.537 E0.02602
G1 X73.080 Y36.584 E0.03675
M204 S1250
; printing object tNEW.stl id:0 copy 0
G1 E-2.24000 F2400.000
;WIPE_START
G1 F7200.000
G1 X74.346 Y35.385 E-0.55220
G1 X75.068 Y34.896 E-0.27617
G1 X75.304 Y34.777 E-0.08363
;WIPE_END
G1 E-0.04800 F2400.000
G1 Z0.400 F9000.000
G1 X78.181 Y87.367
G1 Z0.200
G1 E3.20000 F1500.000
M204 S800
;TYPE:Perimeter
G1 F1200.000
G1 X99.404 Y87.367 E0.66543
G1 X99.318 Y92.870 E0.17257
G1 X99.308 Y96.941 E0.12764
G1 X78.308 Y96.941 E0.65846
G1 X78.254 Y91.181 E0.18060
G1 X78.182 Y87.427 E0.11773
M204 S1250
G1 X78.565 Y87.744 F9000.000
M204 S800
;TYPE:External perimeter
G1 F1200.000
G1 X99.021 Y87.744 E0.64137
G1 X98.941 Y92.867 E0.16064
G1 X98.932 Y96.564 E0.11593
G1 X78.681 Y96.564 E0.63496
G1 X78.631 Y91.176 E0.16895
G1 X78.566 Y87.804 E0.10574
M204 S1250
G1 X78.564 Y87.344 F9000.000
G1 E-2.24000 F2400.000
;WIPE_START
G1 F7200.000
G1 X81.446 Y87.796 E-0.91200
;WIPE_END
G1 E-0.04800 F2400.000
G1 Z0.400 F9000.000
G1 X78.312 Y97.367
G1 Z0.200
G1 E3.20000 F1500.000
M204 S800
;TYPE:Perimeter
G1 F1200.000
G1 X99.307 Y97.367 E0.65831
M73 P0 R72
G1 X99.295 Y102.573 E0.16322
G1 X99.365 Y106.941 E0.13699
G1 X78.314 Y106.941 E0.66006
M73 P1 R72
G1 X78.345 Y100.939 E0.18821
G1 X78.312 Y97.427 E0.11011
M204 S1250
G1 X78.692 Y97.744 F9000.000
M204 S800
;TYPE:External perimeter
G1 F1200.000
G1 X98.929 Y97.744 E0.63452
G1 X98.918 Y102.575 E0.15148
G1 X98.982 Y106.564 E0.12508
G1 X78.693 Y106.564 E0.63616
G1 X78.722 Y100.938 E0.17641
G1 X78.693 Y97.804 E0.09826
M204 S1250
G1 X78.692 Y97.344 F9000.000
G1 E-2.24000 F2400.000
;WIPE_START
G1 F7200.000
G1 X81.573 Y97.795 E-0.91200
;WIPE_END
G1 E-0.04800 F2400.000
G1 Z0.400 F9000.000
G1 X78.312 Y107.367
G1 Z0.200
G1 E3.20000 F1500.000
M204 S800
;TYPE:Perimeter
G1 F1200.000
G1 X99.372 Y107.367 E0.66034
G1 X99.444 Y111.814 E0.13944
G1 X99.622 Y115.941 E0.12953
G1 X78.097 Y115.941 E0.67492
G1 X78.301 Y109.409 E0.20492
G1 X78.311 Y107.427 E0.06214
M204 S1250
G1 X78.687 Y107.744 F9000.000
M204 S800
;TYPE:External perimeter
G1 F1200.000
G1 X99.001 Y107.744 E0.63695
G1 X99.067 Y111.825 E0.12797
G1 X99.229 Y115.564 E0.11735
G1 X78.486 Y115.564 E0.65038
G1 X78.678 Y109.416 E0.19288
G1 X78.686 Y107.804 E0.05053
M204 S1250
G1 X78.690 Y107.344 F9000.000
G1 E-2.24000 F2400.000
;WIPE_START
G1 F7200.000
G1 X81.566 Y107.795 E-0.91200
;WIPE_END
G1 E-0.04800 F2400.000
G1 Z0.400 F9000.000
G1 X78.054 Y116.367
G1 Z0.200
G1 E3.20000 F1500.000
M204 S800
;TYPE:Perimeter
G1 F1200.000
G1 X99.641 Y116.367 E0.67685
G1 X99.779 Y119.562 E0.10026
G1 X102.726 Y119.602 E0.09242
G1 X106.117 Y119.585 E0.10630
G1 X109.359 Y119.515 E0.10170
G1 X112.497 Y119.403 E0.09842
G1 X115.572 Y119.259 E0.09654
G1 X124.847 Y118.751 E0.29125
G1 X128.094 Y118.593 E0.10193
G1 X131.604 Y118.456 E0.11011
G1 X132.236 Y118.627 E0.02056
G1 X132.755 Y119.102 E0.02203
G1 X133.102 Y119.667 E0.02080
G1 X133.358 Y120.295 E0.02126
G1 X133.551 Y120.974 E0.02215
G1 X133.688 Y121.686 E0.02272
G1 X133.769 Y122.402 E0.02261
G1 X133.796 Y123.101 E0.02191
G1 X133.761 Y123.761 E0.02072
G1 X133.649 Y124.375 E0.01957
G1 X133.291 Y125.239 E0.02935
G1 X132.775 Y125.958 E0.02773
G1 X132.176 Y126.541 E0.02621
G1 X130.452 Y127.866 E0.06818
G1 X130.033 Y128.271 E0.01827
G1 X129.557 Y128.941 E0.02578
G1 X50.284 Y128.941 E2.48553
G1 X49.667 Y128.505 E0.02370
G1 X48.311 Y127.759 E0.04854
G1 X47.861 Y127.481 E0.01657
G1 X47.436 Y127.134 E0.01721
G1 X46.993 Y126.543 E0.02316
G1 X46.634 Y125.795 E0.02601
G1 X46.373 Y124.933 E0.02824
G1 X46.227 Y123.988 E0.02999
G1 X46.228 Y122.991 E0.03126
G1 X46.421 Y121.980 E0.03226
G1 X46.855 Y121.010 E0.03331
G1 X47.575 Y120.156 E0.03503
G1 X48.592 Y119.510 E0.03778
G1 X49.891 Y119.135 E0.04239
G1 X51.234 Y119.077 E0.04214
G1 X53.664 Y119.093 E0.07620
G1 X68.922 Y119.427 E0.47852
G1 X72.605 Y119.471 E0.11547
G1 X75.613 Y119.456 E0.09433
G1 X77.584 Y119.366 E0.06185
G1 X77.761 Y119.322 E0.00571
G1 X78.048 Y116.427 E0.09124
M204 S1250
G1 X78.395 Y116.744 F9000.000
M204 S800
;TYPE:External perimeter
G1 F1200.000
G1 X99.280 Y116.744 E0.65482
G1 X99.418 Y119.934 E0.10011
G1 X102.725 Y119.979 E0.10370
G1 X106.122 Y119.962 E0.10651
G1 X109.370 Y119.892 E0.10188
G1 X112.512 Y119.779 E0.09857
G1 X115.591 Y119.636 E0.09665
G1 X124.867 Y119.128 E0.29126
G1 X128.111 Y118.969 E0.10184
G1 X131.561 Y118.835 E0.10824
G1 X132.049 Y118.967 E0.01588
G1 X132.461 Y119.344 E0.01750
G1 X132.765 Y119.838 E0.01817
G1 X133.001 Y120.417 E0.01962
G1 X133.183 Y121.061 E0.02098
G1 X133.315 Y121.743 E0.02176
G1 X133.393 Y122.431 E0.02171
G1 X133.418 Y123.098 E0.02093
G1 X133.386 Y123.717 E0.01943
G1 X133.286 Y124.268 E0.01756
G1 X132.960 Y125.055 E0.02672
G1 X132.488 Y125.711 E0.02533
G1 X131.929 Y126.256 E0.02448
G1 X130.205 Y127.580 E0.06816
G1 X129.746 Y128.024 E0.02003
G1 X129.362 Y128.564 E0.02077
G1 X50.404 Y128.564 E2.47568
G1 X49.867 Y128.185 E0.02061
G1 X48.501 Y127.433 E0.04890
G1 X48.080 Y127.174 E0.01549
G1 X47.710 Y126.871 E0.01500
G1 X47.317 Y126.347 E0.02055
G1 X46.987 Y125.658 E0.02394
G1 X46.741 Y124.849 E0.02650
G1 X46.604 Y123.959 E0.02824
G1 X46.605 Y123.027 E0.02923
G1 X46.783 Y122.094 E0.02977
G1 X47.177 Y121.213 E0.03027
G1 X47.826 Y120.444 E0.03155
G1 X48.749 Y119.857 E0.03427
G1 X49.952 Y119.509 E0.03928
G1 X51.241 Y119.454 E0.04043
G1 X53.659 Y119.470 E0.07582
G1 X68.916 Y119.804 E0.47849
G1 X72.603 Y119.848 E0.11563
G1 X75.623 Y119.833 E0.09467
G1 X77.639 Y119.741 E0.06327
G1 X78.110 Y119.624 E0.01522
G1 X78.389 Y116.804 E0.08886
M204 S1250
G1 X78.428 Y116.345 F9000.000
G1 E-2.24000 F2400.000
;WIPE_START
G1 F7200.000
G1 X81.269 Y116.795 E-0.91200
;WIPE_END
G1 E-0.04800 F2400.000
G1 Z0.400 F9000.000
G1 X50.860 Y129.367
G1 Z0.200
G1 E3.20000 F1500.000
M204 S800
;TYPE:Perimeter
G1 F1200.000
G1 X129.422 Y129.367 E2.46326
G1 X129.545 Y130.160 E0.02516
G1 X129.684 Y130.480 E0.01095
G1 X129.899 Y130.773 E0.01139
G1 X130.197 Y131.055 E0.01288
G1 X130.567 Y131.332 E0.01448
G1 X131.446 Y131.902 E0.03283
G1 X131.903 Y132.223 E0.01752
G1 X132.346 Y132.609 E0.01842
G1 X132.714 Y133.079 E0.01873
G1 X133.131 Y133.927 E0.02963
G1 X133.406 Y134.721 E0.02633
G1 X133.572 Y135.477 E0.02426
G1 X133.647 Y136.182 E0.02223
G1 X133.651 Y136.823 E0.02012
G1 X133.604 Y137.398 E0.01808
G1 X133.448 Y138.248 E0.02711
G1 X133.322 Y138.720 E0.01530
G1 X133.167 Y139.114 E0.01328
G1 X132.873 Y139.510 E0.01547
G1 X132.513 Y139.843 E0.01537
G1 X132.095 Y140.129 E0.01587
G1 X131.631 Y140.374 E0.01647
G1 X131.123 Y140.581 E0.01719
G1 X130.576 Y140.745 E0.01791
G1 X130.000 Y140.861 E0.01843
G1 X129.400 Y140.921 E0.01892
G1 X128.812 Y140.919 E0.01842
G1 X119.038 Y140.438 E0.30682
G1 X109.715 Y140.192 E0.29242
G1 X100.806 Y140.139 E0.27935
G1 X92.301 Y140.234 E0.26668
G1 X84.192 Y140.434 E0.25433
G1 X76.468 Y140.696 E0.24232
G1 X62.142 Y141.229 E0.44951
G1 X55.517 Y141.413 E0.20778
G1 X49.134 Y141.484 E0.20015
G1 X48.584 Y141.456 E0.01728
G1 X48.086 Y141.357 E0.01590
G1 X47.794 Y141.250 E0.00975
G1 X47.509 Y141.095 E0.01017
G1 X47.232 Y140.869 E0.01122
G1 X47.013 Y140.577 E0.01145
G1 X46.821 Y140.172 E0.01405
G1 X46.651 Y139.719 E0.01517
G1 X46.498 Y139.189 E0.01729
G1 X46.374 Y138.590 E0.01920
G1 X46.292 Y137.928 E0.02090
G1 X46.267 Y137.214 E0.02241
G1 X46.316 Y136.459 E0.02370
G1 X46.455 Y135.674 E0.02500
G1 X46.701 Y134.874 E0.02626
G1 X47.076 Y134.057 E0.02819
G1 X47.509 Y133.446 E0.02346
G1 X48.029 Y132.930 E0.02296
G1 X48.579 Y132.491 E0.02209
G1 X49.634 Y131.737 E0.04065
G1 X50.077 Y131.387 E0.01769
G1 X50.422 Y131.047 E0.01518
G1 X50.655 Y130.717 E0.01268
G1 X50.783 Y130.381 E0.01126
G1 X50.855 Y129.427 E0.03002
M204 S1250
G1 X51.209 Y129.744 F9000.000
M204 S800
;TYPE:External perimeter
G1 F1200.000
G1 X129.099 Y129.744 E2.44217
M73 P2 R72
G1 X129.180 Y130.265 E0.01654
G1 X129.355 Y130.669 E0.01381
G1 X129.616 Y131.024 E0.01379
G1 X129.954 Y131.344 E0.01461
G1 X130.351 Y131.642 E0.01557
G1 X131.235 Y132.215 E0.03302
G1 X131.670 Y132.520 E0.01667
G1 X132.071 Y132.870 E0.01668
G1 X132.393 Y133.281 E0.01638
G1 X132.782 Y134.073 E0.02767
G1 X133.042 Y134.823 E0.02491
G1 X133.199 Y135.537 E0.02291
G1 X133.270 Y136.203 E0.02099
G1 X133.274 Y136.809 E0.01901
G1 X133.230 Y137.348 E0.01696
G1 X133.079 Y138.165 E0.02605
G1 X132.963 Y138.602 E0.01417
G1 X132.835 Y138.930 E0.01103
G1 X132.591 Y139.257 E0.01280
G1 X132.277 Y139.547 E0.01341
G1 X131.900 Y139.806 E0.01433
G1 X131.471 Y140.032 E0.01520
G1 X130.998 Y140.225 E0.01604
G1 X130.485 Y140.379 E0.01679
G1 X129.944 Y140.488 E0.01729
G1 X129.382 Y140.544 E0.01772
G1 X128.822 Y140.542 E0.01754
G1 X119.053 Y140.061 E0.30669
G1 X109.721 Y139.815 E0.29267
G1 X100.805 Y139.762 E0.27957
G1 X92.294 Y139.857 E0.26686
G1 X84.181 Y140.057 E0.25447
G1 X76.455 Y140.319 E0.24239
G1 X62.129 Y140.852 E0.44947
G1 X55.510 Y141.036 E0.20762
G1 X49.142 Y141.107 E0.19968
G1 X48.631 Y141.081 E0.01605
G1 X48.188 Y140.993 E0.01414
G1 X47.950 Y140.906 E0.00796
G1 X47.720 Y140.781 E0.00819
G1 X47.506 Y140.606 E0.00867
G1 X47.337 Y140.381 E0.00882
G1 X47.168 Y140.025 E0.01236
G1 X47.009 Y139.601 E0.01420
G1 X46.865 Y139.099 E0.01639
G1 X46.746 Y138.528 E0.01827
G1 X46.668 Y137.898 E0.01990
G1 X46.645 Y137.220 E0.02130
G1 X46.691 Y136.505 E0.02246
G1 X46.823 Y135.763 E0.02363
G1 X47.054 Y135.008 E0.02474
G1 X47.404 Y134.246 E0.02630
G1 X47.798 Y133.691 E0.02133
G1 X48.280 Y133.212 E0.02130
G1 X48.807 Y132.792 E0.02113
G1 X49.861 Y132.038 E0.04062
G1 X50.326 Y131.670 E0.01861
G1 X50.710 Y131.293 E0.01688
G1 X50.990 Y130.896 E0.01523
G1 X51.155 Y130.465 E0.01447
G1 X51.205 Y129.804 E0.02078
M204 S1250
G1 X51.234 Y129.345 F9000.000
G1 E-2.24000 F2400.000
;WIPE_START
G1 F7200.000
G1 X54.085 Y129.802 E-0.91200
;WIPE_END
G1 E-0.04800 F2400.000
G1 Z0.400 F9000.000
G1 X78.173 Y86.941
G1 Z0.200
G1 E3.20000 F1500.000
M204 S800
;TYPE:Perimeter
G1 F1200.000
G1 X78.055 Y80.792 E0.19283
G1 X77.963 Y77.367 E0.10743
G1 X99.616 Y77.367 E0.67891
G1 X99.471 Y83.081 E0.17922
G1 X99.411 Y86.941 E0.12104
G1 X78.233 Y86.941 E0.66402
M204 S1250
G1 X78.543 Y86.564 F9000.000
M204 S800
;TYPE:External perimeter
G1 F1200.000
G1 X78.432 Y80.783 E0.18128
G1 X78.350 Y77.744 E0.09533
G1 X99.229 Y77.744 E0.65463
G1 X99.094 Y83.073 E0.16715
G1 X99.039 Y86.564 E0.10946
G1 X78.603 Y86.564 E0.64078
M204 S1250
G1 X78.144 Y86.592 F9000.000
G1 E-2.24000 F2400.000
;WIPE_START
G1 F7200.000
G1 X78.518 Y83.685 E-0.91200
;WIPE_END
G1 E-0.04800 F2400.000
G1 Z0.400 F9000.000
G1 X77.671 Y67.367
G1 Z0.200
G1 E3.20000 F1500.000
M204 S800
;TYPE:Perimeter
G1 F1200.000
G1 X99.912 Y67.367 E0.69733
M73 P2 R71
G1 X99.712 Y73.578 E0.19483
G1 X99.627 Y76.941 E0.10549
G1 X77.952 Y76.941 E0.67960
G1 X77.776 Y70.423 E0.20444
G1 X77.673 Y67.427 E0.09400
M204 S1250
G1 X78.062 Y67.744 F9000.000
M204 S800
;TYPE:External perimeter
G1 F1200.000
G1 X99.522 Y67.744 E0.67288
G1 X99.335 Y73.567 E0.18266
G1 X99.259 Y76.564 E0.09401
G1 X78.319 Y76.564 E0.65657
G1 X78.153 Y70.412 E0.19298
G1 X78.064 Y67.804 E0.08181
M204 S1250
G1 X78.058 Y67.344 F9000.000
G1 E-2.24000 F2400.000
;WIPE_START
G1 F7200.000
G1 X80.944 Y67.796 E-0.91200
;WIPE_END
G1 E-0.04800 F2400.000
G1 Z0.400 F9000.000
G1 X77.300 Y57.367
G1 Z0.200
G1 E3.20000 F1500.000
M204 S800
;TYPE:Perimeter
G1 F1200.000
G1 X100.266 Y57.367 E0.72010
G1 X99.923 Y66.941 E0.30038
G1 X77.657 Y66.941 E0.69815
G1 X77.443 Y60.726 E0.19497
G1 X77.303 Y57.427 E0.10355
M204 S1250
G1 X77.694 Y57.744 F9000.000
M204 S800
;TYPE:External perimeter
G1 F1200.000
G1 X99.876 Y57.744 E0.69550
G1 X99.560 Y66.564 E0.27672
G1 X78.021 Y66.564 E0.67532
G1 X77.820 Y60.712 E0.18360
G1 X77.696 Y57.804 E0.09126
M204 S1250
G1 X77.689 Y57.344 F9000.000
G1 E-2.24000 F2400.000
;WIPE_START
G1 F7200.000
G1 X80.576 Y57.796 E-0.91200
;WIPE_END
G1 E-0.04800 F2400.000
G1 Z0.400 F9000.000
G1 X76.807 Y47.367
G1 Z0.200
G1 E3.20000 F1500.000
M204 S800
;TYPE:Perimeter
G1 F1200.000
G1 X100.639 Y47.367 E0.74723
G1 X100.283 Y56.941 E0.30040
G1 X77.282 Y56.941 E0.72119
G1 X77.086 Y52.355 E0.14393
G1 X76.811 Y47.427 E0.15475
M204 S1250
G1 X77.206 Y47.744 F9000.000
M204 S800
;TYPE:External perimeter
G1 F1200.000
G1 X100.248 Y47.744 E0.72246
G1 X99.920 Y56.564 E0.27674
G1 X77.643 Y56.564 E0.69847
G1 X77.462 Y52.336 E0.13268
G1 X77.209 Y47.804 E0.14233
M204 S1250
G1 X77.199 Y47.344 F9000.000
G1 E-2.24000 F2400.000
;WIPE_START
G1 F7200.000
G1 X80.089 Y47.796 E-0.91200
;WIPE_END
G1 E-0.04800 F2400.000
G1 Z0.400 F9000.000
G1 X100.662 Y46.941
G1 Z0.200
G1 E3.20000 F1500.000
M204 S800
;TYPE:Perimeter
G1 F1200.000
G1 X76.799 Y46.941 E0.74823
G1 X76.396 Y42.143 E0.15096
G1 X76.449 Y40.843 E0.04079
G1 X77.036 Y39.735 E0.03932
G1 X78.000 Y39.011 E0.03781
G1 X79.153 Y38.636 E0.03801
G1 X80.353 Y38.530 E0.03779
G1 X81.673 Y38.630 E0.04151
G1 X82.933 Y38.917 E0.04052
G1 X84.111 Y39.367 E0.03952
G1 X85.148 Y39.978 E0.03774
G1 X85.918 Y40.714 E0.03339
G1 X87.207 Y42.347 E0.06523
G1 X87.865 Y43.075 E0.03077
G1 X88.132 Y43.324 E0.01147
G1 X88.360 Y43.503 E0.00908
G1 X88.536 Y43.607 E0.00641
G1 X88.739 Y43.663 E0.00660
G1 X89.064 Y43.635 E0.01023
G1 X89.352 Y43.569 E0.00926
G1 X89.581 Y43.473 E0.00780
G1 X89.777 Y43.347 E0.00731
G1 X89.958 Y43.181 E0.00769
