; generated by PrusaSlicer 2.3.3+win64 on 2022-03-15 at 15:01:00 UTC


;
;

;
;
; 

; external perimeters extrusion width = 0.45mm
; perimeters extrusion width = 0.45mm
; infill extrusion width = 0.45mm
; solid infill extrusion width = 0.45mm
; top infill extrusion width = 0.40mm
; first layer extrusion width = 0.42mm

M73 P0 R42
M201 X1250 Y1250 Z400 E5000 ; sets maximum accelerations, mm/sec^2
M203 X180 Y180 Z12 E80 ; sets maximum feedrates, mm/sec
M204 P1250 R1250 T1250 ; sets acceleration (P, T) and retract acceleration (R), mm/sec^2
M205 X8.00 Y8.00 Z2.00 E10.00 ; sets the jerk limits, mm/sec
M205 S0 T0 ; sets the minimum extruding and travel feed rate, mm/sec
M107
;TYPE:Custom
G90 ; use absolute coordinates
M83 ; extruder relative mode
M104 S170 ; set extruder temp for bed leveling
M140 S85 ; set bed temp
M109 R170 ; wait for bed leveling temp
M190 S85 ; wait for bed temp
G28 ; home all without mesh bed level
G29 ; mesh bed leveling 
M104 S230 ; set extruder temp
G92 E0.0
G1 Y-2.0 X179 F2400
G1 Z3 F720
M109 S230 ; wait for extruder temp

; intro line
G1 X170 F1000
G1 Z0.2 F720
G1 X110.0 E8.0 F900
G1 X40.0 E10.0 F700
G92 E0.0

M221 S95 ; set flow
G21 ; set units to millimeters
G90 ; use absolute coordinates
M83 ; use relative distances for extrusion
M900 K0.2 ; Filament gcode
;LAYER_CHANGE
;Z:0.2
;HEIGHT:0.2
;BEFORE_LAYER_CHANGE
G92 E0.0
;0.2


G1 E-3.20000 F2400.000
G1 Z0.200 F9000.000
;AFTER_LAYER_CHANGE
;0.2
G1 Z0.400
G1 X59.461 Y70.905
G1 Z0.200
G1 E3.20000 F1500.000
M204 S800
;TYPE:Skirt
;WIDTH:0.42
G1 F1200.000
G1 X60.885 Y70.585 E0.04579
G1 X80.889 Y70.548 E0.62719
G1 X119.263 Y72.768 E1.20520
G1 X120.665 Y73.121 E0.04534
G1 X121.523 Y73.507 E0.02949
G1 X122.486 Y74.147 E0.03626
G1 X123.139 Y74.729 E0.02742
G1 X123.717 Y75.409 E0.02798
G1 X124.371 Y76.456 E0.03870
G1 X124.756 Y77.388 E0.03163
G1 X124.980 Y78.276 E0.02870
G1 X125.102 Y79.504 E0.03870
G1 X125.098 Y102.684 E0.72679
G1 X125.006 Y103.688 E0.03163
G1 X124.699 Y104.858 E0.03791
G1 X124.345 Y105.690 E0.02835
G1 X123.893 Y106.444 E0.02758
G1 X123.212 Y107.297 E0.03420
G1 X122.322 Y108.097 E0.03754
G1 X121.295 Y108.732 E0.03786
G1 X120.448 Y109.092 E0.02884
G1 X119.579 Y109.321 E0.02820
G1 X118.476 Y109.444 E0.03478
G1 X96.852 Y109.452 E0.67800
G1 X61.688 Y107.276 E1.10465
G1 X60.571 Y107.026 E0.03591
G1 X59.695 Y106.667 E0.02968
G1 X58.477 Y105.890 E0.04530
G1 X57.718 Y105.175 E0.03268
G1 X57.084 Y104.354 E0.03252
G1 X56.438 Y103.184 E0.04192
G1 X55.945 Y101.780 E0.04667
G1 X55.664 Y100.240 E0.04906
G1 X54.898 Y78.951 E0.66795
M73 P1 R42
G1 X55.082 Y76.697 E0.07091
G1 X55.421 Y75.269 E0.04601
G1 X56.059 Y73.809 E0.04995
G1 X56.833 Y72.703 E0.04233
G1 X57.553 Y71.985 E0.03190
G1 X58.332 Y71.439 E0.02982
G1 X59.406 Y70.931 E0.03726
M204 S1250
; printing object Amazing Esboo-Allis.stl id:0 copy 0
G1 E-2.24000 F2400.000
;WIPE_START
G1 F7200.000
G1 X60.885 Y70.585 E-0.48098
G1 X62.247 Y70.583 E-0.43102
;WIPE_END
G1 E-0.04800 F2400.000
G1 Z0.400 F9000.000
G1 X103.386 Y96.833
G1 Z0.200
G1 E3.20000 F1500.000
M204 S800
;TYPE:Perimeter
M73 P1 R41
G1 F1200.000
G1 X111.636 Y96.833 E0.25869
G1 X111.708 Y79.435 E0.54550
G1 X111.694 Y79.148 E0.00901
G1 X111.718 Y78.792 E0.01120
G1 X111.776 Y78.560 E0.00749
G1 X111.887 Y78.315 E0.00845
G1 X112.084 Y78.077 E0.00965
G1 X112.421 Y77.849 E0.01277
G1 X112.756 Y77.817 E0.01055
G1 X118.262 Y77.817 E0.17264
G1 X118.508 Y77.839 E0.00774
G1 X118.776 Y77.909 E0.00867
G1 X119.024 Y78.023 E0.00857
G1 X119.247 Y78.176 E0.00847
G1 X119.439 Y78.358 E0.00831
G1 X119.601 Y78.568 E0.00832
G1 X119.730 Y78.802 E0.00836
G1 X119.823 Y79.053 E0.00839
G1 X119.880 Y79.318 E0.00850
G1 X119.896 Y79.566 E0.00779
G1 X119.896 Y102.586 E0.72178
G1 X119.878 Y102.846 E0.00819
G1 X119.817 Y103.125 E0.00896
G1 X119.718 Y103.385 E0.00870
G1 X119.585 Y103.626 E0.00865
G1 X119.416 Y103.842 E0.00859
G1 X119.216 Y104.034 E0.00869
G1 X118.982 Y104.191 E0.00882
G1 X118.704 Y104.319 E0.00961
G1 X118.330 Y104.370 E0.01183
G1 X96.864 Y104.370 E0.67306
G1 X96.624 Y104.347 E0.00755
G1 X96.362 Y104.274 E0.00854
G1 X96.119 Y104.156 E0.00845
G1 X95.909 Y104.005 E0.00813
G1 X95.729 Y103.827 E0.00794
G1 X95.566 Y103.610 E0.00852
G1 X95.369 Y103.173 E0.01503
G1 X95.303 Y102.715 E0.01451
G1 X95.303 Y79.597 E0.72483
G1 X95.323 Y79.343 E0.00799
G1 X95.383 Y79.075 E0.00864
G1 X95.480 Y78.819 E0.00858
G1 X95.613 Y78.579 E0.00860
G1 X95.778 Y78.363 E0.00852
G1 X95.975 Y78.171 E0.00861
G1 X96.204 Y78.010 E0.00878
G1 X96.497 Y77.869 E0.01021
G1 X96.867 Y77.817 E0.01172
G1 X102.038 Y77.817 E0.16211
G1 X102.283 Y77.841 E0.00774
G1 X102.549 Y77.920 E0.00871
G1 X102.794 Y78.048 E0.00864
G1 X103.002 Y78.215 E0.00837
G1 X103.187 Y78.425 E0.00878
G1 X103.409 Y78.843 E0.01483
G1 X103.514 Y79.299 E0.01467
G1 X103.526 Y79.540 E0.00757
G1 X103.386 Y96.773 E0.54035
M204 S1250
G1 X103.027 Y97.093 F9000.000
M204 S800
;TYPE:External perimeter
G1 F1200.000
G1 X103.054 Y97.154 E0.00208
G1 X103.133 Y97.195 E0.00278
G1 X103.284 Y97.210 E0.00477
G1 X111.824 Y97.210 E0.26775
G1 X111.976 Y97.171 E0.00491
G1 X112.014 Y96.837 E0.01055
G1 X112.085 Y79.427 E0.54589
G1 X112.072 Y79.152 E0.00864
G1 X112.092 Y78.851 E0.00945
G1 X112.133 Y78.685 E0.00536
G1 X112.210 Y78.516 E0.00582
G1 X112.340 Y78.359 E0.00637
G1 X112.553 Y78.215 E0.00806
G1 X112.774 Y78.194 E0.00698
G1 X118.245 Y78.194 E0.17154
G1 X118.443 Y78.212 E0.00622
G1 X118.648 Y78.266 E0.00664
G1 X118.838 Y78.353 E0.00655
G1 X119.009 Y78.470 E0.00652
G1 X119.158 Y78.612 E0.00645
G1 X119.285 Y78.776 E0.00650
G1 X119.386 Y78.959 E0.00656
G1 X119.460 Y79.158 E0.00666
G1 X119.505 Y79.370 E0.00679
G1 X119.519 Y79.578 E0.00654
G1 X119.519 Y102.573 E0.72098
G1 X119.504 Y102.793 E0.00691
G1 X119.455 Y103.017 E0.00720
G1 X119.376 Y103.225 E0.00698
G1 X119.269 Y103.418 E0.00690
G1 X119.136 Y103.589 E0.00680
G1 X118.979 Y103.739 E0.00681
G1 X118.797 Y103.861 E0.00686
G1 X118.597 Y103.953 E0.00691
G1 X118.304 Y103.993 E0.00927
G1 X96.882 Y103.993 E0.67168
G1 X96.693 Y103.975 E0.00595
G1 X96.496 Y103.920 E0.00643
G1 X96.313 Y103.831 E0.00636
G1 X96.153 Y103.716 E0.00619
G1 X96.014 Y103.579 E0.00612
G1 X95.893 Y103.417 E0.00634
G1 X95.735 Y103.066 E0.01207
G1 X95.680 Y102.688 E0.01199
G1 X95.680 Y79.612 E0.72352
G1 X95.697 Y79.400 E0.00668
G1 X95.745 Y79.183 E0.00697
G1 X95.823 Y78.977 E0.00689
G1 X95.929 Y78.786 E0.00687
G1 X96.061 Y78.614 E0.00679
G1 X96.216 Y78.462 E0.00681
G1 X96.396 Y78.336 E0.00687
G1 X96.608 Y78.234 E0.00739
G1 X96.894 Y78.194 E0.00905
G1 X102.019 Y78.194 E0.16070
G1 X102.210 Y78.213 E0.00602
G1 X102.407 Y78.271 E0.00643
G1 X102.586 Y78.365 E0.00635
G1 X102.741 Y78.489 E0.00621
G1 X102.875 Y78.641 E0.00636
G1 X103.053 Y78.975 E0.01187
G1 X103.139 Y79.351 E0.01208
G1 X103.149 Y79.548 E0.00619
G1 X103.008 Y96.902 E0.54412
G1 X103.021 Y97.034 E0.00416
M204 S1250
G1 X103.091 Y97.109 F9000.000
G1 E-2.24000 F2400.000
;WIPE_START
G1 F7200.000
G1 X103.054 Y97.154 E-0.03942
G1 X103.133 Y97.195 E-0.02806
G1 X103.284 Y97.210 E-0.04823
G1 X105.799 Y97.210 E-0.79630
;WIPE_END
G1 E-0.04800 F2400.000
G1 Z0.400 F9000.000
G1 X105.458 Y94.915
G1 Z0.200
G1 E3.20000 F1500.000
M204 S800
;TYPE:Perimeter
G1 F1200.000
G1 X109.717 Y94.915 E0.13354
G1 X109.754 Y79.481 E0.48391
G1 X109.819 Y78.612 E0.02732
G1 X109.987 Y77.925 E0.02217
G1 X110.235 Y77.372 E0.01901
G1 X110.545 Y76.929 E0.01696
G1 X110.904 Y76.577 E0.01576
G1 X111.300 Y76.303 E0.01511
G1 X111.719 Y76.101 E0.01460
G1 X112.145 Y75.965 E0.01400
G1 X112.553 Y75.889 E0.01302
G1 X112.944 Y75.864 E0.01227
G1 X118.319 Y75.864 E0.16855
G1 X118.927 Y75.915 E0.01912
G1 X119.473 Y76.053 E0.01767
G1 X119.985 Y76.275 E0.01748
G1 X120.454 Y76.575 E0.01746
G1 X120.875 Y76.943 E0.01753
G1 X121.236 Y77.373 E0.01762
G1 X121.531 Y77.858 E0.01779
G1 X121.752 Y78.388 E0.01800
G1 X121.889 Y78.956 E0.01833
G1 X121.939 Y79.588 E0.01986
G1 X121.939 Y102.493 E0.71817
G1 X121.888 Y103.135 E0.02020
G1 X121.748 Y103.714 E0.01867
G1 X121.523 Y104.254 E0.01833
G1 X121.222 Y104.748 E0.01813
G1 X120.853 Y105.187 E0.01799
G1 X120.423 Y105.564 E0.01792
G1 X119.944 Y105.869 E0.01781
G1 X119.423 Y106.096 E0.01784
G1 X118.867 Y106.237 E0.01797
G1 X118.249 Y106.288 E0.01945
G1 X96.934 Y106.288 E0.66831
G1 X96.326 Y106.239 E0.01913
G1 X95.782 Y106.102 E0.01759
G1 X95.274 Y105.884 E0.01733
G1 X94.810 Y105.591 E0.01721
G1 X94.395 Y105.230 E0.01725
G1 X94.039 Y104.807 E0.01730
G1 X93.749 Y104.333 E0.01742
G1 X93.534 Y103.814 E0.01763
G1 X93.399 Y103.256 E0.01802
G1 X93.349 Y102.634 E0.01956
G1 X93.349 Y79.659 E0.72034
G1 X93.401 Y79.017 E0.02020
G1 X93.541 Y78.438 E0.01868
G1 X93.766 Y77.898 E0.01834
G1 X94.067 Y77.405 E0.01812
G1 X94.436 Y76.965 E0.01801
G1 X94.865 Y76.588 E0.01789
G1 X95.344 Y76.283 E0.01782
G1 X95.865 Y76.057 E0.01780
G1 X96.423 Y75.916 E0.01803
G1 X97.041 Y75.864 E0.01946
G1 X102.091 Y75.864 E0.15833
G1 X102.687 Y75.913 E0.01875
G1 X103.216 Y76.046 E0.01712
G1 X103.708 Y76.260 E0.01681
G1 X104.156 Y76.548 E0.01670
G1 X104.556 Y76.906 E0.01681
G1 X104.899 Y77.326 E0.01703
G1 X105.180 Y77.803 E0.01736
G1 X105.389 Y78.333 E0.01785
G1 X105.522 Y78.907 E0.01849
G1 X105.570 Y79.549 E0.02016
G1 X105.459 Y94.855 E0.47994
M204 S1250
G1 X105.838 Y94.538 F9000.000
M204 S800
;TYPE:External perimeter
G1 F1200.000
G1 X109.341 Y94.538 E0.10983
G1 X109.377 Y79.467 E0.47255
G1 X109.445 Y78.553 E0.02872
G1 X109.628 Y77.803 E0.02423
G1 X109.905 Y77.185 E0.02121
G1 X110.256 Y76.684 E0.01918
G1 X110.663 Y76.285 E0.01787
G1 X111.110 Y75.976 E0.01704
G1 X111.579 Y75.750 E0.01634
G1 X112.052 Y75.598 E0.01557
G1 X112.507 Y75.514 E0.01448
G1 X112.932 Y75.487 E0.01336
G1 X118.335 Y75.487 E0.16941
G1 X118.989 Y75.542 E0.02058
G1 X119.595 Y75.695 E0.01960
G1 X120.162 Y75.941 E0.01937
G1 X120.681 Y76.272 E0.01930
M73 P2 R41
G1 X121.145 Y76.679 E0.01934
G1 X121.543 Y77.153 E0.01941
G1 X121.868 Y77.686 E0.01960
G1 X122.111 Y78.271 E0.01983
G1 X122.263 Y78.897 E0.02020
G1 X122.316 Y79.573 E0.02127
G1 X122.316 Y102.508 E0.71910
G1 X122.262 Y103.195 E0.02161
G1 X122.107 Y103.832 E0.02055
G1 X121.860 Y104.425 E0.02016
G1 X121.529 Y104.968 E0.01993
G1 X121.123 Y105.451 E0.01979
G1 X120.650 Y105.866 E0.01972
G1 X120.122 Y106.203 E0.01965
G1 X119.545 Y106.454 E0.01973
G1 X118.929 Y106.610 E0.01992
G1 X118.264 Y106.665 E0.02092
G1 X96.919 Y106.665 E0.66928
G1 X96.264 Y106.612 E0.02059
G1 X95.661 Y106.460 E0.01951
G1 X95.097 Y106.219 E0.01921
G1 X94.584 Y105.894 E0.01906
G1 X94.125 Y105.495 E0.01907
G1 X93.733 Y105.029 E0.01911
G1 X93.412 Y104.505 E0.01924
G1 X93.174 Y103.931 E0.01948
G1 X93.025 Y103.315 E0.01988
G1 X92.972 Y102.649 E0.02096
G1 X92.972 Y79.644 E0.72128
G1 X93.027 Y78.957 E0.02161
G1 X93.182 Y78.321 E0.02054
G1 X93.428 Y77.727 E0.02017
G1 X93.760 Y77.184 E0.01993
G1 X94.166 Y76.700 E0.01980
G1 X94.638 Y76.286 E0.01969
G1 X95.167 Y75.949 E0.01966
G1 X95.743 Y75.699 E0.01969
G1 X96.360 Y75.543 E0.01996
G1 X97.025 Y75.487 E0.02093
G1 X102.106 Y75.487 E0.15931
G1 X102.749 Y75.540 E0.02021
G1 X103.338 Y75.688 E0.01906
G1 X103.886 Y75.927 E0.01873
G1 X104.385 Y76.247 E0.01859
G1 X104.829 Y76.644 E0.01867
G1 X105.210 Y77.110 E0.01886
G1 X105.519 Y77.637 E0.01918
G1 X105.750 Y78.220 E0.01965
G1 X105.895 Y78.851 E0.02028
G1 X105.947 Y79.536 E0.02154
G1 X105.838 Y94.478 E0.46851
M204 S1250
G1 X105.838 Y94.938 F9000.000
G1 E-2.24000 F2400.000
;WIPE_START
G1 F7200.000
G1 X108.718 Y94.527 E-0.91200
;WIPE_END
G1 E-0.04800 F2400.000
G1 Z0.400 F9000.000
G1 X119.063 Y76.066
G1 Z0.200
G1 E3.20000 F1500.000
M204 S800
;TYPE:Solid infill
;WIDTH:0.420729
G1 F1200.000
G1 X121.485 Y78.488 E0.10762
G1 X121.609 Y79.001 E0.01657
G1 X121.622 Y79.159 E0.00499
G1 X118.637 Y76.174 E0.13261
G1 X118.075 Y76.147 E0.01767
G1 X121.656 Y79.728 E0.15911
G1 X121.656 Y80.263 E0.01679
G1 X117.540 Y76.147 E0.18285
G1 X117.006 Y76.147 E0.01679
G1 X118.405 Y77.546 E0.06215
G1 X117.859 Y77.534 E0.01716
G1 X116.472 Y76.147 E0.06163
G1 X115.938 Y76.147 E0.01679
G1 X117.325 Y77.534 E0.06163
G1 X116.791 Y77.534 E0.01679
G1 X115.403 Y76.147 E0.06163
G1 X114.869 Y76.147 E0.01679
G1 X116.256 Y77.534 E0.06163
G1 X115.722 Y77.534 E0.01679
G1 X114.335 Y76.147 E0.06163
G1 X113.800 Y76.147 E0.01679
G1 X115.188 Y77.534 E0.06163
G1 X114.653 Y77.534 E0.01679
G1 X113.266 Y76.147 E0.06163
G1 X112.952 Y76.147 E0.00985
G1 X112.745 Y76.160 E0.00654
G1 X114.119 Y77.534 E0.06105
G1 X113.585 Y77.534 E0.01679
G1 X112.278 Y76.228 E0.05805
G1 X111.867 Y76.351 E0.01349
G1 X113.050 Y77.534 E0.05258
G1 X112.536 Y77.554 E0.01617
G1 X111.502 Y76.520 E0.04595
G1 X111.179 Y76.731 E0.01213
G1 X112.143 Y77.696 E0.04285
G1 X111.891 Y77.866 E0.00955
G1 X111.841 Y77.927 E0.00251
G1 X110.895 Y76.982 E0.04200
G1 X110.762 Y77.113 E0.00588
G1 X110.650 Y77.271 E0.00609
G1 X111.613 Y78.234 E0.04278
G1 X111.508 Y78.466 E0.00800
G1 X111.468 Y78.624 E0.00510
G1 X110.443 Y77.598 E0.04555
G1 X110.278 Y77.967 E0.01270
G1 X111.414 Y79.103 E0.05046
G1 X111.424 Y79.648 E0.01712
G1 X110.165 Y78.389 E0.05595
G1 X110.099 Y78.657 E0.00867
G1 X110.085 Y78.843 E0.00588
G1 X111.422 Y80.180 E0.05938
G1 X111.420 Y80.712 E0.01672
G1 X110.048 Y79.341 E0.06094
G1 X110.036 Y79.863 E0.01641
G1 X111.418 Y81.244 E0.06139
G1 X111.415 Y81.776 E0.01672
G1 X110.035 Y80.396 E0.06135
G1 X110.033 Y80.929 E0.01675
G1 X111.413 Y82.309 E0.06130
G1 X111.411 Y82.841 E0.01672
G1 X110.032 Y81.462 E0.06126
G1 X110.031 Y81.995 E0.01675
G1 X111.409 Y83.373 E0.06122
G1 X111.407 Y83.905 E0.01672
G1 X110.030 Y82.528 E0.06118
G1 X110.028 Y83.061 E0.01675
G1 X111.404 Y84.437 E0.06114
G1 X111.402 Y84.969 E0.01672
G1 X110.027 Y83.594 E0.06110
G1 X110.026 Y84.127 E0.01675
G1 X111.400 Y85.501 E0.06106
G1 X111.398 Y86.033 E0.01672
G1 X110.024 Y84.660 E0.06102
G1 X110.023 Y85.193 E0.01675
G1 X111.396 Y86.565 E0.06098
G1 X111.394 Y87.098 E0.01672
G1 X110.022 Y85.726 E0.06094
G1 X110.021 Y86.259 E0.01675
G1 X111.391 Y87.630 E0.06090
G1 X111.389 Y88.162 E0.01672
G1 X110.019 Y86.792 E0.06086
G1 X110.018 Y87.325 E0.01675
G1 X111.387 Y88.694 E0.06082
G1 X111.385 Y89.226 E0.01672
G1 X110.017 Y87.858 E0.06077
G1 X110.016 Y88.391 E0.01675
G1 X111.383 Y89.758 E0.06073
G1 X111.380 Y90.290 E0.01672
G1 X110.014 Y88.924 E0.06069
G1 X110.013 Y89.457 E0.01675
G1 X111.378 Y90.822 E0.06065
G1 X111.376 Y91.355 E0.01672
G1 X110.012 Y89.990 E0.06061
G1 X110.010 Y90.523 E0.01675
G1 X111.374 Y91.887 E0.06057
G1 X111.372 Y92.419 E0.01672
G1 X110.009 Y91.056 E0.06053
G1 X110.008 Y91.589 E0.01675
G1 X111.369 Y92.951 E0.06049
G1 X111.367 Y93.483 E0.01672
G1 X110.007 Y92.122 E0.06045
G1 X110.005 Y92.655 E0.01675
G1 X111.365 Y94.015 E0.06041
G1 X111.363 Y94.547 E0.01672
G1 X110.004 Y93.188 E0.06037
G1 X110.003 Y93.721 E0.01675
G1 X111.361 Y95.079 E0.06033
G1 X111.358 Y95.611 E0.01672
G1 X110.002 Y94.254 E0.06029
G1 X110.000 Y94.787 E0.01675
G1 X111.356 Y96.144 E0.06025
G1 X111.355 Y96.550 E0.01277
G1 X111.229 Y96.550 E0.00396
G1 X109.876 Y95.198 E0.06008
G1 X109.342 Y95.198 E0.01679
G1 X110.694 Y96.550 E0.06008
G1 X110.160 Y96.550 E0.01679
G1 X108.808 Y95.198 E0.06008
G1 X108.273 Y95.198 E0.01679
G1 X109.626 Y96.550 E0.06008
G1 X109.091 Y96.550 E0.01679
G1 X107.739 Y95.198 E0.06008
G1 X107.205 Y95.198 E0.01679
G1 X108.557 Y96.550 E0.06008
G1 X108.023 Y96.550 E0.01679
G1 X106.671 Y95.198 E0.06008
G1 X106.136 Y95.198 E0.01679
G1 X107.658 Y96.720 E0.06762
M204 S1250
G1 E-2.24000 F2400.000
;WIPE_START
G1 F7200.000
G1 X106.136 Y95.198 E-0.68158
G1 X106.671 Y95.198 E-0.16920
G1 X106.807 Y95.335 E-0.06122
;WIPE_END
G1 E-0.04800 F2400.000
G1 Z0.400 F9000.000
G1 X105.246 Y78.279
G1 Z0.200
G1 E3.20000 F1500.000
M204 S800
G1 F1200.000
G1 X103.404 Y76.437 E0.08185
G1 X103.125 Y76.315 E0.00958
G1 X102.625 Y76.192 E0.01617
G1 X105.199 Y78.766 E0.11435
G1 X105.241 Y78.950 E0.00594
G1 X105.273 Y79.374 E0.01337
G1 X102.046 Y76.147 E0.14338
G1 X101.511 Y76.147 E0.01679
G1 X105.284 Y79.920 E0.16762
G1 X105.280 Y80.450 E0.01666
G1 X103.707 Y78.877 E0.06989
G1 X103.677 Y78.743 E0.00432
G1 X103.422 Y78.263 E0.01708
G1 X103.198 Y78.010 E0.01061
G1 X102.949 Y77.810 E0.01002
G1 X102.656 Y77.657 E0.01039
G1 X102.416 Y77.585 E0.00788
G1 X100.977 Y76.147 E0.06391
G1 X100.443 Y76.147 E0.01679
