; generated by PrusaSlicer 2.3.3+win64 on 2022-03-10 at 22:02:50 UTC


;
;

;
;
; 

; external perimeters extrusion width = 0.45mm
; perimeters extrusion width = 0.45mm
; infill extrusion width = 0.45mm
; solid infill extrusion width = 0.45mm
; top infill extrusion width = 0.40mm
; first layer extrusion width = 0.42mm

M73 P0 R98
M201 X1250 Y1250 Z400 E5000 ; sets maximum accelerations, mm/sec^2
M203 X180 Y180 Z12 E80 ; sets maximum feedrates, mm/sec
M204 P1250 R1250 T1250 ; sets acceleration (P, T) and retract acceleration (R), mm/sec^2
M205 X8.00 Y8.00 Z2.00 E10.00 ; sets the jerk limits, mm/sec
M205 S0 T0 ; sets the minimum extruding and travel feed rate, mm/sec
M107
;TYPE:Custom
G90 ; use absolute coordinates
M83 ; extruder relative mode
M104 S170 ; set extruder temp for bed leveling
M140 S85 ; set bed temp
M109 R170 ; wait for bed leveling temp
M190 S85 ; wait for bed temp
G28 ; home all without mesh bed level
G29 ; mesh bed leveling 
M104 S230 ; set extruder temp
G92 E0.0
G1 Y-2.0 X179 F2400
G1 Z3 F720
M109 S230 ; wait for extruder temp

; intro line
G1 X170 F1000
G1 Z0.2 F720
G1 X110.0 E8.0 F900
G1 X40.0 E10.0 F700
G92 E0.0

M221 S95 ; set flow
G21 ; set units to millimeters
G90 ; use absolute coordinates
M83 ; use relative distances for extrusion
M900 K0.2 ; Filament gcode
;LAYER_CHANGE
;Z:0.2
;HEIGHT:0.2
;BEFORE_LAYER_CHANGE
G92 E0.0
;0.2


G1 E-3.20000 F2400.000
G1 Z0.200 F9000.000
;AFTER_LAYER_CHANGE
;0.2
G1 Z0.400
G1 X83.706 Y30.824
G1 Z0.200
G1 E3.20000 F1500.000
M204 S800
;TYPE:Skirt
;WIDTH:0.42
G1 F1200.000
G1 X84.470 Y31.323 E0.02860
G1 X117.694 Y64.554 E1.47337
G1 X120.016 Y67.058 E0.10707
G1 X121.769 Y69.392 E0.09154
G1 X123.219 Y72.026 E0.09425
G1 X124.229 Y74.630 E0.08759
G1 X124.870 Y77.078 E0.07935
G1 X125.235 Y79.341 E0.07187
G1 X125.388 Y81.210 E0.05878
G1 X125.414 Y82.743 E0.04810
G1 X124.521 Y106.976 E0.76032
G1 X124.256 Y109.401 E0.07649
G1 X123.651 Y111.931 E0.08156
G1 X122.749 Y114.627 E0.08915
G1 X121.696 Y117.189 E0.08684
G1 X120.533 Y119.636 E0.08496
G1 X119.370 Y121.809 E0.07726
G1 X118.198 Y123.754 E0.07120
G1 X112.899 Y131.693 E0.29928
G1 X111.614 Y133.387 E0.06666
G1 X103.652 Y142.127 E0.37071
G1 X103.283 Y142.455 E0.01550
G1 X102.850 Y142.702 E0.01562
G1 X102.107 Y142.891 E0.02402
G1 X88.010 Y144.017 E0.44341
G1 X84.530 Y144.095 E0.10916
G1 X62.193 Y143.401 E0.70068
G1 X58.667 Y143.014 E0.11122
G1 X54.598 Y142.152 E0.13041
G1 X51.096 Y141.143 E0.11429
G1 X48.842 Y140.338 E0.07504
G1 X46.455 Y139.354 E0.08094
G1 X43.887 Y138.118 E0.08937
G1 X41.429 Y136.702 E0.08894
G1 X39.184 Y135.097 E0.08653
G1 X37.243 Y133.243 E0.08414
G1 X35.809 Y131.166 E0.07915
G1 X34.973 Y129.322 E0.06350
G1 X34.426 Y127.666 E0.05466
G1 X34.091 Y125.981 E0.05388
G1 X31.462 Y96.311 E0.93391
G1 X31.521 Y94.442 E0.05866
G1 X31.723 Y92.648 E0.05658
G1 X32.020 Y90.909 E0.05532
G1 X32.959 Y86.660 E0.13644
G1 X38.349 Y69.136 E0.57488
G1 X39.140 Y66.975 E0.07214
G1 X40.202 Y64.638 E0.08049
G1 X41.464 Y62.383 E0.08101
G1 X42.845 Y60.330 E0.07757
G1 X44.324 Y58.435 E0.07538
G1 X45.984 Y56.540 E0.07899
G1 X49.872 Y52.564 E0.17437
G1 X54.310 Y48.355 E0.19178
G1 X56.908 Y46.198 E0.10587
G1 X60.139 Y43.663 E0.12877
G1 X67.649 Y37.974 E0.29539
G1 X70.541 Y35.984 E0.11007
G1 X73.003 Y34.430 E0.09130
G1 X75.083 Y33.242 E0.07509
G1 X76.752 Y32.398 E0.05866
G1 X79.181 Y31.424 E0.08204
G1 X82.315 Y30.702 E0.10085
G1 X82.814 Y30.649 E0.01574
G1 X83.647 Y30.812 E0.02661
M204 S1250
; printing object Exquisite Uusam-Esboo (1).stl id:0 copy 0
G1 E-2.24000 F2400.000
;WIPE_START
G1 F7200.000
G1 X84.470 Y31.323 E-0.30658
G1 X85.821 Y32.675 E-0.60542
;WIPE_END
G1 E-0.04800 F2400.000
G1 Z0.400 F9000.000
G1 X101.114 Y90.864
G1 Z0.200
G1 E3.20000 F1500.000
M204 S800
;TYPE:Perimeter
G1 F1200.000
G1 X102.634 Y90.584 E0.04846
G1 X103.634 Y90.481 E0.03152
G1 X104.092 Y90.467 E0.01436
G1 X104.556 Y90.463 E0.01455
G1 X105.052 Y90.509 E0.01563
G1 X106.226 Y90.720 E0.03738
G1 X105.795 Y91.330 E0.02342
G1 X106.277 Y91.223 E0.01548
G1 X106.818 Y91.878 E0.02663
G1 X107.080 Y92.273 E0.01487
G1 X107.268 Y92.608 E0.01202
G1 X108.143 Y94.364 E0.06153
G1 X108.520 Y95.290 E0.03134
G1 X108.961 Y96.673 E0.04552
G1 X109.217 Y97.813 E0.03664
G1 X45.323 Y97.813 E2.00337
G1 X45.728 Y95.269 E0.08077
G1 X46.589 Y92.532 E0.08996
G1 X47.072 Y91.682 E0.03068
G1 X47.380 Y91.264 E0.01626
G1 X47.906 Y90.756 E0.02294
G1 X47.779 Y90.432 E0.01091
G1 X48.651 Y89.290 E0.04504
G1 X49.589 Y90.298 E0.04318
G1 X49.943 Y90.583 E0.01422
G1 X50.555 Y90.928 E0.02205
G1 X51.460 Y91.338 E0.03115
G1 X52.480 Y91.596 E0.03298
G1 X53.344 Y91.721 E0.02738
G1 X54.043 Y91.743 E0.02193
G1 X54.608 Y91.709 E0.01774
G1 X55.548 Y91.599 E0.02968
G1 X55.575 Y91.157 E0.01389
G1 X55.735 Y90.013 E0.03623
G1 X55.861 Y89.372 E0.02048
G1 X56.019 Y88.719 E0.02107
G1 X56.219 Y88.067 E0.02138
G1 X56.462 Y87.453 E0.02071
G1 X56.872 Y86.569 E0.03054
G1 X57.247 Y85.847 E0.02553
G1 X57.597 Y85.254 E0.02159
G1 X57.937 Y84.769 E0.01857
G1 X58.291 Y84.374 E0.01662
G1 X58.683 Y84.077 E0.01540
G1 X59.109 Y83.894 E0.01455
G1 X58.475 Y83.264 E0.02803
G1 X59.823 Y82.687 E0.04597
G1 X60.532 Y82.575 E0.02249
G1 X61.252 Y82.567 E0.02258
G1 X61.963 Y82.612 E0.02234
G1 X62.648 Y82.688 E0.02163
G1 X66.148 Y83.214 E0.11098
G1 X68.846 Y83.590 E0.08540
G1 X69.797 Y83.754 E0.03024
G1 X72.925 Y84.058 E0.09854
G1 X74.780 Y84.288 E0.05863
G1 X76.077 Y84.503 E0.04121
G1 X76.583 Y84.607 E0.01620
G1 X77.223 Y84.760 E0.02064
G1 X77.967 Y84.968 E0.02422
G1 X78.783 Y85.238 E0.02695
G1 X79.639 Y85.577 E0.02887
G1 X80.498 Y85.989 E0.02986
G1 X81.212 Y86.400 E0.02584
G1 X81.820 Y86.787 E0.02259
G1 X82.346 Y87.157 E0.02017
G1 X82.804 Y87.510 E0.01813
G1 X83.885 Y88.413 E0.04416
G1 X84.784 Y89.104 E0.03555
G1 X85.427 Y89.526 E0.02412
G1 X88.225 Y91.221 E0.10257
G1 X90.503 Y92.795 E0.08680
G1 X91.032 Y93.190 E0.02073
G1 X91.453 Y93.586 E0.01813
G1 X91.626 Y93.949 E0.01259
G1 X92.002 Y93.682 E0.01448
G1 X92.505 Y93.418 E0.01780
G1 X93.624 Y93.013 E0.03730
G1 X94.883 Y92.641 E0.04116
G1 X96.289 Y92.295 E0.04539
G1 X97.834 Y91.984 E0.04943
G1 X99.510 Y91.714 E0.05321
G1 X100.888 Y91.557 E0.04350
G1 X101.411 Y91.551 E0.01640
G1 X101.617 Y91.582 E0.00654
G1 X101.149 Y90.914 E0.02559
M204 S1250
G1 E-2.24000 F2400.000
;WIPE_START
G1 F7200.000
G1 X102.634 Y90.584 E-0.48179
G1 X103.634 Y90.481 E-0.31832
G1 X103.987 Y90.470 E-0.11190
;WIPE_END
G1 E-0.04800 F2400.000
G1 Z0.400 F9000.000
G1 X91.353 Y94.253
G1 Z0.200
G1 E3.20000 F1500.000
M204 S800
;TYPE:External perimeter
G1 F1200.000
G1 X90.820 Y94.540 E0.01897
G1 X90.286 Y94.114 E0.02143
G1 X89.422 Y93.492 E0.03336
G1 X87.969 Y92.530 E0.05465
G1 X85.822 Y91.212 E0.07899
G1 X84.452 Y90.411 E0.04975
G1 X83.998 Y90.116 E0.01699
G1 X81.657 Y88.252 E0.09380
G1 X80.937 Y87.728 E0.02792
G1 X80.164 Y87.225 E0.02893
G1 X79.337 Y86.765 E0.02967
G1 X78.456 Y86.369 E0.03028
G1 X77.518 Y86.060 E0.03099
G1 X76.727 Y85.859 E0.02558
G1 X75.969 Y85.692 E0.02433
G1 X74.489 Y85.435 E0.04711
G1 X72.951 Y85.244 E0.04857
G1 X69.157 Y84.867 E0.11954
G1 X68.117 Y84.740 E0.03287
G1 X63.770 Y84.063 E0.13794
G1 X62.755 Y83.920 E0.03213
G1 X61.818 Y83.813 E0.02955
G1 X60.986 Y83.755 E0.02615
G1 X60.285 Y83.761 E0.02200
G1 X59.609 Y83.859 E0.02141
G1 X59.137 Y83.391 E0.02085
G1 X59.928 Y83.052 E0.02697
G1 X60.564 Y82.952 E0.02017
G1 X61.242 Y82.944 E0.02126
G1 X61.930 Y82.988 E0.02163
G1 X62.599 Y83.062 E0.02112
G1 X66.094 Y83.588 E0.11081
G1 X68.788 Y83.962 E0.08527
G1 X69.746 Y84.128 E0.03049
G1 X72.883 Y84.433 E0.09882
G1 X74.726 Y84.662 E0.05823
G1 X76.008 Y84.874 E0.04075
G1 X76.501 Y84.975 E0.01579
G1 X77.129 Y85.125 E0.02022
G1 X77.857 Y85.329 E0.02372
G1 X78.654 Y85.593 E0.02633
G1 X79.488 Y85.923 E0.02811
G1 X80.322 Y86.323 E0.02901
G1 X81.017 Y86.723 E0.02514
G1 X81.610 Y87.101 E0.02205
G1 X82.123 Y87.461 E0.01965
G1 X82.568 Y87.804 E0.01763
G1 X83.649 Y88.707 E0.04417
G1 X84.565 Y89.411 E0.03623
G1 X85.226 Y89.845 E0.02478
G1 X88.020 Y91.537 E0.10243
G1 X90.282 Y93.101 E0.08623
G1 X90.790 Y93.480 E0.01984
G1 X91.143 Y93.812 E0.01523
G1 X91.327 Y94.199 E0.01341
M204 S1250
G1 X91.558 Y94.596 F9000.000
G1 E-2.24000 F2400.000
;WIPE_START
G1 F7200.000
G1 X90.820 Y94.540 E-0.19349
G1 X90.286 Y94.114 E-0.21646
G1 X89.422 Y93.492 E-0.33690
G1 X88.987 Y93.204 E-0.16515
;WIPE_END
G1 E-0.04800 F2400.000
G1 Z0.400 F9000.000
G1 X106.133 Y91.642
G1 Z0.200
G1 E3.20000 F1500.000
M204 S800
G1 F1200.000
G1 X106.515 Y92.103 E0.01878
G1 X106.759 Y92.470 E0.01381
G1 X106.935 Y92.784 E0.01129
G1 X107.799 Y94.520 E0.06079
G1 X108.165 Y95.419 E0.03043
G1 X108.597 Y96.772 E0.04454
G1 X108.746 Y97.436 E0.02135
G1 X45.765 Y97.436 E1.97474
M73 P0 R97
G1 X46.096 Y95.356 E0.06605
G1 X46.936 Y92.684 E0.08783
G1 X47.389 Y91.888 E0.02873
G1 X47.664 Y91.513 E0.01456
G1 X48.186 Y91.010 E0.02273
G1 X48.457 Y91.433 E0.01572
G1 X48.910 Y91.846 E0.01922
G1 X49.497 Y92.208 E0.02164
G1 X50.184 Y92.515 E0.02359
G1 X50.933 Y92.765 E0.02476
G1 X51.708 Y92.957 E0.02504
G1 X52.474 Y93.091 E0.02440
G1 X53.194 Y93.172 E0.02269
G1 X54.108 Y93.192 E0.02867
G1 X54.606 Y93.153 E0.01567
G1 X55.047 Y93.075 E0.01406
G1 X55.427 Y92.963 E0.01241
G1 X55.573 Y92.900 E0.00497
G1 X55.689 Y92.818 E0.00445
G1 X55.931 Y92.579 E0.01067
G1 X55.900 Y92.019 E0.01760
G1 X55.951 Y91.195 E0.02587
G1 X56.107 Y90.075 E0.03545
G1 X56.229 Y89.453 E0.01989
G1 X56.383 Y88.819 E0.02045
G1 X56.575 Y88.192 E0.02057
G1 X56.809 Y87.602 E0.01990
G1 X57.210 Y86.736 E0.02993
G1 X57.577 Y86.029 E0.02494
G1 X57.915 Y85.458 E0.02080
G1 X58.233 Y85.004 E0.01741
G1 X58.548 Y84.652 E0.01478
G1 X58.874 Y84.405 E0.01285
G1 X59.203 Y84.261 E0.01125
G1 X59.477 Y84.222 E0.00868
G1 X59.894 Y84.099 E0.01362
G1 X60.353 Y84.040 E0.01451
G1 X60.644 Y84.026 E0.00914
G1 X61.505 Y84.057 E0.02700
G1 X62.370 Y84.144 E0.02725
G1 X63.823 Y84.346 E0.04600
G1 X66.934 Y84.842 E0.09880
G1 X68.442 Y85.063 E0.04779
G1 X69.588 Y85.212 E0.03621
G1 X72.536 Y85.507 E0.09289
G1 X74.396 Y85.729 E0.05876
G1 X75.585 Y85.926 E0.03777
G1 X76.191 Y86.049 E0.01939
G1 X77.458 Y86.361 E0.04093
G1 X78.097 Y86.570 E0.02107
G1 X78.714 Y86.824 E0.02090
G1 X79.305 Y87.112 E0.02063
G1 X79.872 Y87.430 E0.02036
G1 X80.414 Y87.768 E0.02005
G1 X81.416 Y88.476 E0.03847
G1 X83.258 Y89.925 E0.07348
G1 X84.046 Y90.510 E0.03077
G1 X84.320 Y90.689 E0.01027
G1 X86.790 Y92.142 E0.08985
G1 X88.556 Y93.257 E0.06550
G1 X90.075 Y94.310 E0.05793
G1 X90.799 Y94.899 E0.02926
G1 X91.468 Y94.524 E0.02404
G1 X92.200 Y94.004 E0.02817
G1 X92.657 Y93.763 E0.01620
G1 X93.741 Y93.371 E0.03614
G1 X94.981 Y93.006 E0.04054
G1 X96.371 Y92.663 E0.04487
G1 X97.901 Y92.355 E0.04895
G1 X99.562 Y92.087 E0.05275
G1 X100.456 Y91.979 E0.02821
G1 X100.909 Y91.934 E0.01430
G1 X101.385 Y91.928 E0.01493
G1 X101.865 Y92.000 E0.01521
G1 X102.312 Y91.990 E0.01401
G1 X103.247 Y91.912 E0.02943
G1 X105.333 Y91.819 E0.06546
G1 X106.075 Y91.655 E0.02383
M204 S1250
G1 X106.486 Y91.453 F9000.000
G1 E-2.24000 F2400.000
;WIPE_START
G1 F7200.000
G1 X106.515 Y92.103 E-0.19900
G1 X106.759 Y92.470 E-0.13949
G1 X106.935 Y92.784 E-0.11398
G1 X107.582 Y94.083 E-0.45953
;WIPE_END
G1 E-0.04800 F2400.000
G1 Z0.400 F9000.000
G1 X55.510 Y91.983
G1 Z0.200
G1 E3.20000 F1500.000
M204 S800
G1 F1200.000
G1 X55.369 Y92.598 E0.01977
G1 X55.022 Y92.752 E0.01191
G1 X54.255 Y92.878 E0.02437
G1 X53.366 Y92.889 E0.02788
G1 X52.405 Y92.799 E0.03025
G1 X51.426 Y92.616 E0.03122
G1 X50.485 Y92.348 E0.03070
G1 X49.637 Y92.001 E0.02873
G1 X48.933 Y91.578 E0.02574
G1 X48.434 Y91.069 E0.02236
G1 X48.208 Y90.494 E0.01937
G1 X48.680 Y89.875 E0.02439
G1 X49.326 Y90.568 E0.02969
G1 X49.737 Y90.900 E0.01657
G1 X50.384 Y91.265 E0.02329
G1 X51.335 Y91.695 E0.03273
G1 X52.406 Y91.967 E0.03465
G1 X53.311 Y92.097 E0.02866
G1 X54.048 Y92.120 E0.02312
G1 X54.641 Y92.085 E0.01861
G1 X55.450 Y91.990 E0.02555
M204 S1250
G1 X55.907 Y92.031 F9000.000
G1 E-2.24000 F2400.000
;WIPE_START
G1 F7200.000
G1 X55.369 Y92.598 E-0.19418
G1 X55.022 Y92.752 E-0.12033
G1 X54.255 Y92.878 E-0.24616
G1 X53.366 Y92.889 E-0.28155
G1 X53.147 Y92.869 E-0.06978
;WIPE_END
G1 E-0.04800 F2400.000
G1 Z0.400 F9000.000
G1 X101.760 Y91.129
G1 Z0.200
G1 E3.20000 F1500.000
M204 S800
G1 F1200.000
G1 X102.689 Y90.957 E0.02962
G1 X103.657 Y90.858 E0.03051
G1 X104.540 Y90.840 E0.02768
G1 X105.001 Y90.883 E0.01453
G1 X105.576 Y90.987 E0.01833
G1 X105.188 Y91.537 E0.02112
G1 X103.225 Y91.626 E0.06162
G1 X102.171 Y91.713 E0.03317
G1 X101.795 Y91.178 E0.02051
M204 S1250
G1 X101.556 Y90.785 F9000.000
G1 E-2.24000 F2400.000
;WIPE_START
G1 F7200.000
G1 X102.689 Y90.957 E-0.29175
G1 X103.657 Y90.858 E-0.30810
G1 X104.540 Y90.840 E-0.27956
G1 X104.642 Y90.850 E-0.03258
;WIPE_END
G1 E-0.04800 F2400.000
G1 Z0.400 F9000.000
G1 X51.404 Y78.239
G1 Z0.200
G1 E3.20000 F1500.000
M204 S800
;TYPE:Perimeter
G1 F1200.000
G1 X57.837 Y78.250 E0.20171
G1 X58.412 Y78.314 E0.01813
G1 X59.296 Y78.551 E0.02871
G1 X59.411 Y78.393 E0.00613
G1 X60.206 Y78.279 E0.02517
G1 X60.738 Y78.245 E0.01670
G1 X82.689 Y78.239 E0.68827
G1 X83.563 Y79.010 E0.03654
G1 X83.870 Y78.239 E0.02602
G1 X93.335 Y78.246 E0.29678
M73 P1 R97
G1 X94.121 Y78.295 E0.02470
G1 X94.263 Y78.438 E0.00632
G1 X94.242 Y78.381 E0.00192
G1 X95.603 Y78.250 E0.04289
G1 X107.148 Y78.239 E0.36199
G1 X107.553 Y78.805 E0.02181
G1 X107.858 Y78.239 E0.02017
G1 X119.337 Y78.239 E0.35990
G1 X119.647 Y80.518 E0.07209
G1 X119.730 Y81.956 E0.04519
G1 X119.722 Y83.025 E0.03352
G1 X119.687 Y83.650 E0.01961
G1 X119.490 Y85.326 E0.05291
G1 X119.192 Y86.709 E0.04438
G1 X118.831 Y87.875 E0.03827
G1 X118.089 Y89.908 E0.06785
G1 X117.772 Y90.979 E0.03504
G1 X117.520 Y92.245 E0.04047
G1 X117.360 Y93.822 E0.04968
G1 X117.338 Y95.771 E0.06113
G1 X117.497 Y97.813 E0.06423
G1 X111.729 Y97.813 E0.18085
G1 X111.349 Y96.088 E0.05541
G1 X110.854 Y94.501 E0.05209
G1 X110.405 Y93.381 E0.03784
G1 X109.338 Y91.229 E0.07532
G1 X108.774 Y90.305 E0.03394
G1 X108.190 Y89.463 E0.03212
G1 X107.760 Y88.966 E0.02061
G1 X107.323 Y88.615 E0.01759
G1 X106.869 Y88.363 E0.01628
G1 X106.408 Y88.191 E0.01541
G1 X105.958 Y88.083 E0.01452
G1 X105.538 Y88.027 E0.01328
G1 X105.171 Y88.007 E0.01153
G1 X103.986 Y88.020 E0.03715
G1 X103.561 Y88.003 E0.01334
G1 X102.869 Y87.876 E0.02208
G1 X102.825 Y87.809 E0.00249
G1 X102.160 Y88.105 E0.02283
G1 X101.678 Y88.222 E0.01554
G1 X99.458 Y88.510 E0.07019
G1 X97.538 Y88.822 E0.06099
G1 X95.564 Y89.219 E0.06315
G1 X93.620 Y89.705 E0.06281
G1 X91.393 Y90.412 E0.07326
G1 X89.545 Y89.123 E0.07066
G1 X86.750 Y87.504 E0.10128
G1 X86.268 Y87.202 E0.01783
G1 X85.902 Y86.937 E0.01416
G1 X84.240 Y85.536 E0.06817
G1 X83.387 Y84.902 E0.03330
G1 X82.885 Y84.567 E0.01894
G1 X82.311 Y84.216 E0.02107
G1 X81.670 Y83.856 E0.02309
G1 X80.768 Y83.415 E0.03148
G1 X79.873 Y83.046 E0.03034
G1 X79.006 Y82.743 E0.02879
G1 X78.199 Y82.502 E0.02639
G1 X76.850 Y82.178 E0.04351
G1 X75.419 Y81.930 E0.04554
G1 X73.401 Y81.670 E0.06380
G1 X70.231 Y81.366 E0.09984
G1 X69.516 Y81.255 E0.02268
G1 X67.068 Y80.932 E0.07745
G1 X62.848 Y80.302 E0.13378
G1 X61.925 Y80.209 E0.02908
G1 X60.968 Y80.171 E0.03002
G1 X59.693 Y80.198 E0.03999
G1 X58.537 Y80.304 E0.03639
G1 X58.559 Y80.174 E0.00411
G1 X57.917 Y80.750 E0.02706
G1 X57.634 Y80.975 E0.01132
G1 X57.353 Y81.132 E0.01010
G1 X56.695 Y81.595 E0.02520
G1 X56.154 Y82.071 E0.02261
G1 X55.969 Y82.270 E0.00854
G1 X55.185 Y82.891 E0.03136
G1 X54.669 Y83.240 E0.01954
G1 X54.966 Y83.258 E0.00934
G1 X54.477 Y84.513 E0.04224
G1 X53.796 Y85.876 E0.04778
G1 X53.467 Y86.694 E0.02765
G1 X53.200 Y87.522 E0.02729
G1 X52.764 Y89.265 E0.05631
G1 X51.763 Y88.825 E0.03429
G1 X51.319 Y88.589 E0.01576
G1 X50.986 Y88.061 E0.01956
G1 X50.756 Y87.423 E0.02125
G1 X50.652 Y87.044 E0.01232
G1 X50.554 Y86.207 E0.02642
G1 X50.204 Y85.748 E0.01810
G1 X49.978 Y85.381 E0.01353
G1 X49.668 Y84.682 E0.02396
G1 X49.399 Y83.908 E0.02571
G1 X49.123 Y84.368 E0.01682
G1 X45.960 Y88.682 E0.16773
G1 X44.982 Y90.231 E0.05744
G1 X44.220 Y91.861 E0.05641
G1 X43.639 Y93.550 E0.05603
G1 X43.218 Y95.249 E0.05486
G1 X42.934 Y96.905 E0.05270
G1 X42.836 Y97.813 E0.02864
G1 X37.031 Y97.813 E0.18203
G1 X36.942 Y96.039 E0.05570
G1 X37.006 Y94.698 E0.04210
G1 X37.176 Y93.321 E0.04350
